; generated by Slic3r 1.3.0 on 2019-12-11 at 09:27:36

; external perimeters extrusion width = 0.55mm (4.37mm^3/s)
; perimeters extrusion width = 0.70mm (11.44mm^3/s)
; infill extrusion width = 0.63mm (13.45mm^3/s)
; solid infill extrusion width = 0.70mm (3.81mm^3/s)
; top infill extrusion width = 0.70mm (2.86mm^3/s)

M107
M190 S65 ; set bed temperature and wait for it to be reached
M104 S205 ; set temperature
G28 ; home all axes
G1 Z5 F5000 ; lift nozzle

; Filament gcode

M109 S205 ; set temperature and wait for it to be reached
G21 ; set units to millimeters
G90 ; use absolute coordinates
M82 ; use absolute distances for extrusion
G92 E0
G1 Z0.500 F7800.000
G1 E-2.00000 F2400.00000
G92 E0
G1 X81.928 Y82.759 F7800.000
G1 E2.00000 F2400.00000
G1 F1800
G1 X82.324 Y82.405 E2.09867
G1 X83.018 Y81.877 E2.26051
G1 X89.505 Y77.562 E3.70634
G1 X90.042 Y77.233 E3.82309
G1 X90.429 Y77.027 E3.90452
G1 X91.232 Y76.672 E4.06731
G1 X91.732 Y76.498 E4.16569
G1 X92.160 Y76.375 E4.24833
G1 X92.922 Y76.211 E4.39300
G1 X93.357 Y76.149 E4.47441
G1 X101.008 Y75.341 E5.90222
G1 X101.563 Y75.299 E6.00551
G1 X102.096 Y75.292 E6.10434
G1 X102.966 Y75.350 E6.26614
G1 X103.826 Y75.493 E6.42787
G1 X104.668 Y75.720 E6.58973
G1 X105.204 Y75.913 E6.69544
G1 X112.434 Y78.773 E8.13834
G1 X112.919 Y78.991 E8.23703
G1 X113.307 Y79.190 E8.31802
G1 X113.972 Y79.592 E8.46208
G1 X114.329 Y79.843 E8.54308
G1 X114.746 Y80.173 E8.64174
G1 X115.073 Y80.461 E8.72268
G1 X115.386 Y80.765 E8.80362
G1 X115.771 Y81.185 E8.90934
G1 X120.903 Y87.153 E10.37001
G1 X121.171 Y87.497 E10.45093
G1 X121.604 Y88.142 E10.59500
G1 X121.868 Y88.604 E10.69375
G1 X122.063 Y88.995 E10.77494
G1 X122.394 Y89.801 E10.93659
G1 X122.620 Y90.544 E11.08065
G1 X124.394 Y98.212 E12.54131
G1 X124.505 Y98.771 E12.64703
G1 X124.576 Y99.298 E12.74572
G1 X124.622 Y100.073 E12.88980
G1 X124.618 Y100.510 E12.97082
G1 X124.584 Y101.040 E13.06943
G1 X124.532 Y101.475 E13.15064
G1 X124.458 Y101.904 E13.23152
G1 X124.332 Y102.459 E13.33707
G1 X122.331 Y110.071 E14.79772
G1 X122.047 Y110.897 E14.95972
G1 X121.684 Y111.689 E15.12136
G1 X121.244 Y112.442 E15.28323
G1 X120.996 Y112.803 E15.36443
G1 X120.514 Y113.410 E15.50832
G1 X115.207 Y119.223 E16.96898
G1 X114.810 Y119.631 E17.07469
G1 X114.488 Y119.926 E17.15564
G1 X114.077 Y120.264 E17.25437
G1 X113.366 Y120.759 E17.41525
G1 X112.686 Y121.144 E17.56025
G1 X112.204 Y121.371 E17.65902
G1 X111.675 Y121.581 E17.76468
G1 X104.271 Y124.255 E19.22547
G1 X103.854 Y124.383 E19.30638
G1 X103.099 Y124.559 E19.45037
G1 X102.234 Y124.676 E19.61224
G1 X101.363 Y124.708 E19.77410
G1 X100.492 Y124.654 E19.93592
G1 X92.466 Y123.549 E21.43945
G1 X91.708 Y123.391 E21.58317
G1 X91.287 Y123.273 E21.66423
G1 X90.789 Y123.103 E21.76193
G1 X90.379 Y122.938 E21.84394
G1 X89.602 Y122.555 E22.00477
G1 X88.936 Y122.145 E22.14976
G1 X82.529 Y117.572 E23.61042
G1 X82.077 Y117.227 E23.71616
G1 X81.745 Y116.943 E23.79706
G1 X81.364 Y116.579 E23.89487
G1 X81.062 Y116.256 E23.97687
G1 X80.780 Y115.924 E24.05782
G1 X80.320 Y115.299 E24.20178
G1 X80.038 Y114.848 E24.30047
G1 X79.765 Y114.348 E24.40618
G1 X76.225 Y107.318 E25.86687
G1 X75.893 Y106.517 E26.02775
G1 X75.663 Y105.770 E26.17278
G1 X75.545 Y105.256 E26.27059
G1 X75.470 Y104.821 E26.35252
G1 X75.391 Y104.049 E26.49662
G1 X75.377 Y103.613 E26.57747
G1 X75.506 Y95.743 E28.03815
G1 X75.534 Y95.174 E28.14384
G1 X75.579 Y94.740 E28.22479
G1 X75.646 Y94.309 E28.30579
G1 X75.757 Y93.789 E28.40440
G1 X76.005 Y92.952 E28.56640
G1 X76.160 Y92.544 E28.64747
G1 X76.485 Y91.840 E28.79137
G1 X80.371 Y84.733 E30.29451
G1 X80.599 Y84.360 E30.37555
G1 X81.049 Y83.728 E30.51959
G1 X81.390 Y83.317 E30.61860
G1 X81.874 Y82.812 E30.74849
G1 E28.74849 F2400.00000
G92 E0
G1 X107.445 Y111.360 F7800.000
G1 E2.00000 F2400.00000
G1 F1800
G1 X106.374 Y110.943 E2.21314
G1 X105.572 Y110.804 E2.36413
G1 X104.952 Y110.805 E2.47930
G1 X104.454 Y110.867 E2.57248
G1 X103.703 Y111.077 E2.71713
G1 X102.957 Y111.457 E2.87235
G1 X102.301 Y111.975 E3.02758
G1 X101.797 Y112.569 E3.17223
G1 X101.531 Y112.997 E3.26559
G1 X101.243 Y113.622 E3.39332
G1 X100.704 Y112.936 E3.55533
G1 X100.337 Y112.591 E3.64869
G1 X99.831 Y112.220 E3.76507
G1 X99.107 Y111.863 E3.91500
G1 X98.354 Y111.662 E4.05965
G1 X97.854 Y111.606 E4.15301
G1 X97.227 Y111.613 E4.26939
G1 X96.433 Y111.762 E4.41932
G1 X95.657 Y112.075 E4.57455
G1 X94.751 Y112.670 E4.77569
G1 X94.542 Y111.765 E4.94804
G1 X94.257 Y111.057 E5.08966
G1 X93.930 Y110.530 E5.20483
G1 X93.615 Y110.139 E5.29801
G1 X93.084 Y109.649 E5.43208
G1 X92.667 Y109.367 E5.52544
G1 X92.108 Y109.082 E5.64182
G1 X91.364 Y108.853 E5.78646
G1 X90.713 Y108.771 E5.90811
G1 X90.058 Y108.787 E6.02976
G1 X89.376 Y108.922 E6.15881
G1 X89.656 Y108.020 E6.33411
G1 X89.741 Y107.188 E6.48934
G1 X89.667 Y106.412 E6.63399
G1 X89.545 Y105.924 E6.72735
G1 X89.320 Y105.339 E6.84373
G1 X88.904 Y104.646 E6.99366
G1 X88.340 Y104.028 E7.14889
G1 X87.689 Y103.550 E7.29882
G1 X87.127 Y103.271 E7.41520
G1 X86.461 Y103.038 E7.54614
G1 X87.186 Y102.236 E7.74674
G1 X87.550 Y101.657 E7.87367
G1 X87.856 Y100.909 E8.02361
G1 X88.003 Y100.144 E8.16825
G1 X88.024 Y99.641 E8.26162
G1 X87.972 Y99.015 E8.37832
G1 X87.772 Y98.255 E8.52402
G1 X87.514 Y97.691 E8.63918
G1 X87.250 Y97.264 E8.73237
G1 X86.586 Y96.477 E8.92349
G1 X87.606 Y96.102 E9.12519
G1 X88.319 Y95.664 E9.28041
G1 X88.890 Y95.134 E9.42506
G1 X89.204 Y94.740 E9.51843
G1 X89.532 Y94.206 E9.63480
G1 X89.829 Y93.454 E9.78473
G1 X89.977 Y92.631 E9.93996
G1 X89.962 Y91.852 E10.08461
G1 X89.878 Y91.356 E10.17797
G1 X89.680 Y90.697 E10.30570
G1 X90.595 Y90.864 E10.47829
G1 X91.433 Y90.849 E10.63385
G1 X92.227 Y90.674 E10.78484
G1 X92.801 Y90.439 E10.90000
G1 X93.239 Y90.192 E10.99319
G1 X93.832 Y89.731 E11.13254
G1 X94.253 Y89.267 E11.24892
G1 X94.542 Y88.855 E11.34228
G1 X94.891 Y88.158 E11.48693
G1 X95.170 Y87.133 E11.68403
G1 X95.883 Y87.672 E11.84987
G1 X96.583 Y88.010 E11.99406
G1 X97.066 Y88.160 E12.08793
G1 X97.674 Y88.270 E12.20269
G1 X98.454 Y88.274 E12.34735
G1 X99.063 Y88.172 E12.46184
G1 X99.514 Y88.039 E12.54923
G1 X100.086 Y87.789 E12.66493
G1 X100.756 Y87.347 E12.81399
G1 X101.327 Y86.782 E12.96304
G1 X101.632 Y86.352 E13.06075
G1 X102.012 Y87.189 E13.23136
G1 X102.366 Y87.707 E13.34774
G1 X102.699 Y88.084 E13.44111
G1 X103.296 Y88.585 E13.58575
G1 X104.030 Y88.986 E13.74098
G1 X104.829 Y89.236 E13.89621
G1 X105.604 Y89.317 E14.04086
G1 X106.107 Y89.294 E14.13422
G1 X106.725 Y89.189 E14.25060
G1 X107.722 Y88.835 E14.44700
G1 X107.714 Y89.893 E14.64341
G1 X107.827 Y90.568 E14.77035
G1 X108.097 Y91.331 E14.92060
G1 X108.514 Y92.030 E15.07160
G1 X108.920 Y92.500 E15.18676
G1 X109.292 Y92.837 E15.27995
G1 X109.916 Y93.254 E15.41930
G1 X110.491 Y93.506 E15.53568
G1 X110.973 Y93.650 E15.62904
G1 X112.014 Y93.800 E15.82435
G1 X111.651 Y94.405 E15.95529
G1 X111.397 Y94.978 E16.07167
G1 X111.203 Y95.762 E16.22160
G1 X111.165 Y96.598 E16.37683
G1 X111.283 Y97.368 E16.52148
G1 X111.433 Y97.849 E16.61484
G1 X111.691 Y98.420 E16.73122
G1 X112.146 Y99.088 E16.88115
G1 X112.744 Y99.672 E17.03638
G1 X113.518 Y100.175 E17.20751
G1 X112.730 Y100.654 E17.37863
G1 X112.157 Y101.183 E17.52328
G1 X111.841 Y101.574 E17.61664
G1 X111.511 Y102.108 E17.73302
G1 X111.218 Y102.842 E17.87967
G1 X111.063 Y103.614 E18.02585
G1 X111.072 Y104.488 E18.18796
G1 X111.191 Y105.105 E18.30472
G1 X111.345 Y105.583 E18.39790
G1 X111.820 Y106.539 E18.59591
G1 X111.166 Y106.564 E18.71743
G1 X110.669 Y106.645 E18.81079
G1 X109.981 Y106.866 E18.94486
G1 X109.530 Y107.089 E19.03823
G1 X109.053 Y107.404 E19.14443
G1 X108.688 Y107.716 E19.23358
G1 X108.270 Y108.175 E19.34868
G1 X107.851 Y108.833 E19.49349
G1 X107.587 Y109.470 E19.62151
G1 X107.419 Y110.225 E19.76492
G1 X107.387 Y110.907 E19.89165
G1 X107.435 Y111.285 E19.96246
G1 E17.96246 F2400.00000
G92 E0
G1 X109.211 Y113.183 F7800.000
G1 E2.00000 F2400.00000
G1 F1800
G1 X109.212 Y113.353 E2.03155
G1 X109.187 Y113.456 E2.05111
G1 X109.143 Y113.551 E2.07066
G1 X109.024 Y113.693 E2.10497
G1 X108.938 Y113.754 E2.12445
G1 X108.814 Y113.801 E2.14926
G1 X108.708 Y113.814 E2.16898
G1 X108.550 Y113.798 E2.19842
G1 X108.449 Y113.764 E2.21818
G1 X108.346 Y113.697 E2.24109
G1 X108.256 Y113.595 E2.26625
G1 X108.043 Y113.224 E2.34560
G1 X107.669 Y112.737 E2.45969
G1 X107.185 Y112.315 E2.57877
G1 X106.733 Y112.041 E2.67693
G1 X106.134 Y111.808 E2.79621
G1 X105.496 Y111.697 E2.91628
G1 X105.008 Y111.698 E3.00691
G1 X104.630 Y111.745 E3.07757
G1 X104.029 Y111.913 E3.19343
G1 X103.441 Y112.212 E3.31574
G1 X102.924 Y112.621 E3.43804
G1 X102.520 Y113.097 E3.55390
G1 X102.319 Y113.421 E3.62467
G1 X102.119 Y113.855 E3.71338
G1 X101.976 Y114.351 E3.80932
G1 X101.908 Y114.966 E3.92407
G1 X101.939 Y115.449 E4.01390
G1 X102.010 Y115.853 E4.09005
G1 X101.979 Y116.073 E4.13121
G1 X101.909 Y116.206 E4.15909
G1 X101.825 Y116.296 E4.18202
G1 X101.713 Y116.369 E4.20670
G1 X101.516 Y116.420 E4.24443
G1 X101.341 Y116.404 E4.27709
G1 X101.161 Y116.313 E4.31463
G1 X101.082 Y116.242 E4.33419
G1 X100.975 Y116.062 E4.37310
G1 X100.951 Y115.965 E4.39158
G1 X100.936 Y115.555 E4.46773
G1 X100.865 Y115.076 E4.55768
G1 X100.669 Y114.483 E4.67353
G1 X100.418 Y114.017 E4.77168
G1 X100.043 Y113.540 E4.88431
G1 X99.766 Y113.279 E4.95508
G1 X99.367 Y112.987 E5.04680
G1 X98.791 Y112.703 E5.16588
G1 X98.188 Y112.542 E5.28174
G1 X97.809 Y112.499 E5.35251
G1 X97.315 Y112.505 E5.44423
G1 X96.684 Y112.623 E5.56331
G1 X96.073 Y112.870 E5.68561
G1 X95.522 Y113.232 E5.80792
G1 X95.066 Y113.683 E5.92700
G1 X94.759 Y114.114 E6.02516
G1 X94.502 Y114.653 E6.13602
G1 X94.372 Y115.060 E6.21537
G1 X94.305 Y115.178 E6.24041
G1 X94.236 Y115.247 E6.25863
G1 X94.094 Y115.336 E6.28972
G1 X93.922 Y115.375 E6.32247
G1 X93.817 Y115.374 E6.34194
G1 X93.687 Y115.340 E6.36676
G1 X93.570 Y115.276 E6.39148
G1 X93.508 Y115.218 E6.40736
G1 X93.431 Y115.117 E6.43090
G1 X93.370 Y114.991 E6.45681
G1 X93.353 Y114.895 E6.47493
G1 X93.371 Y114.694 E6.51235
G1 X93.617 Y114.164 E6.62087
G1 X93.787 Y113.534 E6.74197
G1 X93.827 Y112.911 E6.85788
G1 X93.790 Y112.478 E6.93840
G1 X93.688 Y112.034 E7.02305
G1 X93.458 Y111.462 E7.13741
G1 X93.200 Y111.047 E7.22804
G1 X92.962 Y110.750 E7.29870
G1 X92.528 Y110.351 E7.40811
G1 X92.212 Y110.137 E7.47888
G1 X91.772 Y109.913 E7.57059
G1 X91.175 Y109.729 E7.68645
G1 X90.668 Y109.665 E7.78138
G1 X90.156 Y109.677 E7.87631
G1 X89.544 Y109.799 E7.99217
G1 X89.067 Y109.984 E8.08710
G1 X88.638 Y110.229 E8.17881
G1 X88.259 Y110.527 E8.26821
G1 X88.015 Y110.778 E8.33313
G1 X87.821 Y110.891 E8.37473
G1 X87.719 Y110.914 E8.39428
G1 X87.510 Y110.899 E8.43319
G1 X87.292 Y110.786 E8.47864
G1 X87.227 Y110.714 E8.49675
G1 X87.138 Y110.552 E8.53101
G1 X87.118 Y110.446 E8.55097
G1 X87.114 Y110.341 E8.57045
G1 X87.141 Y110.210 E8.59531
G1 X87.195 Y110.099 E8.61822
G1 X87.285 Y109.998 E8.64337
G1 X87.614 Y109.752 E8.71952
G1 X87.956 Y109.434 E8.80625
G1 X88.274 Y109.034 E8.90119
G1 X88.581 Y108.470 E9.02027
G1 X88.777 Y107.840 E9.14257
G1 X88.844 Y107.185 E9.26488
G1 X88.785 Y106.563 E9.38074
G1 X88.692 Y106.193 E9.45151
G1 X88.515 Y105.732 E9.54323
G1 X88.184 Y105.182 E9.66230
G1 X87.740 Y104.695 E9.78461
G1 X87.223 Y104.315 E9.90369
G1 X86.780 Y104.096 E9.99541
G1 X86.420 Y103.970 E10.06618
G1 X85.824 Y103.856 E10.17881
G1 X85.295 Y103.849 E10.27697
G1 X84.705 Y103.943 E10.38783
G1 X84.296 Y104.067 E10.46718
G1 X84.103 Y104.071 E10.50297
G1 X83.943 Y104.012 E10.53469
G1 X83.797 Y103.898 E10.56908
G1 X83.702 Y103.737 E10.60357
G1 X83.667 Y103.548 E10.63941
G1 X83.715 Y103.326 E10.68153
G1 X83.862 Y103.124 E10.72786
G1 X83.989 Y103.053 E10.75487
G1 X84.103 Y103.016 E10.77711
G1 X84.432 Y102.971 E10.83882
G1 X84.774 Y102.887 E10.90406
G1 X85.219 Y102.716 E10.99256
G1 X85.649 Y102.473 E11.08427
G1 X86.053 Y102.159 E11.17920
G1 X86.471 Y101.695 E11.29506
G1 X86.753 Y101.248 E11.39321
G1 X86.996 Y100.654 E11.51229
G1 X87.114 Y100.041 E11.62815
G1 X87.130 Y99.660 E11.69892
G1 X87.089 Y99.166 E11.79084
G1 X86.929 Y98.557 E11.90768
G1 X86.725 Y98.113 E11.99831
G1 X86.525 Y97.789 E12.06897
G1 X86.144 Y97.337 E12.17862
G1 X85.853 Y97.083 E12.25038
G1 X85.478 Y96.828 E12.33454
G1 X85.154 Y96.662 E12.40199
G1 X84.696 Y96.495 E12.49249
G1 X84.207 Y96.404 E12.58478
G1 X84.034 Y96.326 E12.62002
G1 X83.876 Y96.169 E12.66128
G1 X83.821 Y96.057 E12.68441
G1 X83.797 Y95.812 E12.73014
G1 X83.826 Y95.692 E12.75311
G1 X83.887 Y95.574 E12.77778
G1 X83.958 Y95.495 E12.79750
G1 X84.087 Y95.402 E12.82693
G1 X84.246 Y95.349 E12.85813
G1 X84.442 Y95.359 E12.89445
G1 X84.847 Y95.496 E12.97380
G1 X85.450 Y95.614 E13.08789
G1 X86.092 Y95.610 E13.20697
G1 X86.612 Y95.516 E13.30513
G1 X87.215 Y95.294 E13.42421
G1 X87.776 Y94.950 E13.54651
G1 X88.234 Y94.525 E13.66237
G1 X88.472 Y94.227 E13.73314
G1 X88.730 Y93.805 E13.82486
G1 X88.966 Y93.209 E13.94394
G1 X89.083 Y92.560 E14.06625
G1 X89.071 Y91.936 E14.18211
G1 X89.007 Y91.560 E14.25287
G1 X88.870 Y91.103 E14.34137
G1 X88.651 Y90.640 E14.43631
G1 X88.292 Y90.130 E14.55216
G1 X87.949 Y89.788 E14.64211
G1 X87.628 Y89.532 E14.71826
G1 X87.506 Y89.347 E14.75942
G1 X87.470 Y89.200 E14.78741
G1 X87.497 Y89.000 E14.82489
G1 X87.551 Y88.871 E14.85080
G1 X87.628 Y88.773 E14.87392
G1 X87.808 Y88.662 E14.91320
G1 X87.942 Y88.623 E14.93911
G1 X88.023 Y88.622 E14.95401
G1 X88.236 Y88.670 E14.99466
G1 X88.348 Y88.747 E15.01981
G1 X88.630 Y89.044 E15.09596
G1 X88.988 Y89.346 E15.18269
G1 X89.423 Y89.614 E15.27762
G1 X90.019 Y89.851 E15.39670
G1 X90.668 Y89.970 E15.51901
G1 X91.328 Y89.958 E15.64151
G1 X91.960 Y89.819 E15.76159
G1 X92.411 Y89.634 E15.85222
G1 X92.743 Y89.447 E15.92288
G1 X93.222 Y89.074 E16.03551
G1 X93.554 Y88.708 E16.12723
G1 X93.774 Y88.396 E16.19800
G1 X94.053 Y87.838 E16.31386
G1 X94.222 Y87.219 E16.43294
G1 X94.271 Y86.692 E16.53109
G1 X94.219 Y86.052 E16.65017
G1 X94.050 Y85.461 E16.76423
G1 X93.878 Y85.070 E16.84364
G1 X93.851 Y84.877 E16.87966
G1 X93.900 Y84.685 E16.91655
G1 X93.971 Y84.572 E16.94137
G1 X94.069 Y84.480 E16.96619
G1 X94.162 Y84.428 E16.98602
G1 X94.341 Y84.377 E17.02060
G1 X94.551 Y84.406 E17.05996
G1 X94.665 Y84.456 E17.08297
G1 X94.731 Y84.500 E17.09774
G1 X94.805 Y84.585 E17.11865
G1 X94.893 Y84.996 E17.19660
G1 X95.065 Y85.455 E17.28767
G1 X95.294 Y85.870 E17.37565
G1 X95.507 Y86.163 E17.44280
G1 X95.842 Y86.522 E17.53399
G1 X96.351 Y86.907 E17.65237
G1 X96.911 Y87.177 E17.76778
G1 X97.278 Y87.291 E17.83913
G1 X97.757 Y87.378 E17.92939
G1 X98.382 Y87.381 E18.04544
G1 X98.861 Y87.301 E18.13554
G1 X99.208 Y87.198 E18.20259
G1 X99.658 Y87.002 E18.29377
G1 X100.190 Y86.650 E18.41216
G1 X100.644 Y86.201 E18.53054
G1 X100.938 Y85.787 E18.62492
G1 X101.161 Y85.349 E18.71609
G1 X101.317 Y84.883 E18.80727
G1 X101.400 Y84.412 E18.89611
G1 X101.416 Y84.065 E18.96055
G1 X101.485 Y83.852 E19.00211
G1 X101.649 Y83.669 E19.04755
G1 X101.871 Y83.584 E19.09169
G1 X101.994 Y83.579 E19.11458
G1 X102.125 Y83.607 E19.13939
G1 X102.244 Y83.665 E19.16407
G1 X102.345 Y83.751 E19.18875
G1 X102.466 Y83.966 E19.23442
G1 X102.480 Y84.162 E19.27089
G1 X102.397 Y84.564 E19.34704
G1 X102.352 Y85.047 E19.43699
G1 X102.402 Y85.669 E19.55284
G1 X102.534 Y86.181 E19.65099
G1 X102.793 Y86.749 E19.76685
G1 X103.072 Y87.157 E19.85857
G1 X103.324 Y87.443 E19.92933
G1 X103.802 Y87.844 E20.04519
G1 X104.381 Y88.161 E20.16750
G1 X105.010 Y88.357 E20.28981
G1 X105.631 Y88.422 E20.40567
G1 X106.012 Y88.405 E20.47643
G1 X106.499 Y88.322 E20.56815
G1 X107.087 Y88.113 E20.68400
G1 X107.548 Y87.853 E20.78216
G1 X108.043 Y87.445 E20.90124
G1 X108.432 Y86.969 E21.01533
G1 X108.656 Y86.604 E21.09469
G1 X108.748 Y86.506 E21.11972
G1 X108.832 Y86.455 E21.13794
G1 X108.929 Y86.415 E21.15742
G1 X109.035 Y86.399 E21.17727
G1 X109.220 Y86.415 E21.21166
G1 X109.408 Y86.510 E21.25086
G1 X109.471 Y86.574 E21.26749
G1 X109.583 Y86.772 E21.30961
G1 X109.606 Y86.981 E21.34865
G1 X109.585 Y87.098 E21.37075
G1 X109.499 Y87.261 E21.40499
G1 X109.282 Y87.514 E21.46670
G1 X109.083 Y87.804 E21.53195
G1 X108.864 Y88.227 E21.62045
G1 X108.704 Y88.695 E21.71216
G1 X108.612 Y89.198 E21.80709
G1 X108.608 Y89.822 E21.92294
G1 X108.695 Y90.344 E22.02110
