; generated by Slic3r 1.3.0 on 2019-12-12 at 18:09:12

; external perimeters extrusion width = 0.55mm (4.37mm^3/s)
; perimeters extrusion width = 0.70mm (11.44mm^3/s)
; infill extrusion width = 0.63mm (13.45mm^3/s)
; solid infill extrusion width = 0.70mm (3.81mm^3/s)
; top infill extrusion width = 0.70mm (2.86mm^3/s)

M107
M190 S65 ; set bed temperature and wait for it to be reached
M104 S205 ; set temperature
G28 ; home all axes
G1 Z5 F5000 ; lift nozzle

; Filament gcode

M109 S205 ; set temperature and wait for it to be reached
G21 ; set units to millimeters
G90 ; use absolute coordinates
M82 ; use absolute distances for extrusion
G92 E0
G1 Z0.500 F7800.000
G1 E-2.00000 F2400.00000
G92 E0
G1 X83.718 Y82.584 F7800.000
G1 E2.00000 F2400.00000
G1 F1800
G1 X84.284 Y82.050 E2.14428
G1 X84.860 Y81.602 E2.27976
G1 X88.108 Y79.359 E3.01219
G1 X88.652 Y79.017 E3.13150
G1 X88.994 Y78.831 E3.20371
G1 X89.704 Y78.513 E3.34808
G1 X93.394 Y77.113 E4.08047
G1 X94.004 Y76.910 E4.19979
G1 X94.428 Y76.802 E4.28092
G1 X95.146 Y76.673 E4.41632
G1 X99.058 Y76.197 E5.14766
G1 X99.655 Y76.148 E5.25889
G1 X100.042 Y76.141 E5.33070
G1 X100.863 Y76.188 E5.48333
G1 X104.780 Y76.663 E6.21549
G1 X105.390 Y76.762 E6.33007
G1 X105.770 Y76.849 E6.40248
G1 X106.560 Y77.096 E6.55612
G1 X110.466 Y78.581 E7.33142
G1 X111.168 Y78.916 E7.47580
G1 X111.833 Y79.319 E7.62011
G1 X115.082 Y81.560 E8.35252
G1 X115.595 Y81.948 E8.47189
G1 X115.889 Y82.202 E8.54403
G1 X116.439 Y82.752 E8.68835
G1 X119.057 Y85.706 E9.42080
G1 X119.462 Y86.205 E9.54013
G1 X119.714 Y86.562 E9.62123
G1 X120.089 Y87.188 E9.75668
G1 X121.924 Y90.683 E10.48909
G1 X122.198 Y91.264 E10.60837
G1 X122.341 Y91.627 E10.68067
G1 X122.595 Y92.461 E10.84259
G1 X123.520 Y96.214 E11.55970
G1 X123.667 Y96.983 E11.70503
G1 X123.712 Y97.375 E11.77832
G1 X123.743 Y98.053 E11.90430
G1 X123.743 Y101.927 E12.62305
G1 X123.721 Y102.507 E12.73083
G1 X123.683 Y102.897 E12.80349
G1 X123.616 Y103.331 E12.88510
G1 X123.513 Y103.814 E12.97668
G1 X122.512 Y107.850 E13.74833
G1 X122.276 Y108.544 E13.88444
G1 X121.956 Y109.254 E14.02882
G1 X120.123 Y112.749 E14.76116
G1 X119.801 Y113.304 E14.88043
G1 X119.584 Y113.627 E14.95263
G1 X119.041 Y114.311 E15.11459
G1 X116.487 Y117.195 E15.82942
G1 X116.006 Y117.690 E15.95759
G1 X115.716 Y117.950 E16.02987
G1 X115.140 Y118.398 E16.16527
G1 X111.680 Y120.782 E16.94488
G1 X110.963 Y121.190 E17.09808
G1 X110.251 Y121.504 E17.24246
G1 X106.606 Y122.887 E17.96595
G1 X105.995 Y123.090 E18.08534
G1 X105.573 Y123.198 E18.16627
G1 X104.854 Y123.327 E18.30177
G1 X100.942 Y123.803 E19.03314
G1 X100.345 Y123.852 E19.14432
G1 X99.910 Y123.859 E19.22496
G1 X99.130 Y123.811 E19.36996
G1 X95.220 Y123.337 E20.10098
G1 X94.611 Y123.238 E20.21549
G1 X94.230 Y123.151 E20.28798
G1 X93.440 Y122.904 E20.44146
G1 X89.534 Y121.419 E21.21692
G1 X88.833 Y121.084 E21.36122
G1 X88.167 Y120.681 E21.50559
G1 X84.918 Y118.440 E22.23801
G1 X84.405 Y118.052 E22.35733
G1 X84.111 Y117.798 E22.42954
G1 X83.561 Y117.247 E22.57390
G1 X80.943 Y114.294 E23.30629
G1 X80.538 Y113.795 E23.42561
G1 X80.286 Y113.438 E23.50667
G1 X79.911 Y112.811 E23.64220
G1 X78.076 Y109.317 E24.37458
G1 X77.802 Y108.736 E24.49385
G1 X77.659 Y108.374 E24.56611
G1 X77.405 Y107.539 E24.72808
G1 X76.480 Y103.786 E25.44537
G1 X76.333 Y103.016 E25.59082
G1 X76.289 Y102.628 E25.66315
G1 X76.257 Y101.947 E25.78979
G1 X76.257 Y98.073 E26.50854
G1 X76.279 Y97.493 E26.61643
G1 X76.317 Y97.104 E26.68895
G1 X76.464 Y96.285 E26.84329
G1 X77.475 Y92.193 E27.62549
G1 X77.724 Y91.456 E27.76982
G1 X77.895 Y91.053 E27.85097
G1 X79.877 Y87.251 E28.64661
G1 X80.199 Y86.695 E28.76592
G1 X80.416 Y86.372 E28.83813
G1 X80.897 Y85.760 E28.98251
G1 X83.667 Y82.638 E29.75706
G1 E27.75706 F2400.00000
G92 E0
G1 X103.521 Y103.536 F7800.000
G1 E2.00000 F2400.00000
G1 F1800
G1 X103.159 Y103.857 E2.08977
G1 X102.767 Y104.140 E2.17954
G1 X102.349 Y104.383 E2.26931
G1 X101.909 Y104.584 E2.35908
G1 X101.451 Y104.740 E2.44885
G1 X100.980 Y104.850 E2.53862
G1 X100.500 Y104.914 E2.62838
G1 X100.017 Y104.929 E2.71815
G1 X99.534 Y104.896 E2.80792
G1 X99.057 Y104.816 E2.89769
G1 X98.590 Y104.690 E2.98746
G1 X98.138 Y104.517 E3.07723
G1 X97.706 Y104.301 E3.16700
G1 X97.296 Y104.043 E3.25677
G1 X96.915 Y103.746 E3.34654
G1 X96.564 Y103.413 E3.43631
G1 X96.248 Y103.046 E3.52608
G1 X95.970 Y102.651 E3.61585
G1 X95.732 Y102.229 E3.70561
G1 X95.537 Y101.787 E3.79538
G1 X95.387 Y101.327 E3.88515
G1 X95.283 Y100.854 E3.97492
G1 X95.223 Y100.340 E4.07102
G1 X95.232 Y99.474 E4.23171
G1 X95.428 Y98.550 E4.40702
G1 X95.790 Y97.708 E4.57707
G1 X96.208 Y97.067 E4.71904
G1 X97.286 Y95.913 E5.01212
G1 X102.241 Y95.527 E5.93450
G1 X103.348 Y96.383 E6.19415
G1 X103.738 Y96.770 E6.29616
G1 X104.152 Y97.299 E6.42078
G1 X104.415 Y97.739 E6.51581
G1 X104.622 Y98.176 E6.60558
G1 X104.784 Y98.632 E6.69535
G1 X104.900 Y99.101 E6.78512
G1 X104.970 Y99.580 E6.87489
G1 X104.992 Y100.063 E6.96466
G1 X104.966 Y100.546 E7.05443
G1 X104.892 Y101.024 E7.14420
G1 X104.771 Y101.493 E7.23396
G1 X104.605 Y101.947 E7.32374
G1 X104.395 Y102.383 E7.41350
G1 X104.142 Y102.795 E7.50327
G1 X103.850 Y103.181 E7.59304
G1 X103.572 Y103.481 E7.66889
G1 X102.896 Y102.897 F7800.000
G1 F1800
G1 X102.601 Y103.159 E7.74225
G1 X102.280 Y103.391 E7.81560
G1 X101.938 Y103.589 E7.88896
G1 X101.579 Y103.753 E7.96231
G1 X101.205 Y103.881 E8.03567
G1 X100.820 Y103.971 E8.10902
G1 X100.428 Y104.023 E8.18238
G1 X100.033 Y104.035 E8.25573
G1 X99.638 Y104.009 E8.32909
G1 X99.249 Y103.943 E8.40245
G1 X98.867 Y103.840 E8.47580
G1 X98.498 Y103.699 E8.54916
G1 X98.144 Y103.522 E8.62251
G1 X97.810 Y103.312 E8.69587
G1 X97.498 Y103.069 E8.76922
G1 X97.211 Y102.796 E8.84258
G1 X96.953 Y102.497 E8.91593
G1 X96.726 Y102.174 E8.98929
G1 X96.532 Y101.829 E9.06264
G1 X96.372 Y101.467 E9.13600
G1 X96.250 Y101.092 E9.20935
G1 X96.165 Y100.706 E9.28271
G1 X96.116 Y100.292 E9.35992
G1 X96.124 Y99.572 E9.49353
G1 X96.283 Y98.821 E9.63606
G1 X96.579 Y98.131 E9.77537
G1 X96.913 Y97.620 E9.88868
G1 X97.701 Y96.776 E10.10297
G1 X101.967 Y96.444 E10.89702
G1 X102.758 Y97.056 E11.08262
G1 X103.070 Y97.365 E11.16402
G1 X103.415 Y97.806 E11.26792
G1 X103.627 Y98.160 E11.34448
G1 X103.796 Y98.517 E11.41784
G1 X103.928 Y98.890 E11.49120
G1 X104.023 Y99.273 E11.56455
G1 X104.080 Y99.664 E11.63790
G1 X104.098 Y100.059 E11.71126
G1 X104.077 Y100.454 E11.78462
G1 X104.016 Y100.845 E11.85797
G1 X103.918 Y101.228 E11.93133
G1 X103.782 Y101.599 E12.00468
G1 X103.610 Y101.955 E12.07804
G1 X103.404 Y102.292 E12.15139
G1 X103.165 Y102.607 E12.22475
G1 X102.947 Y102.842 E12.28418
G1 X102.272 Y102.258 F7800.000
G1 F1800
G1 X102.042 Y102.462 E12.34112
G1 X101.793 Y102.641 E12.39807
G1 X101.528 Y102.796 E12.45501
G1 X101.249 Y102.923 E12.51195
G1 X100.958 Y103.022 E12.56889
G1 X100.660 Y103.092 E12.62583
G1 X100.355 Y103.132 E12.68277
G1 X100.049 Y103.142 E12.73971
G1 X99.742 Y103.121 E12.79665
G1 X99.440 Y103.070 E12.85359
G1 X99.144 Y102.990 E12.91054
G1 X98.857 Y102.880 E12.96748
G1 X98.582 Y102.743 E13.02442
G1 X98.323 Y102.580 E13.08136
G1 X98.081 Y102.391 E13.13830
G1 X97.858 Y102.180 E13.19524
G1 X97.658 Y101.948 E13.25218
G1 X97.482 Y101.696 E13.30912
G1 X97.331 Y101.429 E13.36606
G1 X97.207 Y101.148 E13.42301
G1 X97.112 Y100.857 E13.47995
G1 X97.046 Y100.557 E13.53689
G1 X97.009 Y100.245 E13.59521
G1 X97.016 Y99.671 E13.70175
G1 X97.138 Y99.092 E13.81149
G1 X97.369 Y98.555 E13.92008
G1 X97.618 Y98.173 E14.00471
G1 X98.117 Y97.639 E14.14022
G1 X101.693 Y97.361 E14.80593
G1 X102.169 Y97.729 E14.91749
G1 X102.401 Y97.959 E14.97827
G1 X102.678 Y98.312 E15.06146
G1 X102.839 Y98.581 E15.11955
G1 X102.969 Y98.858 E15.17649
G1 X103.072 Y99.147 E15.23344
G1 X103.146 Y99.445 E15.29038
G1 X103.190 Y99.749 E15.34732
G1 X103.204 Y100.055 E15.40426
G1 X103.188 Y100.362 E15.46120
G1 X103.141 Y100.665 E15.51814
G1 X103.064 Y100.962 E15.57508
G1 X102.959 Y101.250 E15.63202
G1 X102.825 Y101.527 E15.68896
G1 X102.665 Y101.788 E15.74591
G1 X102.480 Y102.033 E15.80285
G1 X102.322 Y102.203 E15.84587
G1 X102.272 Y102.258 F7800.000
G1 E13.84587 F2400.00000
G92 E0
G1 X109.486 Y108.518 F7800.000
G1 E2.00000 F2400.00000
G1 F1800
G1 X109.090 Y109.118 E2.13353
G1 X108.875 Y109.649 E2.23982
G1 X108.820 Y109.901 E2.28760
G1 X107.936 Y110.126 E2.45699
G1 X107.310 Y110.445 E2.58726
G1 X106.733 Y110.925 E2.72664
G1 X106.322 Y111.463 E2.85227
G1 X106.181 Y111.752 E2.91198
G1 X105.549 Y111.709 E3.02953
G1 X104.807 Y111.825 E3.16891
G1 X104.180 Y112.075 E3.29413
G1 X103.638 Y112.427 E3.41404
G1 X103.163 Y112.892 E3.53743
G1 X102.899 Y112.777 E3.59091
G1 X102.160 Y112.639 E3.73029
G1 X101.457 Y112.665 E3.86083
G1 X100.732 Y112.859 E4.00021
G1 X100.160 Y113.159 E4.12013
G1 X100.010 Y113.275 E4.15518
G1 X99.697 Y113.055 E4.22620
G1 X99.207 Y112.826 E4.32655
G1 X98.584 Y112.657 E4.44635
G1 X97.834 Y112.626 E4.58558
G1 X97.143 Y112.753 E4.71600
G1 X96.828 Y112.888 E4.77961
G1 X96.410 Y112.465 E4.88990
G1 X95.873 Y112.102 E5.01022
G1 X95.246 Y111.841 E5.13626
G1 X94.483 Y111.709 E5.28001
G1 X93.825 Y111.758 E5.40251
G1 X93.710 Y111.513 E5.45269
G1 X93.310 Y110.970 E5.57792
G1 X92.741 Y110.479 E5.71730
G1 X92.145 Y110.162 E5.84252
G1 X91.524 Y109.976 E5.96284
G1 X91.204 Y109.947 E6.02255
G1 X91.028 Y109.368 E6.13478
G1 X90.722 Y108.799 E6.25469
G1 X90.292 Y108.279 E6.37991
G1 X89.695 Y107.820 E6.51970
G1 X89.068 Y107.531 E6.64794
G1 X89.081 Y107.242 E6.70159
G1 X88.949 Y106.502 E6.84097
G1 X88.685 Y105.879 E6.96660
G1 X88.302 Y105.318 E7.09264
G1 X87.612 Y104.679 E7.26719
G1 X87.716 Y103.935 E7.40649
G1 X87.653 Y103.185 E7.54628
G1 X87.438 Y102.510 E7.67764
G1 X87.060 Y101.867 E7.81605
G1 X86.828 Y101.620 E7.87898
G1 X87.110 Y100.999 E8.00541
G1 X87.251 Y100.311 E8.13582
G1 X87.237 Y99.561 E8.27507
G1 X87.075 Y98.906 E8.40017
G1 X86.828 Y98.384 E8.50738
G1 X86.989 Y98.226 E8.54920
G1 X87.370 Y97.635 E8.67974
G1 X87.628 Y96.929 E8.81912
G1 X87.716 Y96.232 E8.94966
G1 X87.644 Y95.484 E9.08904
G1 X87.583 Y95.301 E9.12487
G1 X88.059 Y94.934 E9.23629
G1 X88.501 Y94.425 E9.36151
G1 X88.856 Y93.763 E9.50089
G1 X89.036 Y93.112 E9.62612
G1 X89.083 Y92.445 E9.75016
G1 X89.451 Y92.314 E9.82274
G1 X90.022 Y91.954 E9.94797
G1 X90.510 Y91.488 E10.07319
G1 X90.910 Y90.883 E10.20768
G1 X91.125 Y90.351 E10.31423
G1 X91.189 Y90.057 E10.37012
G1 X91.467 Y90.036 E10.42198
G1 X92.088 Y89.862 E10.54164
G1 X92.690 Y89.555 E10.66686
G1 X93.267 Y89.075 E10.80624
G1 X93.694 Y88.516 E10.93678
G1 X93.817 Y88.248 E10.99158
G1 X94.423 Y88.289 E11.10412
G1 X95.065 Y88.205 E11.22443
G1 X95.708 Y87.984 E11.35047
G1 X96.352 Y87.587 E11.49089
G1 X96.833 Y87.106 E11.61712
G1 X97.073 Y87.217 E11.66620
G1 X97.840 Y87.361 E11.81090
G1 X98.514 Y87.336 E11.93613
G1 X99.170 Y87.178 E12.06135
G1 X99.843 Y86.846 E12.20073
G1 X99.990 Y86.727 E12.23577
G1 X100.213 Y86.891 E12.28729
G1 X100.766 Y87.167 E12.40178
G1 X101.416 Y87.343 E12.52688
G1 X102.166 Y87.374 E12.66612
G1 X102.857 Y87.247 E12.79654
G1 X103.172 Y87.112 E12.86015
G1 X103.590 Y87.535 E12.97044
G1 X104.127 Y87.898 E13.09075
G1 X104.754 Y88.159 E13.21680
G1 X105.517 Y88.291 E13.36054
G1 X106.176 Y88.242 E13.48313
G1 X106.274 Y88.465 E13.52835
G1 X106.690 Y89.030 E13.65862
G1 X107.259 Y89.521 E13.79800
G1 X107.855 Y89.838 E13.92322
G1 X108.501 Y90.031 E14.04844
G1 X108.796 Y90.051 E14.10324
G1 X108.972 Y90.632 E14.21578
G1 X109.279 Y91.203 E14.33610
G1 X109.713 Y91.725 E14.46214
G1 X110.304 Y92.180 E14.60056
G1 X110.932 Y92.470 E14.72901
G1 X110.914 Y92.731 E14.77757
G1 X111.051 Y93.498 E14.92200
G1 X111.314 Y94.119 E15.04723
G1 X111.694 Y94.677 E15.17245
G1 X112.387 Y95.322 E15.34816
G1 X112.284 Y96.072 E15.48863
G1 X112.347 Y96.815 E15.62705
G1 X112.559 Y97.484 E15.75732
G1 X112.939 Y98.132 E15.89669
G1 X113.172 Y98.380 E15.95989
G1 X112.889 Y99.003 E16.08673
G1 X112.748 Y99.696 E16.21796
G1 X112.764 Y100.441 E16.35625
G1 X112.925 Y101.094 E16.48107
G1 X113.172 Y101.616 E16.58829
G1 X113.009 Y101.775 E16.63052
G1 X112.627 Y102.371 E16.76188
G1 X112.372 Y103.072 E16.90030
G1 X112.287 Y103.742 E17.02565
G1 X112.337 Y104.420 E17.15170
G1 X112.424 Y104.706 E17.20728
G1 X112.034 Y104.971 E17.29471
G1 X111.507 Y105.561 E17.44161
G1 X111.144 Y106.237 E17.58412
G1 X110.964 Y106.888 E17.70934
G1 X110.917 Y107.551 E17.83279
G1 X110.638 Y107.644 E17.88747
G1 X109.996 Y108.029 E18.02629
G1 X109.540 Y108.466 E18.14346
G1 E16.14346 F2400.00000
G92 E0
G1 X109.629 Y110.881 F7800.000
G1 E2.00000 F2400.00000
G1 F1800
G1 X109.272 Y110.818 E2.06727
G1 X108.782 Y110.832 E2.15817
G1 X108.253 Y110.966 E2.25962
G1 X107.805 Y111.195 E2.35288
G1 X107.381 Y111.547 E2.45514
G1 X107.085 Y111.934 E2.54558
G1 X106.871 Y112.375 E2.63648
G1 X106.764 Y112.828 E2.72291
G1 X106.073 Y112.640 E2.85589
G1 X105.588 Y112.607 E2.94607
G1 X105.044 Y112.692 E3.04834
G1 X104.592 Y112.871 E3.13852
G1 X104.199 Y113.127 E3.22546
G1 X103.865 Y113.455 E3.31241
G1 X103.436 Y114.084 E3.45376
G1 X103.097 Y113.836 E3.53161
G1 X102.636 Y113.636 E3.62504
G1 X102.094 Y113.535 E3.72730
G1 X101.591 Y113.553 E3.82073
G1 X101.058 Y113.695 E3.92299
G1 X100.644 Y113.913 E4.00994
G1 X100.352 Y114.139 E4.07834
G1 X100.007 Y114.498 E4.17076
G1 X99.617 Y114.089 E4.27553
G1 X99.248 Y113.831 E4.35916
G1 X98.899 Y113.667 E4.43071
G1 X98.447 Y113.545 E4.51758
G1 X97.897 Y113.522 E4.61974
G1 X97.402 Y113.613 E4.71307
G1 X96.880 Y113.837 E4.81848
G1 X96.556 Y114.084 E4.89416
G1 X96.166 Y113.488 E5.02634
G1 X95.837 Y113.155 E5.11329
G1 X95.448 Y112.892 E5.20048
G1 X94.995 Y112.703 E5.29138
G1 X94.439 Y112.607 E5.39609
G1 X93.873 Y112.649 E5.50143
G1 X93.239 Y112.844 E5.62461
G1 X93.145 Y112.412 E5.70680
G1 X92.939 Y111.971 E5.79698
G1 X92.651 Y111.580 E5.88716
G1 X92.233 Y111.220 E5.98943
G1 X91.804 Y110.992 E6.07961
G1 X91.354 Y110.857 E6.16680
G1 X90.866 Y110.813 E6.25770
G1 X90.405 Y110.874 E6.34414
G1 X90.336 Y110.161 E6.47712
G1 X90.200 Y109.713 E6.56406
G1 X89.978 Y109.300 E6.65101
G1 X89.668 Y108.925 E6.74119
G1 X89.231 Y108.588 E6.84370
G1 X88.770 Y108.376 E6.93784
G1 X88.046 Y108.223 E7.07520
G1 X88.161 Y107.803 E7.15593
G1 X88.185 Y107.300 E7.24935
G1 X88.088 Y106.758 E7.35161
G1 X87.898 Y106.309 E7.44205
G1 X87.621 Y105.905 E7.53294
G1 X87.208 Y105.521 E7.63765
G1 X86.710 Y105.248 E7.74300
G1 X86.402 Y105.160 E7.80244
G1 X86.596 Y104.834 E7.87290
G1 X86.751 Y104.392 E7.95984
G1 X86.818 Y103.910 E8.05003
G1 X86.772 Y103.360 E8.15254
G1 X86.618 Y102.877 E8.24668
G1 X86.341 Y102.405 E8.34814
G1 X85.997 Y102.039 E8.44140
G1 X85.608 Y101.776 E8.52847
G1 X86.028 Y101.223 E8.65732
G1 X86.255 Y100.721 E8.75948
G1 X86.357 Y100.229 E8.85281
G1 X86.346 Y99.678 E8.95498
G1 X86.229 Y99.207 E9.04507
G1 X86.030 Y98.784 E9.13193
G1 X85.612 Y98.221 E9.26201
G1 X85.899 Y98.044 E9.32471
G1 X86.293 Y97.658 E9.42697
G1 X86.566 Y97.235 E9.52039
G1 X86.755 Y96.718 E9.62265
G1 X86.818 Y96.218 E9.71608
G1 X86.765 Y95.670 E9.81834
G1 X86.612 Y95.208 E9.90852
G1 X86.428 Y94.886 E9.97745
G1 X87.072 Y94.568 E10.11068
G1 X87.443 Y94.281 E10.19762
G1 X87.762 Y93.915 E10.28781
G1 X88.022 Y93.429 E10.39007
G1 X88.151 Y92.960 E10.48025
G1 X88.185 Y92.493 E10.56720
G1 X88.088 Y91.738 E10.70855
G1 X88.523 Y91.697 E10.78965
G1 X89.059 Y91.507 E10.89517
G1 X89.469 Y91.247 E10.98535
G1 X89.821 Y90.911 E11.07553
G1 X90.116 Y90.465 E11.17482
G1 X90.269 Y90.088 E11.25038
G1 X90.359 Y89.668 E11.33004
G1 X90.380 Y89.139 E11.42835
G1 X90.866 Y89.186 E11.51897
G1 X91.312 Y89.152 E11.60187
G1 X91.762 Y89.026 E11.68866
G1 X92.195 Y88.805 E11.77884
G1 X92.619 Y88.453 E11.88110
G1 X92.925 Y88.053 E11.97452
G1 X93.154 Y87.552 E12.07679
G1 X93.234 Y87.172 E12.14896
G1 X93.927 Y87.360 E12.28218
G1 X94.395 Y87.392 E12.36913
G1 X94.860 Y87.331 E12.45632
G1 X95.324 Y87.172 E12.54722
G1 X95.795 Y86.881 E12.64990
G1 X96.177 Y86.500 E12.75007
G1 X96.548 Y85.903 E12.88055
G1 X96.831 Y86.122 E12.94703
G1 X97.347 Y86.360 E13.05254
G1 X97.906 Y86.465 E13.15805
G1 X98.392 Y86.447 E13.24824
G1 X98.864 Y86.334 E13.33842
G1 X99.358 Y86.090 E13.44068
G1 X99.749 Y85.772 E13.53411
G1 X99.976 Y85.484 E13.60215
G1 X100.371 Y85.898 E13.70840
G1 X100.681 Y86.127 E13.77995
