; generated by Slic3r 1.3.0 on 2019-12-12 at 20:01:52

; external perimeters extrusion width = 0.55mm (4.37mm^3/s)
; perimeters extrusion width = 0.70mm (11.44mm^3/s)
; infill extrusion width = 0.63mm (13.45mm^3/s)
; solid infill extrusion width = 0.70mm (3.81mm^3/s)
; top infill extrusion width = 0.70mm (2.86mm^3/s)

M107
M190 S65 ; set bed temperature and wait for it to be reached
M104 S205 ; set temperature
G28 ; home all axes
G1 Z5 F5000 ; lift nozzle

; Filament gcode

M109 S205 ; set temperature and wait for it to be reached
G21 ; set units to millimeters
G90 ; use absolute coordinates
M82 ; use absolute distances for extrusion
G92 E0
G1 Z0.500 F7800.000
G1 E-2.00000 F2400.00000
G92 E0
G1 X83.718 Y82.584 F7800.000
G1 E2.00000 F2400.00000
G1 F1800
G1 X84.284 Y82.050 E2.14428
G1 X84.860 Y81.602 E2.27976
G1 X88.108 Y79.359 E3.01219
G1 X88.652 Y79.017 E3.13150
G1 X88.994 Y78.831 E3.20371
G1 X89.704 Y78.513 E3.34808
G1 X93.394 Y77.113 E4.08047
G1 X94.004 Y76.910 E4.19979
G1 X94.428 Y76.802 E4.28092
G1 X95.146 Y76.673 E4.41632
G1 X99.058 Y76.197 E5.14766
G1 X99.655 Y76.148 E5.25889
G1 X100.042 Y76.141 E5.33070
G1 X100.863 Y76.188 E5.48333
G1 X104.780 Y76.663 E6.21549
G1 X105.390 Y76.762 E6.33007
G1 X105.770 Y76.849 E6.40248
G1 X106.560 Y77.096 E6.55612
G1 X110.466 Y78.581 E7.33142
G1 X111.168 Y78.916 E7.47580
G1 X111.833 Y79.319 E7.62011
G1 X115.082 Y81.560 E8.35252
G1 X115.595 Y81.948 E8.47189
G1 X115.889 Y82.202 E8.54403
G1 X116.439 Y82.752 E8.68835
G1 X119.057 Y85.706 E9.42080
G1 X119.462 Y86.205 E9.54013
G1 X119.714 Y86.562 E9.62123
G1 X120.089 Y87.188 E9.75668
G1 X121.924 Y90.683 E10.48909
G1 X122.198 Y91.264 E10.60837
G1 X122.341 Y91.627 E10.68067
G1 X122.595 Y92.461 E10.84259
G1 X123.520 Y96.214 E11.55970
G1 X123.667 Y96.983 E11.70503
G1 X123.712 Y97.375 E11.77832
G1 X123.743 Y98.053 E11.90430
G1 X123.743 Y101.927 E12.62305
G1 X123.721 Y102.507 E12.73083
G1 X123.683 Y102.897 E12.80349
G1 X123.616 Y103.331 E12.88510
G1 X123.513 Y103.814 E12.97668
G1 X122.512 Y107.850 E13.74833
G1 X122.276 Y108.544 E13.88444
G1 X121.956 Y109.254 E14.02882
G1 X120.123 Y112.749 E14.76116
G1 X119.801 Y113.304 E14.88043
G1 X119.584 Y113.627 E14.95263
G1 X119.041 Y114.311 E15.11459
G1 X116.487 Y117.195 E15.82942
G1 X116.006 Y117.690 E15.95759
G1 X115.716 Y117.950 E16.02987
G1 X115.140 Y118.398 E16.16527
G1 X111.680 Y120.782 E16.94488
G1 X110.963 Y121.190 E17.09808
G1 X110.251 Y121.504 E17.24246
G1 X106.606 Y122.887 E17.96595
G1 X105.995 Y123.090 E18.08534
G1 X105.573 Y123.198 E18.16627
G1 X104.854 Y123.327 E18.30177
G1 X100.942 Y123.803 E19.03314
G1 X100.345 Y123.852 E19.14432
G1 X99.910 Y123.859 E19.22496
G1 X99.130 Y123.811 E19.36996
G1 X95.220 Y123.337 E20.10098
G1 X94.611 Y123.238 E20.21549
G1 X94.230 Y123.151 E20.28798
G1 X93.440 Y122.904 E20.44146
G1 X89.534 Y121.419 E21.21692
G1 X88.833 Y121.084 E21.36122
G1 X88.167 Y120.681 E21.50559
G1 X84.918 Y118.440 E22.23801
G1 X84.405 Y118.052 E22.35733
G1 X84.111 Y117.798 E22.42954
G1 X83.561 Y117.247 E22.57390
G1 X80.943 Y114.294 E23.30629
G1 X80.538 Y113.795 E23.42561
G1 X80.286 Y113.438 E23.50667
G1 X79.911 Y112.811 E23.64220
G1 X78.076 Y109.317 E24.37458
G1 X77.802 Y108.736 E24.49385
G1 X77.659 Y108.374 E24.56611
G1 X77.405 Y107.539 E24.72808
G1 X76.480 Y103.786 E25.44537
G1 X76.333 Y103.016 E25.59082
G1 X76.289 Y102.628 E25.66315
G1 X76.257 Y101.947 E25.78979
G1 X76.257 Y98.073 E26.50854
G1 X76.279 Y97.493 E26.61643
G1 X76.317 Y97.104 E26.68895
G1 X76.464 Y96.285 E26.84329
G1 X77.475 Y92.193 E27.62549
G1 X77.724 Y91.456 E27.76982
G1 X77.895 Y91.053 E27.85097
G1 X79.877 Y87.251 E28.64661
G1 X80.199 Y86.695 E28.76592
G1 X80.416 Y86.372 E28.83813
G1 X80.897 Y85.760 E28.98251
G1 X83.667 Y82.638 E29.75706
G1 E27.75706 F2400.00000
G92 E0
G1 X103.490 Y103.423 F7800.000
G1 E2.00000 F2400.00000
G1 F1800
G1 X103.134 Y103.752 E2.08990
G1 X102.747 Y104.043 E2.17981
G1 X102.333 Y104.295 E2.26971
G1 X101.896 Y104.505 E2.35962
G1 X101.441 Y104.671 E2.44953
G1 X100.972 Y104.791 E2.53943
G1 X100.493 Y104.863 E2.62933
G1 X100.009 Y104.888 E2.71924
G1 X99.525 Y104.865 E2.80915
G1 X99.046 Y104.794 E2.89905
G1 X98.576 Y104.676 E2.98896
G1 X97.365 Y104.241 E3.22769
G1 X95.027 Y99.563 E4.19814
G1 X95.405 Y98.334 E4.43687
G1 X95.603 Y97.861 E4.53205
G1 X95.951 Y97.255 E4.66166
G1 X96.402 Y96.685 E4.79654
G1 X96.912 Y96.208 E4.92614
G1 X97.328 Y95.907 E5.02132
G1 X97.770 Y95.648 E5.11650
G1 X98.412 Y95.373 E5.24611
G1 X99.142 Y95.182 E5.38603
G1 X100.040 Y95.106 E5.55341
G1 X100.774 Y95.172 E5.69004
G1 X101.277 Y95.282 E5.78565
G1 X101.738 Y95.431 E5.87555
G1 X102.182 Y95.626 E5.96546
G1 X102.604 Y95.863 E6.05536
G1 X103.001 Y96.141 E6.14527
G1 X103.368 Y96.457 E6.23517
G1 X103.702 Y96.808 E6.32508
G1 X104.000 Y97.190 E6.41498
G1 X104.258 Y97.600 E6.50489
G1 X104.475 Y98.033 E6.59479
G1 X104.648 Y98.486 E6.68470
G1 X104.775 Y98.953 E6.77460
G1 X104.855 Y99.431 E6.86451
G1 X104.887 Y99.915 E6.95441
G1 X104.872 Y100.399 E7.04432
G1 X104.808 Y100.879 E7.13422
G1 X104.698 Y101.351 E7.22413
G1 X104.541 Y101.809 E7.31403
G1 X104.340 Y102.250 E7.40394
G1 X104.096 Y102.668 E7.49384
G1 X103.811 Y103.061 E7.58375
G1 X103.539 Y103.367 E7.65974
G1 X102.852 Y102.797 F7800.000
G1 F1800
G1 X102.561 Y103.066 E7.73320
G1 X102.245 Y103.304 E7.80667
G1 X101.907 Y103.510 E7.88013
G1 X101.550 Y103.682 E7.95360
G1 X101.178 Y103.817 E8.02707
G1 X100.794 Y103.915 E8.10053
G1 X100.403 Y103.974 E8.17400
G1 X100.007 Y103.994 E8.24747
G1 X99.612 Y103.976 E8.32093
G1 X99.220 Y103.918 E8.39440
G1 X98.836 Y103.821 E8.46787
G1 X98.004 Y103.522 E8.63202
G1 X95.985 Y99.484 E9.46978
G1 X96.245 Y98.638 E9.63394
G1 X96.405 Y98.257 E9.71061
G1 X96.692 Y97.757 E9.81760
G1 X97.061 Y97.292 E9.92780
G1 X97.482 Y96.898 E10.03478
G1 X97.816 Y96.655 E10.11146
G1 X98.173 Y96.447 E10.18814
G1 X98.703 Y96.220 E10.29513
G1 X99.293 Y96.065 E10.40840
G1 X100.038 Y96.003 E10.54713
G1 X100.639 Y96.056 E10.65897
G1 X101.044 Y96.144 E10.73591
G1 X101.420 Y96.267 E10.80938
G1 X101.783 Y96.426 E10.88285
G1 X102.128 Y96.620 E10.95631
G1 X102.452 Y96.847 E11.02978
G1 X102.752 Y97.105 E11.10325
G1 X103.025 Y97.392 E11.17671
G1 X103.269 Y97.704 E11.25018
G1 X103.480 Y98.039 E11.32364
G1 X103.657 Y98.393 E11.39711
G1 X103.798 Y98.763 E11.47058
G1 X103.902 Y99.145 E11.54404
G1 X103.967 Y99.535 E11.61751
G1 X103.994 Y99.930 E11.69098
G1 X103.981 Y100.326 E11.76444
G1 X103.929 Y100.718 E11.83791
G1 X103.839 Y101.104 E11.91137
G1 X103.711 Y101.478 E11.98484
G1 X103.546 Y101.839 E12.05831
G1 X103.347 Y102.181 E12.13177
G1 X103.114 Y102.501 E12.20524
G1 X102.901 Y102.741 E12.26479
G1 X102.213 Y102.171 F7800.000
G1 F1800
G1 X101.988 Y102.380 E12.32182
G1 X101.742 Y102.565 E12.37884
G1 X101.480 Y102.725 E12.43587
G1 X101.203 Y102.858 E12.49290
G1 X100.914 Y102.963 E12.54992
G1 X100.616 Y103.039 E12.60695
G1 X100.313 Y103.085 E12.66398
G1 X100.006 Y103.101 E12.72101
G1 X99.699 Y103.086 E12.77803
G1 X99.395 Y103.041 E12.83506
G1 X99.097 Y102.966 E12.89209
G1 X98.642 Y102.803 E12.98168
G1 X96.943 Y99.404 E13.68672
G1 X97.085 Y98.943 E13.77631
G1 X97.206 Y98.654 E13.83449
G1 X97.433 Y98.260 E13.91886
G1 X97.719 Y97.899 E14.00437
G1 X98.051 Y97.588 E14.08874
G1 X98.305 Y97.404 E14.14692
G1 X98.576 Y97.246 E14.20510
G1 X98.993 Y97.067 E14.28946
G1 X99.445 Y96.948 E14.37608
G1 X100.036 Y96.899 E14.48616
G1 X100.503 Y96.940 E14.57322
G1 X100.810 Y97.007 E14.63150
G1 X101.102 Y97.102 E14.68852
G1 X101.384 Y97.225 E14.74555
G1 X101.652 Y97.376 E14.80258
G1 X101.903 Y97.552 E14.85961
G1 X102.136 Y97.753 E14.91663
G1 X102.348 Y97.975 E14.97366
G1 X102.537 Y98.218 E15.03069
G1 X102.701 Y98.478 E15.08771
G1 X102.839 Y98.752 E15.14474
G1 X102.948 Y99.040 E15.20177
G1 X103.029 Y99.336 E15.25880
G1 X103.080 Y99.639 E15.31582
G1 X103.100 Y99.946 E15.37285
G1 X103.090 Y100.253 E15.42988
G1 X103.050 Y100.558 E15.48691
G1 X102.980 Y100.857 E15.54393
G1 X102.880 Y101.148 E15.60096
G1 X102.753 Y101.427 E15.65799
G1 X102.598 Y101.693 E15.71501
G1 X102.418 Y101.941 E15.77204
G1 X102.263 Y102.115 E15.81515
G1 X102.213 Y102.171 F7800.000
G1 E13.81515 F2400.00000
G92 E0
G1 X109.486 Y108.518 F7800.000
G1 E2.00000 F2400.00000
G1 F1800
G1 X109.090 Y109.118 E2.13353
G1 X108.875 Y109.649 E2.23982
G1 X108.820 Y109.901 E2.28760
G1 X107.936 Y110.126 E2.45699
G1 X107.310 Y110.445 E2.58726
G1 X106.733 Y110.925 E2.72664
G1 X106.322 Y111.463 E2.85227
G1 X106.181 Y111.752 E2.91198
G1 X105.549 Y111.709 E3.02953
G1 X104.807 Y111.825 E3.16891
G1 X104.180 Y112.075 E3.29413
G1 X103.638 Y112.427 E3.41404
G1 X103.163 Y112.892 E3.53743
G1 X102.899 Y112.777 E3.59091
G1 X102.160 Y112.639 E3.73029
G1 X101.457 Y112.665 E3.86083
G1 X100.732 Y112.859 E4.00021
G1 X100.160 Y113.159 E4.12013
G1 X100.010 Y113.275 E4.15518
G1 X99.697 Y113.055 E4.22620
G1 X99.207 Y112.826 E4.32655
G1 X98.584 Y112.657 E4.44635
G1 X97.834 Y112.626 E4.58558
G1 X97.143 Y112.753 E4.71600
G1 X96.828 Y112.888 E4.77961
G1 X96.410 Y112.465 E4.88990
G1 X95.873 Y112.102 E5.01022
G1 X95.246 Y111.841 E5.13626
G1 X94.483 Y111.709 E5.28001
G1 X93.825 Y111.758 E5.40251
G1 X93.710 Y111.513 E5.45269
G1 X93.310 Y110.970 E5.57792
G1 X92.741 Y110.479 E5.71730
G1 X92.145 Y110.162 E5.84252
G1 X91.524 Y109.976 E5.96284
G1 X91.204 Y109.947 E6.02255
G1 X91.028 Y109.368 E6.13478
G1 X90.722 Y108.799 E6.25469
G1 X90.292 Y108.279 E6.37991
G1 X89.695 Y107.820 E6.51970
G1 X89.068 Y107.531 E6.64794
G1 X89.081 Y107.242 E6.70159
G1 X88.949 Y106.502 E6.84097
G1 X88.685 Y105.879 E6.96660
G1 X88.302 Y105.318 E7.09264
G1 X87.612 Y104.679 E7.26719
G1 X87.716 Y103.935 E7.40649
G1 X87.653 Y103.185 E7.54628
G1 X87.438 Y102.510 E7.67764
G1 X87.060 Y101.867 E7.81605
G1 X86.828 Y101.620 E7.87898
G1 X87.110 Y100.999 E8.00541
G1 X87.251 Y100.311 E8.13582
G1 X87.237 Y99.561 E8.27507
G1 X87.075 Y98.906 E8.40017
G1 X86.828 Y98.384 E8.50738
G1 X86.989 Y98.226 E8.54920
G1 X87.370 Y97.635 E8.67974
G1 X87.628 Y96.929 E8.81912
G1 X87.716 Y96.232 E8.94966
G1 X87.644 Y95.484 E9.08904
G1 X87.583 Y95.301 E9.12487
G1 X88.059 Y94.934 E9.23629
G1 X88.501 Y94.425 E9.36151
G1 X88.856 Y93.763 E9.50089
G1 X89.036 Y93.112 E9.62612
G1 X89.083 Y92.445 E9.75016
G1 X89.451 Y92.314 E9.82274
G1 X90.022 Y91.954 E9.94797
G1 X90.510 Y91.488 E10.07319
G1 X90.910 Y90.883 E10.20768
G1 X91.125 Y90.351 E10.31423
G1 X91.189 Y90.057 E10.37012
G1 X91.467 Y90.036 E10.42198
G1 X92.088 Y89.862 E10.54164
G1 X92.690 Y89.555 E10.66686
G1 X93.267 Y89.075 E10.80624
G1 X93.694 Y88.516 E10.93678
G1 X93.817 Y88.248 E10.99158
G1 X94.423 Y88.289 E11.10412
G1 X95.065 Y88.205 E11.22443
G1 X95.708 Y87.984 E11.35047
G1 X96.352 Y87.587 E11.49089
G1 X96.833 Y87.106 E11.61712
G1 X97.073 Y87.217 E11.66620
G1 X97.840 Y87.361 E11.81090
G1 X98.514 Y87.336 E11.93613
G1 X99.170 Y87.178 E12.06135
G1 X99.843 Y86.846 E12.20073
G1 X99.990 Y86.727 E12.23577
G1 X100.213 Y86.891 E12.28729
G1 X100.766 Y87.167 E12.40178
G1 X101.416 Y87.343 E12.52688
G1 X102.166 Y87.374 E12.66612
G1 X102.857 Y87.247 E12.79654
G1 X103.172 Y87.112 E12.86015
G1 X103.590 Y87.535 E12.97044
G1 X104.127 Y87.898 E13.09075
G1 X104.754 Y88.159 E13.21680
G1 X105.517 Y88.291 E13.36054
G1 X106.176 Y88.242 E13.48313
G1 X106.274 Y88.465 E13.52835
G1 X106.690 Y89.030 E13.65862
G1 X107.259 Y89.521 E13.79800
G1 X107.855 Y89.838 E13.92322
G1 X108.501 Y90.031 E14.04844
G1 X108.796 Y90.051 E14.10324
G1 X108.972 Y90.632 E14.21578
G1 X109.279 Y91.203 E14.33610
G1 X109.713 Y91.725 E14.46214
G1 X110.304 Y92.180 E14.60056
G1 X110.932 Y92.470 E14.72901
G1 X110.914 Y92.731 E14.77757
G1 X111.051 Y93.498 E14.92200
G1 X111.314 Y94.119 E15.04723
G1 X111.694 Y94.677 E15.17245
G1 X112.387 Y95.322 E15.34816
G1 X112.284 Y96.072 E15.48863
G1 X112.347 Y96.815 E15.62705
G1 X112.559 Y97.484 E15.75732
G1 X112.939 Y98.132 E15.89669
G1 X113.172 Y98.380 E15.95989
G1 X112.889 Y99.003 E16.08673
G1 X112.748 Y99.696 E16.21796
G1 X112.764 Y100.441 E16.35625
G1 X112.925 Y101.094 E16.48107
G1 X113.172 Y101.616 E16.58829
G1 X113.009 Y101.775 E16.63052
G1 X112.627 Y102.371 E16.76188
G1 X112.372 Y103.072 E16.90030
G1 X112.287 Y103.742 E17.02565
G1 X112.337 Y104.420 E17.15170
G1 X112.424 Y104.706 E17.20728
G1 X112.034 Y104.971 E17.29471
G1 X111.507 Y105.561 E17.44161
G1 X111.144 Y106.237 E17.58412
G1 X110.964 Y106.888 E17.70934
G1 X110.917 Y107.551 E17.83279
G1 X110.638 Y107.644 E17.88747
G1 X109.996 Y108.029 E18.02629
G1 X109.540 Y108.466 E18.14346
G1 E16.14346 F2400.00000
G92 E0
G1 X109.629 Y110.881 F7800.000
G1 E2.00000 F2400.00000
G1 F1800
G1 X109.272 Y110.818 E2.06727
G1 X108.782 Y110.832 E2.15817
G1 X108.253 Y110.966 E2.25962
G1 X107.805 Y111.195 E2.35288
G1 X107.381 Y111.547 E2.45514
G1 X107.085 Y111.934 E2.54558
G1 X106.871 Y112.375 E2.63648
G1 X106.764 Y112.828 E2.72291
G1 X106.073 Y112.640 E2.85589
G1 X105.588 Y112.607 E2.94607
G1 X105.044 Y112.692 E3.04834
G1 X104.592 Y112.871 E3.13852
G1 X104.199 Y113.127 E3.22546
G1 X103.865 Y113.455 E3.31241
G1 X103.436 Y114.084 E3.45376
G1 X103.097 Y113.836 E3.53161
G1 X102.636 Y113.636 E3.62504
G1 X102.094 Y113.535 E3.72730
G1 X101.591 Y113.553 E3.82073
G1 X101.058 Y113.695 E3.92299
G1 X100.644 Y113.913 E4.00994
G1 X100.352 Y114.139 E4.07834
G1 X100.007 Y114.498 E4.17076
G1 X99.617 Y114.089 E4.27553
G1 X99.248 Y113.831 E4.35916
G1 X98.899 Y113.667 E4.43071
G1 X98.447 Y113.545 E4.51758
G1 X97.897 Y113.522 E4.61974
G1 X97.402 Y113.613 E4.71307
G1 X96.880 Y113.837 E4.81848
G1 X96.556 Y114.084 E4.89416
G1 X96.166 Y113.488 E5.02634
G1 X95.837 Y113.155 E5.11329
G1 X95.448 Y112.892 E5.20048
G1 X94.995 Y112.703 E5.29138
G1 X94.439 Y112.607 E5.39609
G1 X93.873 Y112.649 E5.50143
G1 X93.239 Y112.844 E5.62461
G1 X93.145 Y112.412 E5.70680
G1 X92.939 Y111.971 E5.79698
G1 X92.651 Y111.580 E5.88716
G1 X92.233 Y111.220 E5.98943
G1 X91.804 Y110.992 E6.07961
G1 X91.354 Y110.857 E6.16680
G1 X90.866 Y110.813 E6.25770
G1 X90.405 Y110.874 E6.34414
G1 X90.336 Y110.161 E6.47712
G1 X90.200 Y109.713 E6.56406
G1 X89.978 Y109.300 E6.65101
G1 X89.668 Y108.925 E6.74119
G1 X89.231 Y108.588 E6.84370
G1 X88.770 Y108.376 E6.93784
G1 X88.046 Y108.223 E7.07520
G1 X88.161 Y107.803 E7.15593
G1 X88.185 Y107.300 E7.24935
G1 X88.088 Y106.758 E7.35161
G1 X87.898 Y106.309 E7.44205
G1 X87.621 Y105.905 E7.53294
G1 X87.208 Y105.521 E7.63765
G1 X86.710 Y105.248 E7.74300
G1 X86.402 Y105.160 E7.80244
G1 X86.596 Y104.834 E7.87290
G1 X86.751 Y104.392 E7.95984
G1 X86.818 Y103.910 E8.05003
G1 X86.772 Y103.360 E8.15254
G1 X86.618 Y102.877 E8.24668
G1 X86.341 Y102.405 E8.34814
G1 X85.997 Y102.039 E8.44140
G1 X85.608 Y101.776 E8.52847
G1 X86.028 Y101.223 E8.65732
G1 X86.255 Y100.721 E8.75948
G1 X86.357 Y100.229 E8.85281
G1 X86.346 Y99.678 E8.95498
G1 X86.229 Y99.207 E9.04507
G1 X86.030 Y98.784 E9.13193
G1 X85.612 Y98.221 E9.26201
G1 X85.899 Y98.044 E9.32471
G1 X86.293 Y97.658 E9.42697
G1 X86.566 Y97.235 E9.52039
G1 X86.755 Y96.718 E9.62265
G1 X86.818 Y96.218 E9.71608
G1 X86.765 Y95.670 E9.81834
G1 X86.612 Y95.208 E9.90852
G1 X86.428 Y94.886 E9.97745
G1 X87.072 Y94.568 E10.11068
G1 X87.443 Y94.281 E10.19762
G1 X87.762 Y93.915 E10.28781
G1 X88.022 Y93.429 E10.39007
G1 X88.151 Y92.960 E10.48025
G1 X88.185 Y92.493 E10.56720
G1 X88.088 Y91.738 E10.70855
G1 X88.523 Y91.697 E10.78965
G1 X89.059 Y91.507 E10.89517
G1 X89.469 Y91.247 E10.98535
G1 X89.821 Y90.911 E11.07553
G1 X90.116 Y90.465 E11.17482
G1 X90.269 Y90.088 E11.25038
G1 X90.359 Y89.668 E11.33004
G1 X90.380 Y89.139 E11.42835
G1 X90.866 Y89.186 E11.51897
G1 X91.312 Y89.152 E11.60187
G1 X91.762 Y89.026 E11.68866
G1 X92.195 Y88.805 E11.77884
G1 X92.619 Y88.453 E11.88110
G1 X92.925 Y88.053 E11.97452
G1 X93.154 Y87.552 E12.07679
G1 X93.234 Y87.172 E12.14896
G1 X93.927 Y87.360 E12.28218
G1 X94.395 Y87.392 E12.36913
G1 X94.860 Y87.331 E12.45632
G1 X95.324 Y87.172 E12.54722
G1 X95.795 Y86.881 E12.64990
G1 X96.177 Y86.500 E12.75007
G1 X96.548 Y85.903 E12.88055
G1 X96.831 Y86.122 E12.94703
G1 X97.347 Y86.360 E13.05254
G1 X97.906 Y86.465 E13.15805
G1 X98.392 Y86.447 E13.24824
G1 X98.864 Y86.334 E13.33842
G1 X99.358 Y86.090 E13.44068
G1 X99.749 Y85.772 E13.53411
G1 X99.976 Y85.484 E13.60215
G1 X100.371 Y85.898 E13.70840
G1 X100.681 Y86.127 E13.77995
G1 X101.084 Y86.328 E13.86358
