; generated by Slic3r 1.3.0 on 2019-12-11 at 09:26:19

; external perimeters extrusion width = 0.55mm (4.37mm^3/s)
; perimeters extrusion width = 0.70mm (11.44mm^3/s)
; infill extrusion width = 0.63mm (13.45mm^3/s)
; solid infill extrusion width = 0.70mm (3.81mm^3/s)
; top infill extrusion width = 0.70mm (2.86mm^3/s)

M107
M190 S65 ; set bed temperature and wait for it to be reached
M104 S205 ; set temperature
G28 ; home all axes
G1 Z5 F5000 ; lift nozzle

; Filament gcode

M109 S205 ; set temperature and wait for it to be reached
G21 ; set units to millimeters
G90 ; use absolute coordinates
M82 ; use absolute distances for extrusion
G92 E0
G1 Z0.500 F7800.000
G1 E-2.00000 F2400.00000
G92 E0
G1 X90.407 Y90.029 F7800.000
G1 E2.00000 F2400.00000
G1 F1800
G1 X90.958 Y89.527 E2.13833
G1 X91.380 Y89.186 E2.23894
G1 X91.817 Y88.866 E2.33956
G1 X92.560 Y88.393 E2.50304
G1 X93.035 Y88.132 E2.60364
G1 X93.523 Y87.894 E2.70426
G1 X94.021 Y87.681 E2.80487
G1 X94.530 Y87.493 E2.90547
G1 X95.243 Y87.275 E3.04382
G1 X96.102 Y87.081 E3.20728
G1 X96.839 Y86.970 E3.34565
G1 X97.870 Y86.900 E3.53735
G1 X98.801 Y86.919 E3.71025
G1 X99.342 Y86.966 E3.81087
G1 X99.879 Y87.040 E3.91147
G1 X100.610 Y87.185 E4.04981
G1 X101.459 Y87.419 E4.21327
G1 X101.971 Y87.597 E4.31389
G1 X102.474 Y87.799 E4.41450
G1 X103.149 Y88.118 E4.55284
G1 X103.624 Y88.377 E4.65344
G1 X104.087 Y88.660 E4.75407
G1 X104.535 Y88.965 E4.85467
G1 X104.968 Y89.292 E4.95528
G1 X105.635 Y89.868 E5.11876
G1 X110.903 Y95.126 E6.50010
G1 X112.253 Y97.037 E6.93428
G1 X112.885 Y99.290 E7.36846
G1 X112.728 Y101.624 E7.80264
G1 X111.799 Y103.772 E8.23682
G1 X110.903 Y104.874 E8.50036
G1 X105.903 Y109.874 E9.81255
G1 X105.384 Y110.360 E9.94459
G1 X104.968 Y110.708 E10.04522
G1 X104.535 Y111.035 E10.14582
G1 X104.087 Y111.340 E10.24643
G1 X103.624 Y111.623 E10.34706
G1 X103.148 Y111.882 E10.44767
G1 X102.660 Y112.118 E10.54827
G1 X101.971 Y112.403 E10.68662
G1 X101.459 Y112.581 E10.78725
G1 X100.610 Y112.815 E10.95069
G1 X99.879 Y112.960 E11.08902
G1 X99.342 Y113.034 E11.18964
G1 X98.801 Y113.081 E11.29026
G1 X97.921 Y113.101 E11.45372
G1 X97.379 Y113.079 E11.55434
G1 X96.839 Y113.030 E11.65495
G1 X96.302 Y112.955 E11.75555
G1 X95.621 Y112.819 E11.88445
G1 X95.047 Y112.670 E11.99450
G1 X94.530 Y112.507 E12.09511
G1 X94.021 Y112.319 E12.19575
G1 X93.217 Y111.960 E12.35920
G1 X92.560 Y111.607 E12.49752
G1 X92.098 Y111.323 E12.59815
G1 X91.651 Y111.017 E12.69875
G1 X91.220 Y110.689 E12.79937
G1 X90.554 Y110.112 E12.96284
G1 X90.168 Y109.731 E13.06345
G1 X89.802 Y109.331 E13.16407
G1 X89.330 Y108.754 E13.30239
G1 X89.013 Y108.314 E13.40300
G1 X88.717 Y107.860 E13.50365
G1 X88.285 Y107.092 E13.66709
G1 X88.051 Y106.603 E13.76771
G1 X87.840 Y106.103 E13.86831
G1 X87.607 Y105.449 E13.99724
G1 X87.441 Y104.880 E14.10727
G1 X87.316 Y104.352 E14.20787
G1 X87.217 Y103.819 E14.30851
G1 X87.113 Y102.944 E14.47197
G1 X87.078 Y102.059 E14.63641
G1 X87.083 Y97.597 E15.46445
G1 X87.145 Y96.718 E15.62789
G1 X87.217 Y96.181 E15.72850
G1 X87.316 Y95.648 E15.82912
G1 X87.441 Y95.120 E15.92973
G1 X87.655 Y94.406 E16.06805
G1 X87.840 Y93.896 E16.16870
G1 X88.195 Y93.090 E16.33215
G1 X88.544 Y92.431 E16.47048
G1 X89.013 Y91.686 E16.63394
G1 X89.330 Y91.246 E16.73456
G1 X89.802 Y90.669 E16.87288
G1 X90.354 Y90.082 E17.02244
G1 E15.02244 F2400.00000
G92 E0
G1 X101.150 Y101.647 F7800.000
G1 E2.00000 F2400.00000
G1 F1800
G1 X99.298 Y103.485 E2.48419
G1 X99.029 Y103.674 E2.54509
G1 X98.752 Y103.805 E2.60194
G1 X98.436 Y103.892 E2.66284
G1 X98.284 Y103.914 E2.69130
G1 X98.103 Y103.923 E2.72499
G1 X97.742 Y103.887 E2.79230
G1 X97.566 Y103.842 E2.82599
G1 X97.231 Y103.703 E2.89330
G1 X97.076 Y103.609 E2.92699
G1 X96.627 Y103.274 E3.03098
G1 X100.839 Y101.138 E3.90743
G1 X101.111 Y101.583 E4.00436
G1 E2.00436 F2400.00000
G92 E0
G1 X100.781 Y98.833 F7800.000
G1 E2.00000 F2400.00000
G1 F1800
G1 X96.626 Y96.726 E2.86439
G1 X97.076 Y96.391 E2.96838
G1 X97.231 Y96.297 E3.00208
G1 X97.395 Y96.219 E3.03577
G1 X97.742 Y96.113 E3.10307
G1 X97.899 Y96.090 E3.13249
G1 X98.268 Y96.083 E3.20093
G1 X98.436 Y96.108 E3.23253
G1 X98.752 Y96.195 E3.29342
G1 X98.898 Y96.255 E3.32263
G1 X99.118 Y96.378 E3.36929
G1 X99.453 Y96.656 E3.45016
G1 X101.057 Y98.259 E3.87102
G1 X100.813 Y98.765 E3.97523
G1 X101.108 Y100.000 F7800.000
G1 F1800
G1 X95.478 Y97.144 E5.14676
G1 X95.570 Y96.884 E5.19797
G1 X95.684 Y96.640 E5.24797
G1 X95.822 Y96.408 E5.29797
G1 X95.982 Y96.191 E5.34797
G1 X96.162 Y95.991 E5.39796
G1 X96.361 Y95.810 E5.44796
G1 X96.577 Y95.649 E5.49796
G1 X96.808 Y95.510 E5.54796
G1 X97.051 Y95.394 E5.59796
G1 X97.305 Y95.303 E5.64795
G1 X97.566 Y95.237 E5.69795
G1 X97.819 Y95.199 E5.74534
G1 X98.230 Y95.186 E5.82167
G1 X98.620 Y95.233 E5.89465
G1 X99.043 Y95.349 E5.97594
G1 X99.493 Y95.560 E6.06813
G1 X99.844 Y95.805 E6.14760
G1 X100.069 Y96.009 E6.20396
G1 X102.279 Y98.219 E6.78407
G1 X102.077 Y98.398 E6.83407
G1 X101.813 Y98.747 E6.91536
G1 X101.623 Y99.142 E6.99664
G1 X101.515 Y99.566 E7.07793
G1 X101.493 Y100.004 E7.15922
G1 X101.558 Y100.437 E7.24050
G1 X101.708 Y100.848 E7.32179
G1 X101.936 Y101.222 E7.40307
G1 X102.370 Y101.690 E7.52143
G1 X100.069 Y103.991 E8.12539
G1 X99.857 Y104.183 E8.17856
G1 X99.498 Y104.436 E8.25985
G1 X99.276 Y104.554 E8.30666
G1 X99.043 Y104.651 E8.35347
G1 X98.620 Y104.767 E8.43476
G1 X98.371 Y104.804 E8.48157
G1 X98.102 Y104.817 E8.53157
G1 X97.833 Y104.803 E8.58156
G1 X97.566 Y104.763 E8.63156
G1 X97.305 Y104.697 E8.68156
G1 X97.051 Y104.606 E8.73156
G1 X96.808 Y104.490 E8.78156
G1 X96.577 Y104.351 E8.83155
G1 X96.361 Y104.190 E8.88155
G1 X96.162 Y104.009 E8.93155
G1 X95.982 Y103.808 E8.98155
G1 X95.822 Y103.592 E9.03155
G1 X95.684 Y103.360 E9.08154
G1 X95.570 Y103.116 E9.13154
G1 X95.478 Y102.856 E9.18275
G1 X101.041 Y100.034 E10.34036
G1 X99.135 Y100.000 F7800.000
G1 F1800
G1 X94.479 Y97.638 E11.30911
G1 X94.538 Y97.228 E11.38597
G1 X94.624 Y96.882 E11.45227
G1 X94.743 Y96.545 E11.51858
G1 X94.895 Y96.221 E11.58488
G1 X95.077 Y95.914 E11.65118
G1 X95.289 Y95.627 E11.71749
G1 X95.529 Y95.361 E11.78379
G1 X95.793 Y95.120 E11.85009
G1 X96.079 Y94.907 E11.91640
G1 X96.385 Y94.722 E11.98270
G1 X96.708 Y94.569 E12.04900
G1 X97.044 Y94.448 E12.11531
G1 X97.390 Y94.361 E12.18161
G1 X97.739 Y94.308 E12.24698
G1 X98.244 Y94.293 E12.34084
G1 X98.454 Y94.306 E12.37979
G1 X98.805 Y94.358 E12.44564
G1 X99.333 Y94.503 E12.54731
G1 X99.658 Y94.638 E12.61263
G1 X99.937 Y94.785 E12.67111
G1 X100.411 Y95.114 E12.77815
G1 X100.685 Y95.362 E12.84674
G1 X103.847 Y98.525 E13.67674
G1 X103.171 Y98.697 E13.80632
G1 X102.930 Y98.836 E13.85797
G1 X102.735 Y99.008 E13.90610
G1 X102.578 Y99.215 E13.95423
G1 X102.466 Y99.448 E14.00237
G1 X102.402 Y99.700 E14.05050
G1 X102.389 Y99.959 E14.09863
G1 X102.428 Y100.215 E14.14676
G1 X102.516 Y100.459 E14.19489
G1 X102.652 Y100.680 E14.24303
G1 X102.828 Y100.871 E14.29116
G1 X103.039 Y101.022 E14.33929
G1 X103.275 Y101.129 E14.38742
G1 X104.023 Y101.299 E14.52980
G1 X100.685 Y104.638 E15.40593
G1 X100.415 Y104.882 E15.47337
G1 X99.967 Y105.197 E15.57505
G1 X99.657 Y105.363 E15.64021
G1 X99.333 Y105.497 E15.70537
G1 X98.805 Y105.642 E15.80704
G1 X98.457 Y105.693 E15.87220
G1 X98.101 Y105.711 E15.93850
G1 X97.744 Y105.692 E16.00481
G1 X97.390 Y105.639 E16.07111
G1 X97.044 Y105.552 E16.13741
G1 X96.708 Y105.431 E16.20372
G1 X96.385 Y105.278 E16.27002
G1 X96.079 Y105.093 E16.33632
G1 X95.793 Y104.880 E16.40263
G1 X95.529 Y104.639 E16.46893
G1 X95.289 Y104.373 E16.53523
G1 X95.077 Y104.086 E16.60154
G1 X94.895 Y103.779 E16.66784
G1 X94.743 Y103.455 E16.73414
G1 X94.624 Y103.118 E16.80045
G1 X94.538 Y102.772 E16.86675
G1 X94.479 Y102.362 E16.94361
G1 X99.068 Y100.034 E17.89844
G1 X99.440 Y99.604 F7800.000
G1 E15.89844 F2400.00000
G92 E0
G1 X104.618 Y98.844 F7800.000
G1 E2.00000 F2400.00000
G1 F1800
G1 X105.078 Y99.883 E2.24312
G1 F1800
G1 X105.108 Y99.961 E2.26228
G1 F1800
G1 X105.123 Y100.000 E2.27244
G1 X105.075 Y100.101 E2.29969
G1 F1800
G1 X105.006 Y100.229 E2.33303
G1 F1800
G1 X104.907 Y100.392 E2.37324
G1 F1800
G1 X104.829 Y100.476 E2.39533
G1 F1800
G1 X104.771 Y100.503 E2.40668
G1 F1800
G1 X104.307 Y100.700 E2.48826
G1 F1800
G1 X104.075 Y100.798 E2.52491
G1 E0.52491 F2400.00000
G92 E0
G1 X99.948 Y102.147 F7800.000
G1 E2.00000 F2400.00000
G1 F1800
G1 X99.706 Y102.322 E2.00356
G1 F1800
G1 X99.464 Y102.497 E2.01267
G1 F1800
G1 X99.223 Y102.673 E2.02731
G1 F1800
G1 X98.981 Y102.848 E2.04751
G1 F1800
G1 X98.518 Y103.122 E2.09333
G1 X98.218 Y103.233 E2.12060
G1 X97.626 Y103.390 E2.17274
G1 E0.17274 F2400.00000
G92 E0
G1 X99.948 Y97.853 F7800.000
G1 E2.00000 F2400.00000
G1 F1800
G1 X99.706 Y97.678 E2.00356
G1 F1800
G1 X99.464 Y97.503 E2.01267
G1 F1800
G1 X99.223 Y97.327 E2.02731
G1 F1800
G1 X98.981 Y97.152 E2.04751
G1 F1800
G1 X98.590 Y96.911 E2.08759
G1 X98.201 Y96.761 E2.12395
G1 F1800
G1 X98.208 Y96.644 E2.13275
G1 F1800
G1 X98.214 Y96.527 E2.13936
G1 X97.544 Y96.640 F7800.000
G1 F1800
G1 X99.037 Y96.881 E2.21360
M104 S200 ; set temperature
M140 S60 ; set bed temperature
G1 Z0.800 F7800.000
G1 X101.282 Y100.000 F7800.000
G1 F900
G1 X95.575 Y97.105 E2.72090
G1 X95.754 Y96.677 E2.75770
G1 X95.888 Y96.452 E2.77845
G1 X96.043 Y96.241 E2.79920
G1 X96.218 Y96.047 E2.81994
G1 X96.411 Y95.871 E2.84069
G1 X96.621 Y95.714 E2.86144
G1 X96.845 Y95.579 E2.88219
G1 X97.082 Y95.467 E2.90293
G1 X97.328 Y95.378 E2.92368
G1 X97.582 Y95.314 E2.94443
G1 X97.832 Y95.276 E2.96453
G1 X98.161 Y95.263 E2.99060
G1 X98.604 Y95.310 E3.02593
G1 X99.000 Y95.419 E3.05844
G1 X99.375 Y95.585 E3.09096
G1 X99.794 Y95.866 E3.13097
G1 X100.015 Y96.066 E3.15459
G1 X102.165 Y98.216 E3.39564
G1 X102.020 Y98.344 E3.41100
G1 X101.746 Y98.706 E3.44697
G1 X101.549 Y99.115 E3.48294
G1 X101.438 Y99.549 E3.51849
G1 X101.414 Y99.962 E3.55128
G1 X101.460 Y100.356 E3.58269
G1 X101.590 Y100.779 E3.61781
G1 X101.807 Y101.177 E3.65378
G1 X102.099 Y101.525 E3.68975
G1 X102.280 Y101.669 E3.70808
G1 X100.015 Y103.934 E3.96201
G1 X99.807 Y104.122 E3.98419
G1 X99.457 Y104.369 E4.01815
G1 X99.242 Y104.483 E4.03746
G1 X99.000 Y104.583 E4.05820
G1 X98.583 Y104.695 E4.09246
G1 X98.102 Y104.738 E4.13076
G1 X97.840 Y104.725 E4.15150
G1 X97.582 Y104.686 E4.17225
G1 X97.328 Y104.622 E4.19300
G1 X97.082 Y104.533 E4.21374
G1 X96.845 Y104.421 E4.23449
G1 X96.621 Y104.286 E4.25524
G1 X96.411 Y104.129 E4.27598
G1 X96.218 Y103.953 E4.29673
G1 X96.043 Y103.759 E4.31748
G1 X95.888 Y103.548 E4.33822
G1 X95.754 Y103.323 E4.35897
G1 X95.575 Y102.895 E4.39578
G1 X101.215 Y100.034 E4.89713
G1 X99.877 Y100.000 F7800.000
G1 F900
G1 X94.846 Y97.448 E5.34435
G1 X94.946 Y96.978 E5.38245
G1 X95.054 Y96.672 E5.40816
G1 X95.192 Y96.379 E5.43387
G1 X95.357 Y96.100 E5.45957
G1 X95.550 Y95.839 E5.48528
G1 X95.767 Y95.598 E5.51099
G1 X96.006 Y95.380 E5.53669
G1 X96.266 Y95.186 E5.56240
G1 X96.544 Y95.018 E5.58811
G1 X96.837 Y94.879 E5.61381
G1 X97.142 Y94.769 E5.63952
G1 X97.456 Y94.690 E5.66523
G1 X97.773 Y94.643 E5.69057
G1 X98.165 Y94.627 E5.72173
G1 X98.423 Y94.641 E5.74216
G1 X98.735 Y94.687 E5.76723
G1 X99.214 Y94.819 E5.80657
G1 X99.668 Y95.019 E5.84591
G1 X99.937 Y95.181 E5.87080
G1 X100.198 Y95.374 E5.89651
G1 X100.453 Y95.605 E5.92385
G1 X103.162 Y98.314 E6.22758
G1 X102.733 Y98.563 E6.26691
G1 X102.488 Y98.779 E6.29279
G1 X102.291 Y99.039 E6.31868
G1 X102.149 Y99.333 E6.34457
G1 X102.069 Y99.647 E6.37022
G1 X102.052 Y99.944 E6.39382
G1 X102.084 Y100.225 E6.41623
G1 X102.179 Y100.531 E6.44163
G1 X102.335 Y100.818 E6.46752
G1 X102.545 Y101.068 E6.49341
G1 X102.800 Y101.271 E6.51930
G1 X103.313 Y101.534 E6.56501
G1 X100.453 Y104.395 E6.88568
G1 X100.205 Y104.619 E6.91220
G1 X99.791 Y104.911 E6.95236
G1 X99.514 Y105.059 E6.97725
G1 X99.214 Y105.183 E7.00296
G1 X98.693 Y105.321 E7.04571
G1 X98.427 Y105.359 E7.06702
G1 X98.101 Y105.374 E7.09290
G1 X97.777 Y105.358 E7.11860
G1 X97.456 Y105.310 E7.14431
G1 X97.142 Y105.231 E7.17002
G1 X96.837 Y105.121 E7.19572
G1 X96.544 Y104.982 E7.22143
G1 X96.266 Y104.814 E7.24714
G1 X96.006 Y104.620 E7.27284
G1 X95.767 Y104.402 E7.29855
G1 X95.550 Y104.161 E7.32426
G1 X95.357 Y103.900 E7.34996
G1 X95.192 Y103.621 E7.37567
G1 X95.054 Y103.328 E7.40138
G1 X94.946 Y103.022 E7.42708
G1 X94.846 Y102.552 E7.46519
G1 X99.810 Y100.034 E7.90646
G1 X98.637 Y100.000 F7800.000
G1 F1800
G1 X94.253 Y97.776 E8.20421
G1 X94.263 Y97.561 E8.21726
G1 X94.317 Y97.185 E8.24025
G1 X94.408 Y96.817 E8.26323
G1 X94.535 Y96.459 E8.28621
G1 X94.696 Y96.116 E8.30919
G1 X94.890 Y95.790 E8.33218
G1 X95.115 Y95.484 E8.35516
G1 X95.369 Y95.202 E8.37814
G1 X95.649 Y94.947 E8.40112
G1 X95.953 Y94.720 E8.42411
G1 X96.278 Y94.524 E8.44709
G1 X96.621 Y94.361 E8.47007
G1 X96.978 Y94.233 E8.49305
G1 X97.346 Y94.140 E8.51604
G1 X97.720 Y94.084 E8.53893
G1 X98.169 Y94.066 E8.56617
G1 X98.478 Y94.082 E8.58493
G1 X98.851 Y94.137 E8.60775
G1 X99.403 Y94.289 E8.64241
G1 X99.926 Y94.521 E8.67707
G1 X100.249 Y94.714 E8.69984
G1 X100.554 Y94.940 E8.72283
G1 X100.840 Y95.199 E8.74622
G1 X104.438 Y98.797 E9.05441
G1 X104.291 Y98.999 E9.06950
G1 X104.083 Y98.892 E9.08366
G1 X103.877 Y98.834 E9.09664
G1 X103.668 Y98.818 E9.10929
G1 X103.495 Y98.833 E9.11986
G1 X103.249 Y98.912 E9.13548
G1 X103.061 Y99.020 E9.14859
G1 X102.901 Y99.162 E9.16157
G1 X102.771 Y99.333 E9.17455
G1 X102.678 Y99.526 E9.18754
G1 X102.626 Y99.733 E9.20046
G1 X102.615 Y99.928 E9.21230
G1 X102.635 Y100.109 E9.22336
G1 X102.698 Y100.312 E9.23622
G1 X102.800 Y100.500 E9.24920
G1 X102.938 Y100.664 E9.26219
G1 X103.106 Y100.798 E9.27517
G1 X103.297 Y100.896 E9.28815
G1 X103.503 Y100.954 E9.30113
G1 X103.711 Y100.970 E9.31379
G1 X103.885 Y100.955 E9.32436
G1 X104.141 Y100.873 E9.34061
G1 X104.435 Y100.672 E9.36216
G1 X104.579 Y100.500 E9.37578
G1 X104.682 Y100.312 E9.38876
G1 X104.745 Y100.107 E9.40174
G1 X104.766 Y99.894 E9.41473
G1 X104.745 Y99.681 E9.42771
G1 X104.682 Y99.476 E9.44069
G1 X104.584 Y99.297 E9.45304
G1 X104.786 Y99.146 E9.46832
G1 X105.641 Y100.000 E9.54149
G1 X100.840 Y104.801 E9.95271
G1 X100.556 Y105.058 E9.97590
G1 X100.085 Y105.389 E10.01077
G1 X99.754 Y105.566 E10.03354
G1 X99.403 Y105.711 E10.05652
G1 X99.038 Y105.821 E10.07961
G1 X98.480 Y105.918 E10.11392
G1 X98.100 Y105.936 E10.13695
G1 X97.721 Y105.917 E10.15993
G1 X97.346 Y105.860 E10.18291
G1 X96.978 Y105.767 E10.20589
G1 X96.621 Y105.639 E10.22888
G1 X96.278 Y105.476 E10.25186
G1 X95.953 Y105.280 E10.27484
G1 X95.649 Y105.053 E10.29782
G1 X95.369 Y104.798 E10.32081
G1 X95.115 Y104.516 E10.34379
G1 X94.890 Y104.210 E10.36677
G1 X94.696 Y103.884 E10.38975
G1 X94.535 Y103.541 E10.41274
G1 X94.408 Y103.183 E10.43572
G1 X94.317 Y102.815 E10.45870
G1 X94.263 Y102.439 E10.48168
G1 X94.253 Y102.224 E10.49473
G1 X98.570 Y100.034 E10.78794
G1 X98.947 Y99.607 F7800.000
G1 X101.114 Y99.558 F7800.000
G1 F1200
G1 X101.075 Y99.482 E10.78833
G1 X101.119 Y99.362 E10.78891
G1 X100.888 Y98.917 F7800.000
G1 F1200
G1 X97.636 Y95.664 E11.22646
G1 X97.267 Y95.739 E11.26228
G1 X97.079 Y95.807 E11.28123
G1 X96.828 Y95.935 E11.30809
G1 X99.293 Y98.400 E11.63969
G1 X97.103 Y97.290 E11.87321
G1 X96.255 Y96.442 E11.98732
G1 X101.049 Y97.999 F7800.000
G1 F1200
G1 X99.328 Y96.278 E12.21891
G1 X101.543 Y98.494 E12.51701
G1 X101.203 Y101.125 F7800.000
G1 F1200
G1 X100.708 Y100.631 E12.57792
G1 X100.053 Y100.963 E12.64190
G1 X101.317 Y102.227 E12.79758
G1 X100.823 Y102.721 E12.85839
G1 X99.398 Y101.296 E13.03395
G1 X98.743 Y101.628 E13.09793
G1 X100.330 Y103.215 E13.29337
G1 X99.836 Y103.708 E13.35419
G1 X98.088 Y101.960 E13.56951
G1 X97.432 Y102.293 E13.63349
G1 X99.261 Y104.122 E13.85875
G1 X99.029 Y104.231 E13.88116
G1 X98.719 Y104.314 E13.90909
G1 X98.487 Y104.335 E13.92935
G1 X96.777 Y102.625 E14.13994
G1 X96.163 Y102.936 E14.19992
G1 X96.421 Y103.256 E14.23565
G1 X96.915 Y103.750 E14.29654
G1 X103.477 Y101.276 F7800.000
G1 F1200
G1 X103.879 Y101.365 E14.30311
G1 Z1.100 F7800.000
G1 E12.30311 F2400.00000
G92 E0
G1 X101.282 Y100.000 F7800.000
G1 E2.00000 F2400.00000
G1 F900
G1 X95.575 Y97.105 E2.50730
G1 X95.754 Y96.677 E2.54410
G1 X95.888 Y96.452 E2.56485
G1 X96.043 Y96.241 E2.58560
G1 X96.218 Y96.047 E2.60634
G1 X96.411 Y95.871 E2.62709
