; generated by Slic3r 1.3.0 on 2019-12-17 at 16:35:51

; external perimeters extrusion width = 0.55mm (4.37mm^3/s)
; perimeters extrusion width = 0.70mm (11.44mm^3/s)
; infill extrusion width = 0.63mm (13.45mm^3/s)
; solid infill extrusion width = 0.70mm (3.81mm^3/s)
; top infill extrusion width = 0.70mm (2.86mm^3/s)

M107
M190 S65 ; set bed temperature and wait for it to be reached
M104 S205 ; set temperature
G28 ; home all axes
G1 Z5 F5000 ; lift nozzle

; Filament gcode

M109 S205 ; set temperature and wait for it to be reached
G21 ; set units to millimeters
G90 ; use absolute coordinates
M82 ; use absolute distances for extrusion
G92 E0
G1 Z0.500 F7800.000
G1 E-2.00000 F2400.00000
G92 E0
G1 X80.972 Y88.860 F7800.000
G1 E2.00000 F2400.00000
G1 F1800
G1 X81.537 Y88.394 E2.13594
G1 X81.857 Y88.166 E2.20880
G1 X82.573 Y87.737 E2.36377
G1 X86.695 Y85.839 E3.20585
G1 X87.427 Y85.561 E3.35109
G1 X88.136 Y85.366 E3.48758
G1 X88.572 Y85.282 E3.57003
G1 X89.301 Y85.195 E3.70620
G1 X89.868 Y85.175 E3.81161
G1 X108.140 Y85.180 E7.20220
G1 X108.922 Y85.247 E7.34794
G1 X112.995 Y85.831 E8.11149
G1 X113.384 Y85.903 E8.18495
G1 X114.093 Y86.086 E8.32086
G1 X114.877 Y86.375 E8.47576
G1 X115.234 Y86.539 E8.54869
G1 X115.878 Y86.893 E8.68515
G1 X116.569 Y87.367 E8.84061
G1 X119.903 Y90.234 E9.65656
G1 X120.290 Y90.590 E9.75422
G1 X120.564 Y90.874 E9.82743
G1 X121.034 Y91.437 E9.96355
G1 X121.477 Y92.086 E10.10933
G1 X121.875 Y92.819 E10.26417
G1 X122.177 Y93.544 E10.40992
G1 X123.431 Y97.762 E11.22642
G1 X123.552 Y98.224 E11.31516
G1 X123.697 Y99.047 E11.47018
G1 X123.735 Y99.440 E11.54347
G1 X123.753 Y100.172 E11.67937
G1 X123.690 Y101.006 E11.83446
G1 X123.562 Y101.731 E11.97107
G1 X123.466 Y102.112 E12.04397
G1 X122.309 Y106.063 E12.80808
G1 X122.025 Y106.849 E12.96301
G1 X121.708 Y107.513 E13.09957
G1 X121.303 Y108.185 E13.24528
G1 X121.045 Y108.545 E13.32742
G1 X120.541 Y109.147 E13.47310
G1 X119.978 Y109.696 E13.61901
G1 X116.851 Y112.408 E14.38717
G1 X116.544 Y112.654 E14.46011
G1 X115.939 Y113.070 E14.59651
G1 X115.205 Y113.474 E14.75181
G1 X114.531 Y113.762 E14.88801
G1 X114.159 Y113.890 E14.96085
G1 X113.351 Y114.101 E15.11581
G1 X108.889 Y114.759 E15.95287
G1 X108.498 Y114.800 E16.02571
G1 X107.879 Y114.825 E16.14075
G1 X89.713 Y114.823 E19.51184
G1 X88.930 Y114.768 E19.65754
G1 X88.156 Y114.636 E19.80326
G1 X87.401 Y114.428 E19.94854
G1 X86.711 Y114.164 E20.08554
G1 X83.017 Y112.483 E20.83876
G1 X82.545 Y112.250 E20.93640
G1 X81.914 Y111.872 E21.07286
G1 X81.553 Y111.617 E21.15499
G1 X80.985 Y111.150 E21.29146
G1 X80.665 Y110.844 E21.37363
G1 X80.172 Y110.297 E21.51013
G1 X79.706 Y109.666 E21.65576
G1 X77.264 Y105.847 E22.49697
G1 X77.057 Y105.455 E22.57914
G1 X76.764 Y104.781 E22.71560
G1 X76.619 Y104.364 E22.79764
G1 X76.429 Y103.653 E22.93414
G1 X76.300 Y102.878 E23.07985
G1 X76.249 Y102.094 E23.22564
G1 X76.246 Y97.924 E23.99961
G1 X76.290 Y97.192 E24.13558
G1 X76.350 Y96.754 E24.21767
G1 X76.423 Y96.368 E24.29064
G1 X76.612 Y95.657 E24.42716
G1 X76.758 Y95.237 E24.50957
G1 X77.049 Y94.563 E24.64582
G1 X77.255 Y94.172 E24.72787
G1 X77.501 Y93.762 E24.81664
G1 X79.889 Y90.066 E25.63320
G1 X80.382 Y89.454 E25.77890
G1 X80.917 Y88.911 E25.92045
G1 E23.92045 F2400.00000
G92 E0
G1 X92.925 Y102.431 F7800.000
G1 E2.00000 F2400.00000
G1 F1800
G1 X92.665 Y102.626 E2.06026
G1 X92.387 Y102.794 E2.12052
G1 X92.094 Y102.933 E2.18078
G1 X91.788 Y103.043 E2.24104
G1 X91.473 Y103.121 E2.30130
G1 X91.152 Y103.168 E2.36156
G1 X90.821 Y103.183 E2.42298
G1 X90.342 Y103.144 E2.51218
G1 X89.868 Y103.033 E2.60254
G1 X89.416 Y102.852 E2.69291
G1 X88.879 Y102.537 E2.80851
G1 X87.637 Y99.356 E3.44215
G1 X87.762 Y98.906 E3.52868
G1 X87.882 Y98.598 E3.59011
G1 X88.110 Y98.175 E3.67931
G1 X88.403 Y97.786 E3.76967
G1 X88.747 Y97.450 E3.85887
G1 X89.010 Y97.250 E3.92029
G1 X89.292 Y97.076 E3.98171
G1 X89.730 Y96.878 E4.07091
G1 X90.193 Y96.747 E4.16011
G1 X90.520 Y96.698 E4.22150
G1 X90.843 Y96.681 E4.28158
G1 X91.323 Y96.716 E4.37091
G1 X91.648 Y96.782 E4.43241
G1 X91.958 Y96.877 E4.49267
G1 X92.258 Y97.004 E4.55293
G1 X92.543 Y97.159 E4.61319
G1 X92.811 Y97.342 E4.67345
G1 X93.060 Y97.551 E4.73370
G1 X93.286 Y97.784 E4.79396
G1 X93.488 Y98.038 E4.85422
G1 X93.664 Y98.311 E4.91448
G1 X93.812 Y98.600 E4.97474
G1 X93.930 Y98.902 E5.03500
G1 X94.017 Y99.215 E5.09526
G1 X94.073 Y99.535 E5.15552
G1 X94.096 Y99.859 E5.21578
G1 X94.087 Y100.184 E5.27604
G1 X94.046 Y100.506 E5.33630
G1 X93.973 Y100.822 E5.39656
G1 X93.868 Y101.130 E5.45682
G1 X93.734 Y101.425 E5.51708
G1 X93.570 Y101.706 E5.57734
G1 X93.380 Y101.969 E5.63760
G1 X93.164 Y102.211 E5.69786
G1 X92.980 Y102.380 E5.74420
G1 X92.925 Y102.431 F7800.000
G1 E3.74420 F2400.00000
G92 E0
G1 X91.046 Y95.777 F7800.000
G1 E2.00000 F2400.00000
G1 F1800
G1 X90.430 Y95.808 E2.11457
G1 X90.004 Y95.873 E2.19455
G1 X89.484 Y96.020 E2.29479
G1 X89.277 Y95.654 E2.37286
G1 X89.785 Y95.177 E2.50225
G1 X90.092 Y94.721 E2.60426
G1 X90.596 Y95.116 E2.72312
G1 X91.127 Y95.367 E2.83216
G1 X91.061 Y95.703 E2.89576
G1 E0.89576 F2400.00000
G92 E0
G1 X88.746 Y96.364 F7800.000
G1 E2.00000 F2400.00000
G1 F1800
G1 X88.505 Y96.512 E2.05244
G1 X88.162 Y96.773 E2.13251
G1 X87.731 Y97.196 E2.24451
G1 X87.567 Y97.413 E2.29508
G1 X87.155 Y97.170 E2.38387
G1 X87.242 Y96.974 E2.42367
G1 X87.347 Y96.507 E2.51255
G1 X87.358 Y95.964 E2.61325
G1 X87.919 Y96.032 E2.71807
G1 X88.609 Y95.959 E2.84673
G1 X88.722 Y96.293 E2.91221
G1 E0.91221 F2400.00000
G92 E0
G1 X87.151 Y98.013 F7800.000
G1 E2.00000 F2400.00000
G1 F1800
G1 X86.914 Y98.625 E2.12169
G1 X86.697 Y99.403 E2.27169
G1 X88.160 Y103.150 E3.01802
G1 X89.036 Y103.664 E3.20655
G1 X89.599 Y103.886 E3.31883
G1 X90.203 Y104.028 E3.43407
G1 X90.805 Y104.077 E3.54607
G1 X91.236 Y104.058 E3.62614
G1 X91.646 Y103.999 E3.70297
G1 X92.047 Y103.898 E3.77980
G1 X92.437 Y103.759 E3.85663
G1 X92.811 Y103.581 E3.93346
G1 X93.165 Y103.367 E4.01029
G1 X93.497 Y103.118 E4.08712
G1 X93.801 Y102.838 E4.16394
G1 X94.076 Y102.529 E4.24077
G1 X94.319 Y102.193 E4.31760
G1 X94.528 Y101.836 E4.39443
G1 X94.804 Y101.230 E4.51795
G1 X95.263 Y101.388 E4.60818
G1 X95.202 Y101.644 E4.65702
G1 X95.186 Y102.122 E4.74587
G1 X95.316 Y102.901 E4.89242
G1 X95.038 Y102.926 E4.94433
G1 X94.592 Y103.047 E5.02995
G1 X94.180 Y103.254 E5.11556
G1 X93.864 Y103.489 E5.18868
G1 X93.546 Y103.825 E5.27450
G1 X93.283 Y104.250 E5.36723
G1 X93.075 Y104.856 E5.48608
G1 X92.582 Y104.643 E5.58573
G1 X92.096 Y104.541 E5.67785
G1 X91.533 Y104.551 E5.78244
G1 X91.051 Y104.670 E5.87456
G1 X90.602 Y104.883 E5.96667
G1 X90.099 Y105.279 E6.08553
G1 X89.802 Y104.838 E6.18427
G1 X89.448 Y104.490 E6.27641
G1 X88.968 Y104.194 E6.38103
G1 X88.498 Y104.034 E6.47317
G1 X88.005 Y103.971 E6.56531
G1 X87.381 Y104.032 E6.68161
G1 X87.334 Y103.378 E6.80333
G1 X87.206 Y102.916 E6.89221
G1 X86.988 Y102.490 E6.98108
G1 X86.690 Y102.115 E7.06995
G1 X86.323 Y101.807 E7.15883
G1 X85.743 Y101.490 E7.28145
G1 X86.028 Y101.024 E7.38277
G1 X86.206 Y100.493 E7.48670
G1 X86.254 Y100.018 E7.57543
G1 X86.225 Y99.621 E7.64927
G1 X86.111 Y99.178 E7.73413
G1 X85.911 Y98.763 E7.81973
G1 X85.740 Y98.526 E7.87389
G1 X86.405 Y98.140 E8.01658
G1 X86.798 Y97.774 E8.11616
G1 X87.089 Y97.971 E8.18149
G1 E6.18149 F2400.00000
G92 E0
G1 X91.843 Y95.908 F7800.000
G1 E2.00000 F2400.00000
G1 F1800
G1 X91.867 Y95.489 E2.07789
G1 X92.560 Y95.360 E2.20859
G1 X93.074 Y95.138 E2.31250
G1 X93.238 Y95.655 E2.41328
G1 X93.596 Y96.297 E2.54966
G1 X93.282 Y96.583 E2.62830
G1 X93.009 Y96.396 E2.68970
G1 X92.646 Y96.198 E2.76653
G1 X92.264 Y96.037 E2.84336
G1 X91.915 Y95.930 E2.91121
G1 E0.91121 F2400.00000
G92 E0
G1 X93.835 Y97.040 F7800.000
G1 E2.00000 F2400.00000
G1 F1800
G1 X94.106 Y96.706 E2.07977
G1 X94.573 Y96.939 E2.17669
G1 X94.950 Y97.051 E2.24968
G1 X95.357 Y97.097 E2.32557
G1 X95.201 Y97.660 E2.43399
G1 X95.179 Y98.466 E2.58360
G1 X94.747 Y98.541 E2.66489
G1 X94.627 Y98.234 E2.72614
G1 X94.439 Y97.865 E2.80297
G1 X94.215 Y97.517 E2.87980
G1 X93.882 Y97.099 E2.97898
G1 E0.97898 F2400.00000
G92 E0
G1 X94.886 Y99.003 F7800.000
G1 E2.00000 F2400.00000
G1 F1800
G1 X95.334 Y98.863 E2.08709
G1 X95.514 Y99.250 E2.16636
G1 X95.799 Y99.635 E2.25523
G1 X96.197 Y99.996 E2.35498
G1 X95.798 Y100.358 E2.45499
G1 X95.515 Y100.744 E2.54384
G1 X95.286 Y101.237 E2.64475
G1 X94.829 Y101.080 E2.73438
G1 X94.926 Y100.664 E2.81375
G1 X94.978 Y100.253 E2.89058
G1 X94.990 Y99.839 E2.96741
G1 X94.960 Y99.426 E3.04424
G1 X94.899 Y99.077 E3.11001
G1 E1.11001 F2400.00000
G92 E0
G1 X97.224 Y96.351 F7800.000
G1 E2.00000 F2400.00000
G1 F1800
G1 X97.178 Y96.458 E2.02167
G1 X97.100 Y96.562 E2.04569
G1 X97.032 Y96.619 E2.06231
G1 X96.783 Y96.751 E2.11461
G1 X96.602 Y96.883 E2.15607
G1 X96.438 Y97.046 E2.19898
G1 X96.273 Y97.281 E2.25228
G1 X96.173 Y97.495 E2.29606
G1 X96.090 Y97.793 E2.35358
G1 X96.080 Y98.157 E2.42103
G1 X96.157 Y98.514 E2.48886
G1 X96.286 Y98.792 E2.54568
G1 X96.464 Y99.033 E2.60133
G1 X96.686 Y99.234 E2.65697
G1 X96.939 Y99.384 E2.71153
G1 X97.164 Y99.468 E2.75610
G1 X97.462 Y99.524 E2.81227
G1 X97.836 Y99.501 E2.88194
G1 X97.944 Y99.509 E2.90194
G1 X98.071 Y99.549 E2.92675
G1 X98.243 Y99.681 E2.96688
G1 X98.309 Y99.785 E2.98978
G1 X98.350 Y99.906 E3.01342
G1 X98.343 Y100.122 E3.05355
G1 X98.298 Y100.237 E3.07645
G1 X98.157 Y100.399 E3.11627
G1 X97.950 Y100.489 E3.15832
G1 X97.449 Y100.469 E3.25131
G1 X97.218 Y100.507 E3.29470
G1 X96.944 Y100.604 E3.34863
G1 X96.687 Y100.757 E3.40421
G1 X96.465 Y100.959 E3.45985
G1 X96.287 Y101.200 E3.51548
G1 X96.161 Y101.472 E3.57111
G1 X96.092 Y101.764 E3.62674
G1 X96.081 Y102.063 E3.68237
G1 X96.132 Y102.365 E3.73918
G1 X96.267 Y102.694 E3.80519
G1 X96.403 Y102.897 E3.85042
G1 X96.602 Y103.104 E3.90371
G1 X96.787 Y103.239 E3.94633
G1 X97.036 Y103.371 E3.99862
G1 X97.105 Y103.429 E4.01523
G1 X97.183 Y103.532 E4.03925
G1 X97.228 Y103.639 E4.06093
G1 X97.248 Y103.792 E4.08940
G1 X97.222 Y103.943 E4.11787
G1 X97.174 Y104.042 E4.13837
G1 X97.064 Y104.167 E4.16919
G1 X96.902 Y104.255 E4.20338
G1 X96.812 Y104.274 E4.22056
G1 X96.670 Y104.271 E4.24692
G1 X96.528 Y104.223 E4.27465
G1 X96.267 Y104.030 E4.33495
G1 X96.012 Y103.896 E4.38825
G1 X95.725 Y103.812 E4.44389
G1 X95.432 Y103.787 E4.49837
G1 X95.196 Y103.808 E4.54244
G1 X94.912 Y103.885 E4.59692
G1 X94.650 Y104.017 E4.65139
G1 X94.459 Y104.159 E4.69546
G1 X94.258 Y104.372 E4.75001
G1 X94.095 Y104.635 E4.80734
G1 X93.978 Y104.975 E4.87401
G1 X93.946 Y105.273 E4.92969
G1 X93.963 Y105.513 E4.97427
G1 X94.036 Y105.807 E5.03043
G1 X94.213 Y106.138 E5.10010
G1 X94.250 Y106.239 E5.12005
G1 X94.267 Y106.373 E5.14524
G1 X94.218 Y106.582 E5.18508
G1 X94.150 Y106.690 E5.20871
G1 X93.977 Y106.819 E5.24884
G1 X93.859 Y106.856 E5.27169
G1 X93.645 Y106.849 E5.31148
G1 X93.525 Y106.799 E5.33554
G1 X93.423 Y106.723 E5.35918
G1 X93.306 Y106.552 E5.39762
G1 X93.174 Y106.208 E5.46614
G1 X93.036 Y106.000 E5.51242
G1 X92.832 Y105.788 E5.56688
G1 X92.586 Y105.617 E5.62251
G1 X92.311 Y105.499 E5.67814
G1 X92.011 Y105.436 E5.73495
G1 X91.649 Y105.442 E5.80213
G1 X91.352 Y105.515 E5.85894
G1 X91.076 Y105.646 E5.91574
G1 X90.791 Y105.871 E5.98293
G1 X90.603 Y106.104 E6.03857
G1 X90.488 Y106.312 E6.08262
G1 X90.395 Y106.584 E6.13599
G1 X90.359 Y106.821 E6.18056
G1 X90.363 Y107.002 E6.21401
G1 X90.288 Y107.203 E6.25387
G1 X90.154 Y107.341 E6.28957
G1 X90.068 Y107.389 E6.30792
G1 X89.881 Y107.429 E6.34328
G1 X89.759 Y107.415 E6.36618
G1 X89.613 Y107.355 E6.39544
G1 X89.519 Y107.282 E6.41753
G1 X89.404 Y107.101 E6.45726
G1 X89.375 Y106.968 E6.48245
G1 X89.377 Y106.871 E6.50046
G1 X89.456 Y106.473 E6.57589
G1 X89.451 Y106.225 E6.62180
G1 X89.394 Y105.937 E6.67628
G1 X89.279 Y105.660 E6.73193
G1 X89.112 Y105.412 E6.78757
G1 X88.893 Y105.197 E6.84439
G1 X88.585 Y105.007 E6.91160
G1 X88.295 Y104.908 E6.96842
G1 X87.992 Y104.869 E7.02524
G1 X87.631 Y104.905 E7.09244
G1 X87.347 Y105.000 E7.14809
G1 X87.138 Y105.113 E7.19216
G1 X86.900 Y105.302 E7.24849
G1 X86.647 Y105.628 E7.32509
G1 X86.462 Y105.755 E7.36686
G1 X86.349 Y105.785 E7.38858
G1 X86.191 Y105.783 E7.41784
G1 X86.083 Y105.751 E7.43880
G1 X85.950 Y105.667 E7.46799
G1 X85.866 Y105.574 E7.49124
G1 X85.797 Y105.429 E7.52089
G1 X85.784 Y105.227 E7.55856
G1 X85.849 Y105.041 E7.59507
G1 X86.176 Y104.685 E7.68465
G1 X86.308 Y104.470 E7.73145
G1 X86.417 Y104.194 E7.78656
G1 X86.472 Y103.837 E7.85372
G1 X86.450 Y103.531 E7.91054
G1 X86.370 Y103.242 E7.96619
G1 X86.233 Y102.975 E8.02183
G1 X86.047 Y102.741 E8.07748
G1 X85.817 Y102.548 E8.13313
G1 X85.549 Y102.401 E8.18995
G1 X85.206 Y102.304 E8.25598
G1 X84.963 Y102.286 E8.30122
G1 X84.659 Y102.317 E8.35792
G1 X84.306 Y102.445 E8.42764
G1 X84.102 Y102.469 E8.46575
G1 X83.969 Y102.440 E8.49094
G1 X83.789 Y102.324 E8.53073
G1 X83.714 Y102.227 E8.55358
G1 X83.664 Y102.114 E8.57648
G1 X83.649 Y101.900 E8.61629
G1 X83.686 Y101.776 E8.64024
G1 X83.811 Y101.602 E8.68003
G1 X83.924 Y101.527 E8.70522
G1 X84.025 Y101.488 E8.72517
G1 X84.385 Y101.406 E8.79369
G1 X84.610 Y101.299 E8.83996
G1 X84.848 Y101.128 E8.89443
G1 X85.053 Y100.908 E8.95013
G1 X85.214 Y100.645 E9.00744
G1 X85.328 Y100.304 E9.07410
G1 X85.358 Y100.006 E9.12968
G1 X85.341 Y99.769 E9.17374
G1 X85.268 Y99.485 E9.22820
G1 X85.141 Y99.221 E9.28267
G1 X85.002 Y99.028 E9.32672
G1 X84.792 Y98.823 E9.38119
G1 X84.539 Y98.661 E9.43682
G1 X84.265 Y98.554 E9.49142
G1 X83.946 Y98.491 E9.55180
G1 X83.818 Y98.415 E9.57952
G1 X83.745 Y98.339 E9.59896
G1 X83.696 Y98.261 E9.61620
G1 X83.642 Y98.053 E9.65607
G1 X83.664 Y97.891 E9.68644
G1 X83.708 Y97.787 E9.70735
G1 X83.805 Y97.668 E9.73575
G1 X83.932 Y97.583 E9.76423
G1 X84.043 Y97.547 E9.78591
G1 X84.261 Y97.552 E9.82630
G1 X84.524 Y97.653 E9.87861
G1 X84.742 Y97.703 E9.92007
G1 X84.972 Y97.720 E9.96297
G1 X85.265 Y97.691 E10.01745
G1 X85.557 Y97.600 E10.07427
G1 X85.870 Y97.418 E10.14148
G1 X86.094 Y97.209 E10.19830
G1 X86.268 Y96.965 E10.25394
G1 X86.391 Y96.692 E10.30959
G1 X86.456 Y96.399 E10.36524
G1 X86.463 Y96.099 E10.42089
G1 X86.410 Y95.810 E10.47544
G1 X86.326 Y95.585 E10.52001
G1 X86.173 Y95.324 E10.57618
G1 X85.846 Y94.969 E10.66565
G1 X85.776 Y94.760 E10.70661
G1 X85.803 Y94.541 E10.74756
G1 X85.863 Y94.427 E10.77158
G1 X86.020 Y94.281 E10.81137
G1 X86.139 Y94.231 E10.83539
G1 X86.261 Y94.214 E10.85824
G1 X86.384 Y94.227 E10.88109
G1 X86.505 Y94.272 E10.90511
G1 X86.664 Y94.402 E10.94322
G1 X86.888 Y94.696 E11.01176
G1 X87.079 Y94.856 E11.05805
G1 X87.334 Y95.002 E11.11253
G1 X87.619 Y95.097 E11.16825
G1 X87.926 Y95.133 E11.22557
G1 X88.283 Y95.096 E11.29225
G1 X88.572 Y94.997 E11.34902
G1 X88.837 Y94.842 E11.40584
G1 X89.101 Y94.595 E11.47304
G1 X89.272 Y94.341 E11.52986
G1 X89.384 Y94.069 E11.58434
G1 X89.435 Y93.837 E11.62841
G1 X89.448 Y93.534 E11.68473
G1 X89.368 Y93.129 E11.76134
G1 X89.366 Y93.032 E11.77935
G1 X89.393 Y92.906 E11.80337
G1 X89.447 Y92.795 E11.82622
G1 X89.527 Y92.702 E11.84908
G1 X89.628 Y92.630 E11.87193
G1 X89.737 Y92.588 E11.89366
G1 X89.900 Y92.573 E11.92410
G1 X89.988 Y92.587 E11.94052
G1 X90.164 Y92.673 E11.97697
G1 X90.236 Y92.741 E11.99532
G1 X90.294 Y92.821 E12.01367
G1 X90.352 Y92.992 E12.04721
G1 X90.347 Y93.122 E12.07130
G1 X90.384 Y93.404 E12.12406
G1 X90.455 Y93.630 E12.16807
G1 X90.591 Y93.890 E12.22253
G1 X90.783 Y94.128 E12.27933
G1 X91.068 Y94.352 E12.34652
G1 X91.345 Y94.483 E12.40333
G1 X91.636 Y94.554 E12.45896
G1 X91.942 Y94.567 E12.51576
G1 X92.298 Y94.501 E12.58295
G1 X92.579 Y94.379 E12.63976
G1 X92.820 Y94.211 E12.69430
G1 X92.990 Y94.041 E12.73886
G1 X93.164 Y93.794 E12.79501
G1 X93.298 Y93.443 E12.86466
G1 X93.350 Y93.349 E12.88465
G1 X93.439 Y93.249 E12.90946
G1 X93.511 Y93.198 E12.92588
G1 X93.721 Y93.131 E12.96677
G1 X93.850 Y93.138 E12.99079
G1 X93.974 Y93.177 E13.01480
G1 X94.143 Y93.309 E13.05460
G1 X94.210 Y93.412 E13.07744
G1 X94.259 Y93.621 E13.11724
G1 X94.242 Y93.756 E13.14243
G1 X94.205 Y93.857 E13.16238
G1 X94.032 Y94.183 E13.23092
G1 X93.966 Y94.423 E13.27721
G1 X93.939 Y94.715 E13.33168
G1 X93.971 Y95.014 E13.38733
G1 X94.062 Y95.299 E13.44298
G1 X94.211 Y95.567 E13.49980
G1 X94.449 Y95.832 E13.56591
G1 X94.647 Y95.978 E13.61165
G1 X94.902 Y96.105 E13.66442
