; generated by Slic3r 1.3.0 on 2019-12-17 at 16:11:32

; external perimeters extrusion width = 0.55mm (4.37mm^3/s)
; perimeters extrusion width = 0.70mm (11.44mm^3/s)
; infill extrusion width = 0.63mm (13.45mm^3/s)
; solid infill extrusion width = 0.70mm (3.81mm^3/s)
; top infill extrusion width = 0.70mm (2.86mm^3/s)

M107
M190 S65 ; set bed temperature and wait for it to be reached
M104 S205 ; set temperature
G28 ; home all axes
G1 Z5 F5000 ; lift nozzle

; Filament gcode

M109 S205 ; set temperature and wait for it to be reached
G21 ; set units to millimeters
G90 ; use absolute coordinates
M82 ; use absolute distances for extrusion
G92 E0
G1 Z0.500 F7800.000
G1 E-2.00000 F2400.00000
G92 E0
G1 X81.333 Y88.896 F7800.000
G1 E2.00000 F2400.00000
G1 F1800
G1 X81.667 Y88.605 E2.08219
G1 X82.257 Y88.166 E2.21865
G1 X82.973 Y87.737 E2.37363
G1 X87.090 Y85.841 E3.21471
G1 X87.779 Y85.576 E3.35166
G1 X88.203 Y85.449 E3.43380
G1 X88.921 Y85.290 E3.57033
G1 X89.701 Y85.195 E3.71605
G1 X90.268 Y85.175 E3.82143
G1 X107.737 Y85.180 E7.06307
G1 X108.523 Y85.247 E7.20943
G1 X112.598 Y85.831 E7.97336
G1 X113.315 Y85.980 E8.10932
G1 X113.693 Y86.086 E8.18222
G1 X114.478 Y86.375 E8.33732
G1 X115.138 Y86.696 E8.47362
G1 X115.478 Y86.893 E8.54651
G1 X116.168 Y87.366 E8.70178
G1 X119.503 Y90.234 E9.51792
G1 X119.890 Y90.590 E9.61554
G1 X120.421 Y91.169 E9.76124
G1 X120.664 Y91.478 E9.83426
G1 X121.077 Y92.085 E9.97061
G1 X121.454 Y92.774 E10.11632
G1 X121.777 Y93.544 E10.27125
G1 X123.031 Y97.762 E11.08779
G1 X123.152 Y98.224 E11.17652
G1 X123.297 Y99.050 E11.33202
G1 X123.351 Y99.780 E11.46798
G1 X123.353 Y100.173 E11.54092
G1 X123.290 Y101.009 E11.69651
G1 X123.162 Y101.730 E11.83236
G1 X123.067 Y102.111 E11.90524
G1 X121.893 Y106.113 E12.67914
G1 X121.644 Y106.803 E12.81516
G1 X121.485 Y107.162 E12.88808
G1 X121.284 Y107.556 E12.97018
G1 X120.902 Y108.185 E13.10673
G1 X120.645 Y108.546 E13.18895
G1 X120.141 Y109.147 E13.33452
G1 X119.578 Y109.696 E13.48052
G1 X116.451 Y112.408 E14.24862
G1 X115.867 Y112.855 E14.38505
G1 X115.538 Y113.071 E14.45798
G1 X114.805 Y113.474 E14.61323
G1 X114.131 Y113.762 E14.74941
G1 X113.759 Y113.890 E14.82228
G1 X112.951 Y114.101 E14.97723
G1 X108.488 Y114.759 E15.81454
G1 X108.099 Y114.800 E15.88709
G1 X107.479 Y114.825 E16.00217
G1 X90.113 Y114.823 E19.22481
G1 X89.330 Y114.768 E19.37048
G1 X88.556 Y114.636 E19.51624
G1 X87.799 Y114.427 E19.66197
G1 X86.988 Y114.109 E19.82355
G1 X83.417 Y112.483 E20.55170
G1 X82.945 Y112.249 E20.64939
G1 X82.314 Y111.872 E20.78581
G1 X81.953 Y111.617 E20.86792
G1 X81.385 Y111.150 E21.00440
G1 X81.063 Y110.843 E21.08694
G1 X80.541 Y110.259 E21.23225
G1 X80.106 Y109.666 E21.36873
G1 X77.664 Y105.847 E22.20991
G1 X77.458 Y105.455 E22.29207
G1 X77.164 Y104.782 E22.42844
G1 X77.018 Y104.361 E22.51102
G1 X76.829 Y103.653 E22.64712
G1 X76.700 Y102.878 E22.79292
G1 X76.649 Y102.094 E22.93861
G1 X76.646 Y97.926 E23.71209
G1 X76.662 Y97.531 E23.78556
G1 X76.742 Y96.803 E23.92148
G1 X76.823 Y96.368 E24.00358
G1 X77.012 Y95.657 E24.14010
G1 X77.158 Y95.237 E24.22251
G1 X77.449 Y94.563 E24.35876
G1 X77.656 Y94.170 E24.44110
G1 X77.901 Y93.762 E24.52958
G1 X80.289 Y90.066 E25.34608
G1 X80.782 Y89.455 E25.49182
G1 X81.279 Y88.948 E25.62357
G1 E23.62357 F2400.00000
G92 E0
G1 X93.441 Y102.490 F7800.000
G1 E2.00000 F2400.00000
G1 F1800
G1 X93.173 Y102.690 E2.06214
G1 X92.886 Y102.863 E2.12427
G1 X92.583 Y103.006 E2.18641
G1 X92.268 Y103.118 E2.24854
G1 X91.943 Y103.199 E2.31068
G1 X91.611 Y103.246 E2.37282
G1 X91.270 Y103.260 E2.43612
G1 X90.783 Y103.220 E2.52696
G1 X90.449 Y103.149 E2.59026
G1 X90.130 Y103.048 E2.65240
G1 X89.667 Y102.848 E2.74600
G1 X88.022 Y99.172 E3.49331
G1 X88.181 Y98.693 E3.58691
G1 X88.321 Y98.382 E3.65021
G1 X88.578 Y97.959 E3.74223
G1 X88.901 Y97.573 E3.83540
G1 X89.277 Y97.241 E3.92858
G1 X89.698 Y96.968 E4.02176
G1 X90.156 Y96.761 E4.11493
G1 X90.633 Y96.626 E4.20695
G1 X90.970 Y96.576 E4.27022
G1 X91.303 Y96.559 E4.33212
G1 X91.799 Y96.595 E4.42431
G1 X92.133 Y96.663 E4.48769
G1 X92.453 Y96.762 E4.54982
G1 X92.762 Y96.893 E4.61196
G1 X93.055 Y97.054 E4.67409
G1 X93.332 Y97.243 E4.73623
G1 X93.588 Y97.458 E4.79837
G1 X93.821 Y97.699 E4.86050
G1 X94.029 Y97.961 E4.92264
G1 X94.210 Y98.243 E4.98477
G1 X94.362 Y98.541 E5.04691
G1 X94.483 Y98.853 E5.10905
G1 X94.573 Y99.176 E5.17118
G1 X94.630 Y99.506 E5.23332
G1 X94.653 Y99.840 E5.29545
G1 X94.644 Y100.175 E5.35759
G1 X94.600 Y100.507 E5.41973
G1 X94.524 Y100.833 E5.48186
G1 X94.416 Y101.150 E5.54400
G1 X94.277 Y101.454 E5.60613
G1 X94.108 Y101.743 E5.66827
G1 X93.911 Y102.014 E5.73041
G1 X93.688 Y102.264 E5.79254
G1 X93.496 Y102.439 E5.84076
G1 X93.441 Y102.490 F7800.000
G1 E3.84076 F2400.00000
G92 E0
G1 X91.219 Y95.669 F7800.000
G1 E2.00000 F2400.00000
G1 F1800
G1 X90.881 Y95.686 E2.06282
G1 X90.445 Y95.752 E2.14469
G1 X90.058 Y95.861 E2.21929
G1 X89.853 Y95.488 E2.29835
G1 X90.116 Y95.252 E2.36388
G1 X90.509 Y94.727 E2.48553
G1 X90.911 Y95.059 E2.58222
G1 X91.308 Y95.272 E2.66585
G1 X91.235 Y95.596 E2.72750
G1 E0.72750 F2400.00000
G92 E0
G1 X88.969 Y96.377 F7800.000
G1 E2.00000 F2400.00000
G1 F1800
G1 X88.735 Y96.528 E2.05159
G1 X88.259 Y96.949 E2.16966
G1 X87.997 Y97.262 E2.24525
G1 X87.620 Y97.075 E2.32342
G1 X87.747 Y96.507 E2.43153
G1 X87.758 Y95.964 E2.53224
G1 X88.319 Y96.032 E2.63705
G1 X88.828 Y95.978 E2.73197
G1 X88.944 Y96.306 E2.79648
G1 E0.79648 F2400.00000
G92 E0
G1 X87.465 Y98.109 F7800.000
G1 E2.00000 F2400.00000
G1 F1800
G1 X87.348 Y98.369 E2.05295
G1 X87.065 Y99.220 E2.21930
G1 X88.994 Y103.530 E3.09554
G1 X89.166 Y103.604 E3.13045
G1 X89.043 Y104.053 E3.21681
G1 X88.421 Y103.973 E3.33316
G1 X87.763 Y104.022 E3.45563
G1 X87.752 Y103.496 E3.55317
G1 X87.643 Y103.012 E3.64531
G1 X87.399 Y102.504 E3.74994
G1 X87.090 Y102.115 E3.84208
G1 X86.723 Y101.807 E3.93095
G1 X86.148 Y101.493 E4.05269
G1 X86.461 Y100.951 E4.16885
G1 X86.608 Y100.477 E4.26097
G1 X86.656 Y100.000 E4.34982
G1 X86.610 Y99.541 E4.43541
G1 X86.508 Y99.179 E4.50526
G1 X86.353 Y98.836 E4.57511
G1 X86.136 Y98.518 E4.64656
G1 X86.736 Y98.190 E4.77354
G1 X87.116 Y97.853 E4.86779
G1 X87.405 Y98.064 E4.93416
G1 E2.93416 F2400.00000
G92 E0
G1 X89.732 Y103.858 F7800.000
G1 E2.00000 F2400.00000
G1 F1800
G1 X90.221 Y104.014 E2.09521
G1 X90.653 Y104.105 E2.17716
G1 X91.252 Y104.155 E2.28874
G1 X91.565 Y104.142 E2.34686
G1 X91.670 Y104.567 E2.42811
G1 X91.018 Y104.875 E2.56194
G1 X90.506 Y105.259 E2.68070
G1 X90.123 Y104.748 E2.79919
G1 X89.765 Y104.429 E2.88806
G1 X89.537 Y104.297 E2.93695
G1 X89.701 Y103.927 E3.01207
G1 E1.01207 F2400.00000
G92 E0
G1 X92.175 Y104.061 F7800.000
G1 E2.00000 F2400.00000
G1 F1800
G1 X92.525 Y103.974 E2.06692
G1 X92.925 Y103.832 E2.14563
G1 X93.308 Y103.651 E2.22434
G1 X93.730 Y103.397 E2.31576
G1 X94.026 Y103.697 E2.39406
G1 X93.694 Y104.231 E2.51079
G1 X93.464 Y104.851 E2.63341
G1 X92.962 Y104.635 E2.73473
G1 X92.188 Y104.493 E2.88072
G1 X92.177 Y104.136 E2.94712
G1 E0.94712 F2400.00000
G92 E0
G1 X94.318 Y102.898 F7800.000
G1 E2.00000 F2400.00000
G1 F1800
G1 X94.606 Y102.575 E2.08042
G1 X94.856 Y102.232 E2.15913
G1 X95.070 Y101.866 E2.23784
G1 X95.172 Y101.644 E2.28311
G1 X95.599 Y101.745 E2.36460
G1 X95.586 Y102.122 E2.43467
G1 X95.716 Y102.901 E2.58121
G1 X95.438 Y102.926 E2.63313
G1 X94.992 Y103.047 E2.71875
G1 X94.587 Y103.250 E2.80285
G1 X94.363 Y102.958 E2.87116
G1 E0.87116 F2400.00000
G92 E0
G1 X95.481 Y100.655 F7800.000
G1 E2.00000 F2400.00000
G1 F1800
G1 X95.535 Y100.245 E2.07665
G1 X95.547 Y99.821 E2.15536
G1 X95.514 Y99.358 E2.24157
G1 X95.891 Y99.219 E2.31622
G1 X96.199 Y99.635 E2.41225
G1 X96.597 Y99.996 E2.51200
G1 X96.198 Y100.358 E2.61201
G1 X95.867 Y100.809 E2.71599
G1 X95.551 Y100.683 E2.77908
G1 E0.77908 F2400.00000
G92 E0
G1 X95.173 Y98.168 F7800.000
G1 E2.00000 F2400.00000
G1 F1800
G1 X94.985 Y97.798 E2.07695
G1 X94.756 Y97.441 E2.15566
G1 X94.573 Y97.211 E2.21023
G1 X94.793 Y96.886 E2.28307
G1 X95.350 Y97.051 E2.39088
G1 X95.728 Y97.094 E2.46140
G1 X95.582 Y97.854 E2.60496
G1 X95.590 Y98.060 E2.64323
G1 X95.246 Y98.149 E2.70915
G1 E0.70915 F2400.00000
G92 E0
G1 X93.561 Y96.313 F7800.000
G1 E2.00000 F2400.00000
G1 F1800
G1 X93.151 Y96.088 E2.08690
G1 X92.760 Y95.923 E2.16561
G1 X92.535 Y95.853 E2.20936
G1 X92.559 Y95.434 E2.28721
G1 X92.960 Y95.360 E2.36285
G1 X93.474 Y95.138 E2.46676
G1 X93.638 Y95.655 E2.56754
G1 X93.845 Y96.027 E2.64650
G1 X93.614 Y96.260 E2.70731
G1 E0.70731 F2400.00000
G92 E0
G1 X94.250 Y93.138 F7800.000
G1 E2.00000 F2400.00000
G1 F1800
G1 X94.374 Y93.177 E2.02402
G1 X94.543 Y93.309 E2.06381
G1 X94.610 Y93.412 E2.08666
G1 X94.651 Y93.535 E2.11068
G1 X94.642 Y93.756 E2.15164
G1 X94.429 Y94.188 E2.24115
G1 X94.355 Y94.485 E2.29785
G1 X94.339 Y94.722 E2.34192
G1 X94.371 Y95.014 E2.39640
G1 X94.462 Y95.299 E2.45205
G1 X94.611 Y95.567 E2.50887
G1 X94.853 Y95.836 E2.57607
G1 X95.098 Y96.009 E2.63172
G1 X95.307 Y96.107 E2.67463
G1 X95.529 Y96.173 E2.71753
G1 X95.821 Y96.206 E2.77201
G1 X96.120 Y96.180 E2.82765
G1 X96.407 Y96.095 E2.88330
G1 X96.661 Y95.961 E2.93659
G1 X96.923 Y95.768 E2.99694
G1 X97.071 Y95.718 E3.02586
G1 X97.175 Y95.714 E3.04530
G1 X97.360 Y95.761 E3.08065
G1 X97.463 Y95.828 E3.10350
G1 X97.564 Y95.943 E3.13197
G1 X97.627 Y96.083 E3.16044
G1 X97.644 Y96.192 E3.18094
G1 X97.624 Y96.351 E3.21058
G1 X97.578 Y96.458 E3.23226
G1 X97.432 Y96.619 E3.27264
G1 X97.183 Y96.751 E3.32495
G1 X97.002 Y96.883 E3.36641
G1 X96.838 Y97.046 E3.40932
G1 X96.669 Y97.286 E3.46379
G1 X96.546 Y97.567 E3.52061
G1 X96.478 Y97.922 E3.58782
G1 X96.489 Y98.228 E3.64464
G1 X96.559 Y98.520 E3.70028
G1 X96.686 Y98.792 E3.75593
G1 X96.864 Y99.033 E3.81158
G1 X97.086 Y99.234 E3.86723
G1 X97.339 Y99.384 E3.92170
G1 X97.561 Y99.468 E3.96577
G1 X97.861 Y99.524 E4.02248
G1 X98.350 Y99.510 E4.11315
G1 X98.558 Y99.600 E4.15528
G1 X98.698 Y99.763 E4.19508
G1 X98.743 Y99.877 E4.21793
G1 X98.758 Y99.999 E4.24078
G1 X98.743 Y100.122 E4.26363
G1 X98.647 Y100.314 E4.30343
G1 X98.552 Y100.402 E4.32746
G1 X98.439 Y100.464 E4.35148
G1 X98.261 Y100.496 E4.38495
G1 X98.080 Y100.466 E4.41895
G1 X97.843 Y100.469 E4.46300
G1 X97.561 Y100.523 E4.51630
G1 X97.339 Y100.607 E4.56035
G1 X97.087 Y100.757 E4.61482
G1 X96.865 Y100.959 E4.67045
G1 X96.687 Y101.200 E4.72608
G1 X96.561 Y101.472 E4.78171
G1 X96.492 Y101.764 E4.83734
G1 X96.481 Y102.063 E4.89297
G1 X96.532 Y102.365 E4.94978
G1 X96.669 Y102.700 E5.01697
G1 X96.843 Y102.945 E5.07260
G1 X97.007 Y103.108 E5.11549
G1 X97.187 Y103.239 E5.15694
G1 X97.436 Y103.371 E5.20924
G1 X97.583 Y103.532 E5.24962
G1 X97.631 Y103.645 E5.27247
G1 X97.649 Y103.761 E5.29414
G1 X97.630 Y103.913 E5.32261
G1 X97.570 Y104.047 E5.34991
G1 X97.464 Y104.167 E5.37955
G1 X97.302 Y104.255 E5.41374
G1 X97.212 Y104.274 E5.43092
G1 X97.070 Y104.271 E5.45728
G1 X96.928 Y104.223 E5.48501
G1 X96.667 Y104.030 E5.54531
G1 X96.412 Y103.896 E5.59861
G1 X96.125 Y103.812 E5.65425
G1 X95.832 Y103.787 E5.70873
G1 X95.596 Y103.808 E5.75280
G1 X95.312 Y103.885 E5.80728
G1 X95.050 Y104.017 E5.86175
G1 X94.859 Y104.159 E5.90582
G1 X94.658 Y104.372 E5.96030
G1 X94.500 Y104.627 E6.01595
G1 X94.393 Y104.914 E6.07277
G1 X94.346 Y105.267 E6.13880
G1 X94.363 Y105.510 E6.18404
G1 X94.436 Y105.806 E6.24074
G1 X94.613 Y106.138 E6.31046
G1 X94.666 Y106.336 E6.34857
G1 X94.657 Y106.465 E6.37259
G1 X94.618 Y106.582 E6.39548
G1 X94.487 Y106.752 E6.43530
G1 X94.371 Y106.823 E6.46042
G1 X94.161 Y106.864 E6.50021
G1 X94.039 Y106.847 E6.52306
G1 X93.925 Y106.799 E6.54595
G1 X93.762 Y106.651 E6.58692
G1 X93.574 Y106.208 E6.67633
G1 X93.435 Y106.000 E6.72261
G1 X93.232 Y105.788 E6.77707
G1 X92.986 Y105.617 E6.83277
G1 X92.702 Y105.495 E6.89009
G1 X92.349 Y105.430 E6.95674
G1 X92.043 Y105.443 E7.01350
G1 X91.752 Y105.515 E7.06913
G1 X91.481 Y105.644 E7.12476
G1 X91.236 Y105.827 E7.18157
G1 X91.006 Y106.098 E7.24758
G1 X90.888 Y106.312 E7.29281
G1 X90.793 Y106.589 E7.34727
G1 X90.756 Y106.881 E7.40173
G1 X90.761 Y107.007 E7.42531
G1 X90.688 Y107.203 E7.46405
G1 X90.554 Y107.341 E7.49975
G1 X90.468 Y107.389 E7.51810
G1 X90.281 Y107.429 E7.55346
G1 X90.159 Y107.415 E7.57636
G1 X90.013 Y107.355 E7.60562
G1 X89.919 Y107.282 E7.62771
G1 X89.804 Y107.101 E7.66744
G1 X89.775 Y106.968 E7.69263
G1 X89.777 Y106.871 E7.71064
G1 X89.857 Y106.466 E7.78725
G1 X89.844 Y106.163 E7.84357
G1 X89.791 Y105.925 E7.88881
G1 X89.646 Y105.600 E7.95484
G1 X89.462 Y105.355 E8.01166
G1 X89.238 Y105.156 E8.06731
G1 X88.979 Y105.005 E8.12296
G1 X88.695 Y104.908 E8.17860
G1 X88.397 Y104.870 E8.23432
G1 X88.089 Y104.893 E8.29165
G1 X87.752 Y104.997 E8.35715
G1 X87.538 Y105.113 E8.40234
G1 X87.300 Y105.302 E8.45866
G1 X87.047 Y105.628 E8.53527
G1 X86.862 Y105.755 E8.57704
G1 X86.749 Y105.785 E8.59876
G1 X86.591 Y105.783 E8.62802
G1 X86.483 Y105.751 E8.64898
G1 X86.350 Y105.667 E8.67817
G1 X86.266 Y105.574 E8.70142
G1 X86.189 Y105.393 E8.73786
G1 X86.184 Y105.227 E8.76874
G1 X86.208 Y105.131 E8.78709
G1 X86.317 Y104.949 E8.82636
G1 X86.576 Y104.685 E8.89498
G1 X86.708 Y104.470 E8.94177
G1 X86.815 Y104.200 E8.99571
G1 X86.868 Y103.905 E9.05131
G1 X86.861 Y103.606 E9.10696
G1 X86.794 Y103.307 E9.16378
G1 X86.637 Y102.980 E9.23099
G1 X86.447 Y102.741 E9.28781
G1 X86.217 Y102.548 E9.34345
G1 X85.949 Y102.401 E9.40027
G1 X85.606 Y102.304 E9.46631
G1 X85.363 Y102.286 E9.51155
G1 X85.059 Y102.317 E9.56825
G1 X84.706 Y102.445 E9.63796
G1 X84.600 Y102.467 E9.65796
G1 X84.467 Y102.465 E9.68276
G1 X84.291 Y102.404 E9.71729
G1 X84.189 Y102.324 E9.74131
G1 X84.114 Y102.227 E9.76416
G1 X84.064 Y102.114 E9.78705
G1 X84.049 Y101.900 E9.82687
G1 X84.086 Y101.776 E9.85082
G1 X84.149 Y101.670 E9.87371
G1 X84.319 Y101.529 E9.91468
G1 X84.785 Y101.406 E10.00417
G1 X85.012 Y101.297 E10.05095
G1 X85.248 Y101.128 E10.10487
G1 X85.457 Y100.904 E10.16163
G1 X85.638 Y100.591 E10.22882
G1 X85.729 Y100.298 E10.28563
G1 X85.759 Y100.000 E10.34126
G1 X85.730 Y99.708 E10.39572
G1 X85.667 Y99.485 E10.43861
G1 X85.572 Y99.275 E10.48150
G1 X85.406 Y99.032 E10.53596
G1 X85.192 Y98.823 E10.59160
G1 X84.939 Y98.661 E10.64723
G1 X84.665 Y98.554 E10.70183
G1 X84.346 Y98.491 E10.76221
G1 X84.218 Y98.415 E10.78994
G1 X84.150 Y98.344 E10.80821
G1 X84.052 Y98.139 E10.85033
G1 X84.042 Y98.053 E10.86634
G1 X84.063 Y97.895 E10.89604
G1 X84.127 Y97.757 E10.92413
G1 X84.200 Y97.672 E10.94504
G1 X84.332 Y97.583 E10.97462
G1 X84.443 Y97.547 E10.99630
G1 X84.661 Y97.552 E11.03670
G1 X84.924 Y97.653 E11.08900
G1 X85.148 Y97.704 E11.13163
G1 X85.435 Y97.719 E11.18494
G1 X85.671 Y97.689 E11.22901
G1 X85.951 Y97.602 E11.28349
G1 X86.220 Y97.455 E11.34031
G1 X86.490 Y97.215 E11.40751
G1 X86.668 Y96.965 E11.46433
G1 X86.791 Y96.692 E11.51998
G1 X86.856 Y96.399 E11.57563
G1 X86.863 Y96.099 E11.63127
G1 X86.810 Y95.810 E11.68575
G1 X86.728 Y95.588 E11.72982
G1 X86.574 Y95.324 E11.78652
G1 X86.246 Y94.969 E11.87604
G1 X86.175 Y94.754 E11.91815
G1 X86.206 Y94.536 E11.95910
G1 X86.263 Y94.427 E11.98195
G1 X86.345 Y94.335 E12.00485
G1 X86.451 Y94.264 E12.02848
G1 X86.661 Y94.214 E12.06860
G1 X86.872 Y94.255 E12.10839
G1 X86.987 Y94.327 E12.13358
G1 X87.064 Y94.402 E12.15354
G1 X87.288 Y94.696 E12.22207
G1 X87.479 Y94.856 E12.26836
G1 X87.734 Y95.002 E12.32284
G1 X88.019 Y95.097 E12.37856
G1 X88.326 Y95.133 E12.43589
G1 X88.683 Y95.096 E12.50256
G1 X88.972 Y94.997 E12.55933
G1 X89.231 Y94.846 E12.61498
G1 X89.455 Y94.646 E12.67062
G1 X89.639 Y94.401 E12.72744
G1 X89.783 Y94.076 E12.79348
G1 X89.835 Y93.837 E12.83872
G1 X89.848 Y93.534 E12.89504
G1 X89.768 Y93.129 E12.97164
G1 X89.793 Y92.906 E13.01342
G1 X89.847 Y92.795 E13.03627
G1 X89.927 Y92.702 E13.05913
G1 X90.028 Y92.630 E13.08198
G1 X90.137 Y92.588 E13.10371
G1 X90.300 Y92.573 E13.13415
G1 X90.480 Y92.621 E13.16868
G1 X90.564 Y92.673 E13.18703
G1 X90.694 Y92.821 E13.22355
G1 X90.752 Y92.992 E13.25709
G1 X90.747 Y93.122 E13.28118
G1 X90.784 Y93.404 E13.33393
G1 X90.855 Y93.630 E13.37794
G1 X90.991 Y93.890 E13.43241
G1 X91.179 Y94.123 E13.48804
G1 X91.410 Y94.314 E13.54367
G1 X91.680 Y94.459 E13.60047
G1 X92.030 Y94.554 E13.66766
G1 X92.342 Y94.567 E13.72564
G1 X92.698 Y94.501 E13.79283
G1 X92.979 Y94.379 E13.84963
