; generated by Slic3r 1.3.0 on 2019-12-16 at 20:48:53

; external perimeters extrusion width = 0.55mm (4.37mm^3/s)
; perimeters extrusion width = 0.70mm (11.44mm^3/s)
; infill extrusion width = 0.63mm (13.45mm^3/s)
; solid infill extrusion width = 0.70mm (3.81mm^3/s)
; top infill extrusion width = 0.70mm (2.86mm^3/s)

M107
M190 S65 ; set bed temperature and wait for it to be reached
M104 S205 ; set temperature
G28 ; home all axes
G1 Z5 F5000 ; lift nozzle

; Filament gcode

M109 S205 ; set temperature and wait for it to be reached
G21 ; set units to millimeters
G90 ; use absolute coordinates
M82 ; use absolute distances for extrusion
G92 E0
G1 Z0.500 F7800.000
G1 E-2.00000 F2400.00000
G92 E0
G1 X89.686 Y89.132 F7800.000
G1 E2.00000 F2400.00000
G1 F1800
G1 X90.229 Y88.637 E2.13629
G1 X90.577 Y88.364 E2.21837
G1 X90.898 Y88.139 E2.29127
G1 X91.529 Y87.760 E2.42777
G1 X92.000 Y87.526 E2.52539
G1 X95.696 Y85.838 E3.27934
G1 X96.379 Y85.576 E3.41514
G1 X96.755 Y85.462 E3.48800
G1 X97.521 Y85.290 E3.63378
G1 X98.350 Y85.192 E3.78869
G1 X99.140 Y85.180 E3.93517
G1 X99.920 Y85.247 E4.08052
G1 X103.995 Y85.831 E4.84444
G1 X104.382 Y85.902 E4.91740
G1 X105.093 Y86.086 E5.05379
G1 X105.877 Y86.375 E5.20873
G1 X106.235 Y86.539 E5.28187
G1 X106.879 Y86.893 E5.41811
G1 X107.567 Y87.365 E5.57306
G1 X111.003 Y90.322 E6.41432
G1 X111.563 Y90.874 E6.56028
G1 X112.034 Y91.437 E6.69644
G1 X112.264 Y91.756 E6.76935
G1 X112.697 Y92.467 E6.92380
G1 X113.035 Y93.178 E7.07007
G1 X113.301 Y93.920 E7.21621
G1 X114.468 Y97.892 E7.98446
G1 X114.640 Y98.660 E8.13050
G1 X114.731 Y99.388 E8.26669
G1 X114.751 Y99.781 E8.33964
G1 X114.730 Y100.615 E8.49456
G1 X114.639 Y101.345 E8.63107
G1 X114.551 Y101.779 E8.71320
G1 X113.331 Y105.988 E9.52640
G1 X113.186 Y106.437 E9.61394
G1 X112.885 Y107.162 E9.75962
G1 X112.514 Y107.854 E9.90535
G1 X112.075 Y108.505 E10.05111
G1 X111.575 Y109.110 E10.19679
G1 X110.979 Y109.695 E10.35173
G1 X107.851 Y112.408 E11.12010
G1 X107.543 Y112.654 E11.19323
G1 X106.938 Y113.070 E11.32945
G1 X106.207 Y113.473 E11.48439
G1 X105.849 Y113.635 E11.55727
G1 X105.160 Y113.890 E11.69374
G1 X104.352 Y114.101 E11.84870
G1 X103.887 Y114.182 E11.93625
G1 X99.548 Y114.795 E12.74940
G1 X98.763 Y114.824 E12.89522
G1 X97.930 Y114.768 E13.05012
G1 X97.154 Y114.635 E13.19625
G1 X96.446 Y114.443 E13.33235
G1 X96.075 Y114.313 E13.40527
G1 X95.588 Y114.109 E13.50325
G1 X91.589 Y112.273 E14.31979
G1 X90.872 Y111.844 E14.47489
G1 X90.283 Y111.406 E14.61116
G1 X89.985 Y111.150 E14.68404
G1 X89.395 Y110.558 E14.83908
G1 X88.931 Y109.988 E14.97548
G1 X88.706 Y109.666 E15.04833
G1 X86.465 Y106.184 E15.81673
G1 X86.080 Y105.500 E15.96245
G1 X85.747 Y104.736 E16.11703
G1 X85.508 Y103.984 E16.26346
G1 X85.355 Y103.267 E16.39959
G1 X85.300 Y102.878 E16.47245
G1 X85.249 Y102.094 E16.61820
G1 X85.258 Y97.584 E17.45524
G1 X85.296 Y97.141 E17.53780
G1 X85.413 Y96.416 E17.67393
G1 X85.628 Y95.607 E17.82931
G1 X85.885 Y94.921 E17.96538
G1 X86.049 Y94.563 E18.03829
G1 X86.429 Y93.876 E18.18401
G1 X88.694 Y90.346 E18.96223
G1 X89.127 Y89.754 E19.09849
G1 X89.634 Y89.186 E19.23974
G1 E17.23974 F2400.00000
G92 E0
G1 X102.172 Y102.283 F7800.000
G1 E2.00000 F2400.00000
G1 F1800
G1 X101.933 Y102.503 E2.06028
G1 X101.673 Y102.697 E2.12056
G1 X101.394 Y102.865 E2.18084
G1 X101.094 Y103.007 E2.24258
G1 X100.576 Y103.173 E2.34343
G1 X100.160 Y103.236 E2.42158
G1 X99.827 Y103.250 E2.48342
G1 X99.354 Y103.211 E2.57148
G1 X99.030 Y103.142 E2.63293
G1 X98.721 Y103.044 E2.69321
G1 X98.267 Y102.848 E2.78495
G1 X96.671 Y99.282 E3.50992
G1 X96.892 Y98.669 E3.63080
G1 X97.121 Y98.246 E3.72003
G1 X97.314 Y97.977 E3.78148
G1 X97.533 Y97.729 E3.84292
G1 X97.893 Y97.410 E3.93215
G1 X98.302 Y97.145 E4.02255
G1 X98.746 Y96.945 E4.11295
G1 X99.209 Y96.814 E4.20218
G1 X99.536 Y96.765 E4.26359
G1 X99.859 Y96.749 E4.32369
G1 X100.339 Y96.784 E4.41305
G1 X100.664 Y96.850 E4.47457
G1 X100.975 Y96.946 E4.53486
G1 X101.274 Y97.073 E4.59514
G1 X101.559 Y97.228 E4.65542
G1 X101.827 Y97.412 E4.71570
G1 X102.075 Y97.621 E4.77598
G1 X102.302 Y97.854 E4.83626
G1 X102.504 Y98.109 E4.89655
G1 X102.679 Y98.382 E4.95683
G1 X102.826 Y98.672 E5.01711
G1 X102.944 Y98.974 E5.07739
G1 X103.031 Y99.287 E5.13767
G1 X103.086 Y99.608 E5.19795
G1 X103.109 Y99.932 E5.25823
G1 X103.100 Y100.256 E5.31852
G1 X103.058 Y100.578 E5.37880
G1 X102.984 Y100.895 E5.43908
G1 X102.879 Y101.202 E5.49936
G1 X102.744 Y101.498 E5.55964
G1 X102.580 Y101.778 E5.61992
G1 X102.389 Y102.041 E5.68021
G1 X102.222 Y102.227 E5.72657
G1 X102.172 Y102.283 F7800.000
G1 E3.72657 F2400.00000
G92 E0
G1 X97.955 Y96.306 F7800.000
G1 E2.00000 F2400.00000
G1 F1800
G1 X97.351 Y96.697 E2.13346
G1 X96.899 Y97.097 E2.24550
G1 X96.466 Y97.590 E2.36731
G1 X96.078 Y97.341 E2.45277
G1 X96.242 Y96.974 E2.52734
G1 X96.347 Y96.507 E2.61622
G1 X96.358 Y95.964 E2.71693
G1 X96.919 Y96.032 E2.82174
G1 X97.476 Y95.973 E2.92570
G1 X97.749 Y95.880 E2.97909
G1 X97.922 Y96.239 E3.05305
G1 X98.316 Y96.138 F7800.000
G1 F1800
G1 X98.132 Y95.704 E3.14056
G1 X98.359 Y95.571 E3.18944
G1 X98.717 Y95.252 E3.27852
G1 X99.108 Y94.727 E3.39998
G1 X99.511 Y95.059 E3.49682
G1 X99.948 Y95.293 E3.58893
G1 X100.356 Y95.405 E3.66741
G1 X100.274 Y95.884 E3.75768
G1 X99.870 Y95.854 E3.83294
G1 X99.447 Y95.876 E3.91155
G1 X99.020 Y95.940 E3.99157
G1 X98.388 Y96.118 E4.11345
G1 E2.11345 F2400.00000
G92 E0
G1 X100.665 Y95.916 F7800.000
G1 E2.00000 F2400.00000
G1 F1800
G1 X100.745 Y95.452 E2.08729
G1 X101.006 Y95.463 E2.13575
G1 X101.560 Y95.360 E2.24035
G1 X102.074 Y95.138 E2.34425
G1 X102.238 Y95.655 E2.44503
G1 X102.480 Y96.089 E2.53717
G1 X102.751 Y96.391 E2.61243
G1 X102.438 Y96.748 E2.70065
G1 X102.026 Y96.467 E2.79317
G1 X101.663 Y96.268 E2.87003
G1 X101.281 Y96.107 E2.94688
G1 X100.736 Y95.938 E3.05274
G1 E1.05274 F2400.00000
G92 E0
G1 X102.727 Y97.011 F7800.000
G1 E2.00000 F2400.00000
G1 F1800
G1 X103.043 Y96.640 E2.09052
G1 X103.248 Y96.784 E2.13703
G1 X103.589 Y96.944 E2.20690
G1 X103.950 Y97.051 E2.27677
G1 X104.312 Y97.092 E2.34435
G1 X104.183 Y97.871 E2.49091
G1 X104.207 Y98.527 E2.61262
G1 X103.763 Y98.618 E2.69663
G1 X103.642 Y98.307 E2.75865
G1 X103.454 Y97.938 E2.83551
G1 X103.231 Y97.589 E2.91237
G1 X102.973 Y97.265 E2.98922
G1 X102.779 Y97.064 E3.04100
G1 E1.04100 F2400.00000
G92 E0
G1 X103.888 Y99.006 F7800.000
G1 E2.00000 F2400.00000
G1 F1800
G1 X104.336 Y98.866 E2.08703
G1 X104.514 Y99.250 E2.16550
G1 X104.799 Y99.635 E2.25438
G1 X105.197 Y99.996 E2.35412
G1 X104.798 Y100.358 E2.45414
G1 X104.515 Y100.744 E2.54298
G1 X104.348 Y101.104 E2.61665
G1 X103.906 Y100.976 E2.70195
G1 X103.991 Y100.327 E2.82342
G1 X104.003 Y99.913 E2.90028
G1 X103.973 Y99.500 E2.97714
G1 X103.901 Y99.080 E3.05614
G1 E1.05614 F2400.00000
G92 E0
G1 X103.781 Y101.377 F7800.000
G1 E2.00000 F2400.00000
G1 F1800
G1 X104.208 Y101.478 E2.08148
G1 X104.186 Y102.123 E2.20133
G1 X104.317 Y102.901 E2.34770
G1 X104.038 Y102.926 E2.39979
G1 X103.592 Y103.047 E2.48541
G1 X103.010 Y103.339 E2.60636
G1 X102.740 Y102.987 E2.68858
G1 X103.084 Y102.602 E2.78444
G1 X103.328 Y102.267 E2.86129
G1 X103.537 Y101.910 E2.93815
G1 X103.750 Y101.445 E3.03289
G1 E1.03289 F2400.00000
G92 E0
G1 X102.398 Y103.269 F7800.000
G1 E2.00000 F2400.00000
G1 F1800
G1 X102.725 Y103.636 E2.09116
G1 X102.546 Y103.825 E2.13950
G1 X102.283 Y104.250 E2.23223
G1 X102.075 Y104.856 E2.35101
G1 X101.562 Y104.635 E2.45472
G1 X101.011 Y104.534 E2.55865
G1 X100.738 Y104.546 E2.60930
G1 X100.656 Y104.085 E2.69619
G1 X101.423 Y103.839 E2.84558
G1 X101.817 Y103.652 E2.92648
G1 X102.171 Y103.439 E3.00334
G1 X102.338 Y103.314 E3.04193
G1 E1.04193 F2400.00000
G92 E0
G1 X100.244 Y104.126 F7800.000
G1 E2.00000 F2400.00000
G1 F1800
G1 X100.313 Y104.606 E2.08990
G1 X100.051 Y104.670 E2.13992
G1 X99.618 Y104.875 E2.22877
G1 X99.106 Y105.259 E2.34752
G1 X98.723 Y104.748 E2.46602
G1 X98.365 Y104.429 E2.55489
G1 X98.133 Y104.295 E2.60462
G1 X98.328 Y103.856 E2.69367
G1 X98.802 Y104.007 E2.78601
G1 X99.224 Y104.096 E2.86610
G1 X99.809 Y104.144 E2.97490
G1 X100.169 Y104.129 E3.04182
G1 E1.04182 F2400.00000
G92 E0
G1 X97.643 Y104.053 F7800.000
G1 E2.00000 F2400.00000
G1 F1800
G1 X97.005 Y103.971 E2.11942
G1 X96.364 Y104.034 E2.23903
G1 X96.352 Y103.496 E2.33877
G1 X96.243 Y103.012 E2.43091
G1 X95.999 Y102.504 E2.53553
G1 X95.690 Y102.115 E2.62767
G1 X95.323 Y101.807 E2.71655
G1 X94.743 Y101.490 E2.83922
G1 X95.017 Y101.043 E2.93649
G1 X95.187 Y100.577 E3.02860
G1 X95.256 Y100.034 E3.13015
G1 X95.224 Y99.621 E3.20709
G1 X95.115 Y99.194 E3.28875
G1 X94.953 Y98.836 E3.36173
G1 X94.736 Y98.518 E3.43308
G1 X95.340 Y98.187 E3.56084
G1 X95.908 Y97.682 E3.70186
G1 X96.260 Y97.962 E3.78531
G1 X96.075 Y98.303 E3.85736
G1 X95.709 Y99.318 E4.05754
G1 X97.594 Y103.530 E4.91383
G1 X97.766 Y103.604 E4.94875
G1 X97.663 Y103.981 E5.02119
G1 E3.02119 F2400.00000
G92 E0
G1 X95.349 Y105.785 F7800.000
G1 E2.00000 F2400.00000
G1 F1800
G1 X95.191 Y105.783 E2.02926
G1 X95.083 Y105.751 E2.05022
G1 X94.950 Y105.667 E2.07941
G1 X94.833 Y105.522 E2.11393
G1 X94.781 Y105.326 E2.15160
G1 X94.784 Y105.227 E2.16995
G1 X94.849 Y105.041 E2.20646
G1 X95.175 Y104.686 E2.29596
G1 X95.306 Y104.473 E2.34225
G1 X95.415 Y104.200 E2.39673
G1 X95.468 Y103.905 E2.45237
G1 X95.461 Y103.606 E2.50802
G1 X95.394 Y103.307 E2.56484
G1 X95.237 Y102.980 E2.63205
G1 X95.047 Y102.741 E2.68887
G1 X94.817 Y102.548 E2.74451
G1 X94.549 Y102.401 E2.80133
G1 X94.206 Y102.304 E2.86737
G1 X93.963 Y102.286 E2.91261
G1 X93.659 Y102.317 E2.96931
G1 X93.306 Y102.445 E3.03902
G1 X93.102 Y102.469 E3.07714
G1 X92.975 Y102.442 E3.10116
G1 X92.865 Y102.387 E3.12400
G1 X92.716 Y102.232 E3.16380
G1 X92.662 Y102.108 E3.18899
G1 X92.651 Y101.894 E3.22878
G1 X92.686 Y101.776 E3.25163
G1 X92.749 Y101.670 E3.27447
G1 X92.840 Y101.578 E3.29849
G1 X93.025 Y101.488 E3.33660
G1 X93.385 Y101.406 E3.40512
G1 X93.610 Y101.299 E3.45140
G1 X93.848 Y101.128 E3.50586
G1 X94.053 Y100.909 E3.56149
G1 X94.209 Y100.653 E3.61713
G1 X94.314 Y100.365 E3.67393
G1 X94.359 Y100.012 E3.74002
G1 X94.340 Y99.766 E3.78576
G1 X94.270 Y99.491 E3.83851
G1 X94.172 Y99.275 E3.88252
G1 X94.006 Y99.032 E3.93698
G1 X93.792 Y98.823 E3.99262
G1 X93.539 Y98.661 E4.04825
G1 X93.265 Y98.554 E4.10285
G1 X92.946 Y98.491 E4.16323
G1 X92.818 Y98.415 E4.19095
G1 X92.745 Y98.339 E4.21039
G1 X92.696 Y98.261 E4.22763
G1 X92.642 Y98.053 E4.26745
G1 X92.663 Y97.895 E4.29708
G1 X92.727 Y97.757 E4.32517
G1 X92.800 Y97.672 E4.34608
G1 X92.932 Y97.583 E4.37566
G1 X93.043 Y97.547 E4.39734
G1 X93.261 Y97.552 E4.43773
G1 X93.524 Y97.653 E4.49004
G1 X93.748 Y97.704 E4.53267
G1 X94.035 Y97.719 E4.58598
G1 X94.271 Y97.689 E4.63005
G1 X94.551 Y97.602 E4.68460
G1 X94.822 Y97.453 E4.74192
G1 X95.091 Y97.214 E4.80860
G1 X95.268 Y96.965 E4.86537
G1 X95.391 Y96.692 E4.92102
G1 X95.456 Y96.399 E4.97666
G1 X95.463 Y96.099 E5.03231
G1 X95.410 Y95.810 E5.08679
G1 X95.328 Y95.588 E5.13086
G1 X95.174 Y95.324 E5.18756
G1 X94.843 Y94.964 E5.27823
G1 X94.775 Y94.748 E5.32035
G1 X94.806 Y94.536 E5.36014
G1 X94.863 Y94.427 E5.38299
G1 X95.020 Y94.281 E5.42278
G1 X95.139 Y94.231 E5.44680
G1 X95.261 Y94.214 E5.46965
G1 X95.384 Y94.227 E5.49254
G1 X95.503 Y94.271 E5.51618
G1 X95.664 Y94.402 E5.55462
G1 X95.888 Y94.696 E5.62316
G1 X96.079 Y94.856 E5.66945
G1 X96.334 Y95.002 E5.72393
G1 X96.619 Y95.097 E5.77965
G1 X96.926 Y95.133 E5.83697
G1 X97.283 Y95.096 E5.90365
G1 X97.572 Y94.997 E5.96042
G1 X97.831 Y94.846 E6.01607
G1 X98.055 Y94.646 E6.07179
G1 X98.240 Y94.398 E6.12911
G1 X98.383 Y94.075 E6.19461
G1 X98.435 Y93.837 E6.23980
G1 X98.448 Y93.534 E6.29613
G1 X98.368 Y93.129 E6.37273
G1 X98.366 Y93.032 E6.39074
G1 X98.393 Y92.906 E6.41477
G1 X98.447 Y92.795 E6.43762
G1 X98.527 Y92.702 E6.46047
G1 X98.628 Y92.630 E6.48332
G1 X98.737 Y92.588 E6.50505
G1 X98.900 Y92.573 E6.53549
G1 X98.988 Y92.587 E6.55192
G1 X99.164 Y92.673 E6.58837
G1 X99.236 Y92.741 E6.60672
G1 X99.294 Y92.821 E6.62507
G1 X99.353 Y92.998 E6.65970
G1 X99.350 Y93.181 E6.69370
G1 X99.386 Y93.410 E6.73659
G1 X99.455 Y93.630 E6.77948
G1 X99.591 Y93.890 E6.83394
G1 X99.779 Y94.123 E6.88957
G1 X100.010 Y94.314 E6.94520
G1 X100.280 Y94.459 E7.00201
G1 X100.630 Y94.554 E7.06920
G1 X100.942 Y94.567 E7.12717
G1 X101.298 Y94.501 E7.19436
G1 X101.579 Y94.379 E7.25116
G1 X101.820 Y94.211 E7.30570
G1 X101.990 Y94.041 E7.35027
G1 X102.164 Y93.794 E7.40642
G1 X102.298 Y93.443 E7.47606
G1 X102.413 Y93.273 E7.51418
G1 X102.516 Y93.196 E7.53819
G1 X102.721 Y93.131 E7.57799
G1 X102.850 Y93.138 E7.60201
G1 X103.048 Y93.220 E7.64180
G1 X103.143 Y93.309 E7.66582
G1 X103.210 Y93.412 E7.68866
G1 X103.259 Y93.621 E7.72846
G1 X103.242 Y93.756 E7.75365
G1 X103.205 Y93.857 E7.77360
G1 X103.032 Y94.183 E7.84214
G1 X102.966 Y94.423 E7.88843
G1 X102.939 Y94.715 E7.94290
G1 X102.971 Y95.014 E7.99855
G1 X103.062 Y95.299 E8.05420
G1 X103.211 Y95.567 E8.11102
G1 X103.453 Y95.836 E8.17822
G1 X103.698 Y96.009 E8.23387
G1 X103.907 Y96.107 E8.27678
G1 X104.129 Y96.173 E8.31968
G1 X104.421 Y96.206 E8.37415
G1 X104.720 Y96.180 E8.42980
G1 X105.007 Y96.095 E8.48545
G1 X105.261 Y95.961 E8.53874
G1 X105.546 Y95.751 E8.60453
G1 X105.676 Y95.718 E8.62940
G1 X105.775 Y95.714 E8.64775
G1 X105.960 Y95.761 E8.68310
G1 X106.068 Y95.831 E8.70712
G1 X106.148 Y95.917 E8.72879
G1 X106.217 Y96.054 E8.75726
G1 X106.243 Y96.198 E8.78455
G1 X106.224 Y96.351 E8.81302
G1 X106.178 Y96.458 E8.83470
G1 X106.032 Y96.619 E8.87508
G1 X105.783 Y96.751 E8.92739
G1 X105.602 Y96.883 E8.96885
G1 X105.438 Y97.046 E9.01175
G1 X105.266 Y97.291 E9.06740
G1 X105.128 Y97.627 E9.13461
G1 X105.078 Y97.929 E9.19143
G1 X105.089 Y98.228 E9.24708
G1 X105.159 Y98.520 E9.30272
G1 X105.286 Y98.792 E9.35837
G1 X105.464 Y99.033 E9.41402
G1 X105.686 Y99.234 E9.46966
G1 X105.939 Y99.384 E9.52422
G1 X106.164 Y99.468 E9.56879
G1 X106.462 Y99.524 E9.62496
G1 X106.836 Y99.501 E9.69463
G1 X107.039 Y99.535 E9.73275
G1 X107.152 Y99.597 E9.75677
G1 X107.243 Y99.681 E9.77962
G1 X107.309 Y99.785 E9.80252
G1 X107.350 Y99.906 E9.82616
G1 X107.343 Y100.122 E9.86629
G1 X107.296 Y100.242 E9.89031
G1 X107.148 Y100.406 E9.93128
G1 X106.943 Y100.490 E9.97225
G1 X106.861 Y100.496 E9.98753
G1 X106.680 Y100.466 E10.02153
G1 X106.443 Y100.469 E10.06558
G1 X106.161 Y100.523 E10.11888
G1 X105.939 Y100.607 E10.16293
G1 X105.687 Y100.757 E10.21740
G1 X105.465 Y100.959 E10.27303
G1 X105.287 Y101.200 E10.32866
G1 X105.161 Y101.472 E10.38429
G1 X105.092 Y101.764 E10.43992
G1 X105.081 Y102.064 E10.49563
G1 X105.133 Y102.368 E10.55294
G1 X105.267 Y102.695 E10.61842
G1 X105.403 Y102.897 E10.66360
G1 X105.602 Y103.104 E10.71689
G1 X105.787 Y103.239 E10.75951
G1 X106.036 Y103.371 E10.81180
G1 X106.183 Y103.532 E10.85219
G1 X106.231 Y103.645 E10.87504
G1 X106.249 Y103.761 E10.89671
G1 X106.230 Y103.913 E10.92518
G1 X106.170 Y104.047 E10.95247
G1 X106.068 Y104.163 E10.98099
G1 X105.967 Y104.229 E11.00345
G1 X105.781 Y104.277 E11.03914
G1 X105.676 Y104.272 E11.05865
G1 X105.528 Y104.223 E11.08754
G1 X105.267 Y104.030 E11.14784
G1 X105.012 Y103.896 E11.20114
G1 X104.725 Y103.812 E11.25678
G1 X104.432 Y103.787 E11.31126
G1 X104.196 Y103.808 E11.35533
G1 X103.912 Y103.885 E11.40981
G1 X103.650 Y104.017 E11.46428
G1 X103.459 Y104.159 E11.50835
G1 X103.258 Y104.372 E11.56290
G1 X103.095 Y104.635 E11.62023
G1 X102.978 Y104.975 E11.68690
G1 X102.946 Y105.273 E11.74250
G1 X102.963 Y105.510 E11.78657
G1 X103.036 Y105.806 E11.84328
G1 X103.250 Y106.239 E11.93279
G1 X103.259 Y106.459 E11.97375
G1 X103.218 Y106.582 E11.99782
G1 X103.150 Y106.690 E12.02145
G1 X102.977 Y106.819 E12.06157
G1 X102.859 Y106.856 E12.08442
G1 X102.645 Y106.849 E12.12421
G1 X102.525 Y106.799 E12.14828
G1 X102.423 Y106.723 E12.17191
G1 X102.306 Y106.552 E12.21036
G1 X102.174 Y106.208 E12.27887
G1 X102.035 Y106.000 E12.32515
G1 X101.832 Y105.788 E12.37961
G1 X101.586 Y105.617 E12.43532
G1 X101.302 Y105.495 E12.49263
G1 X100.949 Y105.430 E12.55928
G1 X100.643 Y105.443 E12.61604
G1 X100.352 Y105.515 E12.67167
G1 X100.081 Y105.644 E12.72730
G1 X99.836 Y105.827 E12.78411
G1 X99.606 Y106.098 E12.85012
G1 X99.488 Y106.312 E12.89535
G1 X99.393 Y106.589 E12.94981
G1 X99.356 Y106.881 E13.00428
