; generated by Slic3r 1.3.0 on 2019-12-11 at 21:03:59

; external perimeters extrusion width = 0.55mm (4.37mm^3/s)
; perimeters extrusion width = 0.70mm (11.44mm^3/s)
; infill extrusion width = 0.63mm (13.45mm^3/s)
; solid infill extrusion width = 0.70mm (3.81mm^3/s)
; top infill extrusion width = 0.70mm (2.86mm^3/s)

M107
M190 S65 ; set bed temperature and wait for it to be reached
M104 S205 ; set temperature
G28 ; home all axes
G1 Z5 F5000 ; lift nozzle

; Filament gcode

M109 S205 ; set temperature and wait for it to be reached
G21 ; set units to millimeters
G90 ; use absolute coordinates
M82 ; use absolute distances for extrusion
G92 E0
G1 Z0.500 F7800.000
G1 E-2.00000 F2400.00000
G92 E0
G1 X83.718 Y82.584 F7800.000
G1 E2.00000 F2400.00000
G1 F1800
G1 X84.284 Y82.050 E2.14428
G1 X84.860 Y81.602 E2.27976
G1 X88.108 Y79.359 E3.01219
G1 X88.652 Y79.017 E3.13150
G1 X88.994 Y78.831 E3.20371
G1 X89.704 Y78.513 E3.34808
G1 X93.394 Y77.113 E4.08047
G1 X94.004 Y76.910 E4.19979
G1 X94.428 Y76.802 E4.28092
G1 X95.146 Y76.673 E4.41632
G1 X99.058 Y76.197 E5.14766
G1 X99.655 Y76.148 E5.25889
G1 X100.042 Y76.141 E5.33070
G1 X100.863 Y76.188 E5.48333
G1 X104.780 Y76.663 E6.21549
G1 X105.390 Y76.762 E6.33007
G1 X105.770 Y76.849 E6.40248
G1 X106.560 Y77.096 E6.55612
G1 X110.466 Y78.581 E7.33142
G1 X111.168 Y78.916 E7.47580
G1 X111.833 Y79.319 E7.62011
G1 X115.082 Y81.560 E8.35252
G1 X115.595 Y81.948 E8.47189
G1 X115.889 Y82.202 E8.54403
G1 X116.439 Y82.752 E8.68835
G1 X119.057 Y85.706 E9.42080
G1 X119.462 Y86.205 E9.54013
G1 X119.714 Y86.562 E9.62123
G1 X120.089 Y87.188 E9.75668
G1 X121.924 Y90.683 E10.48909
G1 X122.198 Y91.264 E10.60837
G1 X122.341 Y91.627 E10.68067
G1 X122.595 Y92.461 E10.84259
G1 X123.520 Y96.214 E11.55970
G1 X123.667 Y96.983 E11.70503
G1 X123.712 Y97.375 E11.77832
G1 X123.743 Y98.053 E11.90430
G1 X123.743 Y101.927 E12.62305
G1 X123.721 Y102.507 E12.73083
G1 X123.683 Y102.897 E12.80349
G1 X123.616 Y103.331 E12.88510
G1 X123.513 Y103.814 E12.97668
G1 X122.512 Y107.850 E13.74833
G1 X122.276 Y108.544 E13.88444
G1 X121.956 Y109.254 E14.02882
G1 X120.123 Y112.749 E14.76116
G1 X119.801 Y113.304 E14.88043
G1 X119.584 Y113.627 E14.95263
G1 X119.041 Y114.311 E15.11459
G1 X116.487 Y117.195 E15.82942
G1 X116.006 Y117.690 E15.95759
G1 X115.716 Y117.950 E16.02987
G1 X115.140 Y118.398 E16.16527
G1 X111.680 Y120.782 E16.94488
G1 X110.963 Y121.190 E17.09808
G1 X110.251 Y121.504 E17.24246
G1 X106.606 Y122.887 E17.96595
G1 X105.995 Y123.090 E18.08534
G1 X105.573 Y123.198 E18.16627
G1 X104.854 Y123.327 E18.30177
G1 X100.942 Y123.803 E19.03314
G1 X100.345 Y123.852 E19.14432
G1 X99.910 Y123.859 E19.22496
G1 X99.130 Y123.811 E19.36996
G1 X95.220 Y123.337 E20.10098
G1 X94.611 Y123.238 E20.21549
G1 X94.230 Y123.151 E20.28798
G1 X93.440 Y122.904 E20.44146
G1 X89.534 Y121.419 E21.21692
G1 X88.833 Y121.084 E21.36122
G1 X88.167 Y120.681 E21.50559
G1 X84.918 Y118.440 E22.23801
G1 X84.405 Y118.052 E22.35733
G1 X84.111 Y117.798 E22.42954
G1 X83.561 Y117.247 E22.57390
G1 X80.943 Y114.294 E23.30629
G1 X80.538 Y113.795 E23.42561
G1 X80.286 Y113.438 E23.50667
G1 X79.911 Y112.811 E23.64220
G1 X78.076 Y109.317 E24.37458
G1 X77.802 Y108.736 E24.49385
G1 X77.659 Y108.374 E24.56611
G1 X77.405 Y107.539 E24.72808
G1 X76.480 Y103.786 E25.44537
G1 X76.333 Y103.016 E25.59082
G1 X76.289 Y102.628 E25.66315
G1 X76.257 Y101.947 E25.78979
G1 X76.257 Y98.073 E26.50854
G1 X76.279 Y97.493 E26.61643
G1 X76.317 Y97.104 E26.68895
G1 X76.464 Y96.285 E26.84329
G1 X77.475 Y92.193 E27.62549
G1 X77.724 Y91.456 E27.76982
G1 X77.895 Y91.053 E27.85097
G1 X79.877 Y87.251 E28.64661
G1 X80.199 Y86.695 E28.76592
G1 X80.416 Y86.372 E28.83813
G1 X80.897 Y85.760 E28.98251
G1 X83.667 Y82.638 E29.75706
G1 E27.75706 F2400.00000
G92 E0
G1 X108.820 Y109.901 F7800.000
G1 E2.00000 F2400.00000
G1 F1800
G1 X107.936 Y110.126 E2.16939
G1 X107.310 Y110.445 E2.29966
G1 X106.733 Y110.925 E2.43903
G1 X106.322 Y111.463 E2.56467
G1 X106.181 Y111.752 E2.62438
G1 X105.549 Y111.709 E2.74193
G1 X104.807 Y111.825 E2.88131
G1 X104.180 Y112.075 E3.00653
G1 X103.638 Y112.427 E3.12644
G1 X103.163 Y112.892 E3.24982
G1 X102.899 Y112.777 E3.30330
G1 X102.160 Y112.639 E3.44269
G1 X101.457 Y112.665 E3.57323
G1 X100.732 Y112.859 E3.71260
G1 X100.160 Y113.159 E3.83252
G1 X100.010 Y113.275 E3.86758
G1 X99.697 Y113.055 E3.93860
G1 X99.207 Y112.826 E4.03894
G1 X98.584 Y112.657 E4.15874
G1 X97.834 Y112.626 E4.29798
G1 X97.143 Y112.753 E4.42839
G1 X96.828 Y112.888 E4.49200
G1 X96.410 Y112.465 E4.60230
G1 X95.873 Y112.102 E4.72261
G1 X95.246 Y111.841 E4.84866
G1 X94.483 Y111.709 E4.99240
G1 X93.825 Y111.758 E5.11491
G1 X93.710 Y111.513 E5.16509
G1 X93.310 Y110.970 E5.29032
G1 X92.741 Y110.479 E5.42969
G1 X92.145 Y110.162 E5.55491
G1 X91.524 Y109.976 E5.67523
G1 X91.204 Y109.947 E5.73494
G1 X91.028 Y109.368 E5.84718
G1 X90.722 Y108.799 E5.96709
G1 X90.292 Y108.279 E6.09231
G1 X89.695 Y107.820 E6.23210
G1 X89.068 Y107.531 E6.36034
G1 X89.081 Y107.242 E6.41399
G1 X88.949 Y106.502 E6.55337
G1 X88.685 Y105.879 E6.67900
G1 X88.302 Y105.318 E6.80504
G1 X87.612 Y104.679 E6.97959
G1 X87.716 Y103.935 E7.11889
G1 X87.653 Y103.185 E7.25867
G1 X87.438 Y102.510 E7.39003
G1 X87.060 Y101.867 E7.52845
G1 X86.828 Y101.620 E7.59138
G1 X87.110 Y100.999 E7.71781
G1 X87.251 Y100.311 E7.84822
G1 X87.237 Y99.561 E7.98746
G1 X87.075 Y98.906 E8.11256
G1 X86.828 Y98.384 E8.21977
G1 X86.989 Y98.226 E8.26160
G1 X87.370 Y97.635 E8.39214
G1 X87.628 Y96.929 E8.53152
G1 X87.716 Y96.232 E8.66206
G1 X87.644 Y95.484 E8.80144
G1 X87.583 Y95.301 E8.83726
G1 X88.059 Y94.934 E8.94869
G1 X88.501 Y94.425 E9.07391
G1 X88.856 Y93.763 E9.21329
G1 X89.036 Y93.112 E9.33851
G1 X89.083 Y92.445 E9.46255
G1 X89.451 Y92.314 E9.53514
G1 X90.022 Y91.954 E9.66036
G1 X90.510 Y91.488 E9.78558
G1 X90.910 Y90.883 E9.92008
G1 X91.125 Y90.351 E10.02663
G1 X91.189 Y90.057 E10.08252
G1 X91.467 Y90.036 E10.13438
G1 X92.088 Y89.862 E10.25403
G1 X92.690 Y89.555 E10.37926
G1 X93.267 Y89.075 E10.51863
G1 X93.694 Y88.516 E10.64917
G1 X93.817 Y88.248 E10.70398
G1 X94.423 Y88.289 E10.81651
G1 X95.065 Y88.205 E10.93683
G1 X95.708 Y87.984 E11.06287
G1 X96.352 Y87.587 E11.20329
G1 X96.833 Y87.106 E11.32951
G1 X97.073 Y87.217 E11.37859
G1 X97.840 Y87.361 E11.52330
G1 X98.514 Y87.336 E11.64852
G1 X99.170 Y87.178 E11.77375
G1 X99.843 Y86.846 E11.91313
G1 X99.990 Y86.727 E11.94816
G1 X100.213 Y86.891 E11.99969
G1 X100.766 Y87.167 E12.11418
G1 X101.416 Y87.343 E12.23928
G1 X102.166 Y87.374 E12.37852
G1 X102.857 Y87.247 E12.50893
G1 X103.172 Y87.112 E12.57254
G1 X103.590 Y87.535 E12.68284
G1 X104.127 Y87.898 E12.80315
G1 X104.754 Y88.159 E12.92920
G1 X105.517 Y88.291 E13.07294
G1 X106.176 Y88.242 E13.19552
G1 X106.274 Y88.465 E13.24074
G1 X106.690 Y89.030 E13.37101
G1 X107.259 Y89.521 E13.51039
G1 X107.855 Y89.838 E13.63561
G1 X108.501 Y90.031 E13.76084
G1 X108.796 Y90.051 E13.81564
G1 X108.972 Y90.632 E13.92818
G1 X109.279 Y91.203 E14.04850
G1 X109.713 Y91.725 E14.17454
G1 X110.304 Y92.180 E14.31295
G1 X110.932 Y92.470 E14.44141
G1 X110.914 Y92.731 E14.48996
G1 X111.051 Y93.498 E14.63440
G1 X111.314 Y94.119 E14.75963
G1 X111.694 Y94.677 E14.88485
G1 X112.387 Y95.322 E15.06056
G1 X112.284 Y96.072 E15.20103
G1 X112.347 Y96.815 E15.33944
G1 X112.559 Y97.484 E15.46971
G1 X112.939 Y98.132 E15.60909
G1 X113.172 Y98.380 E15.67228
G1 X112.889 Y99.003 E15.79913
G1 X112.748 Y99.696 E15.93036
G1 X112.764 Y100.441 E16.06864
G1 X112.925 Y101.094 E16.19347
G1 X113.172 Y101.616 E16.30068
G1 X113.009 Y101.775 E16.34292
G1 X112.627 Y102.371 E16.47428
G1 X112.372 Y103.072 E16.61269
G1 X112.287 Y103.742 E16.73805
G1 X112.337 Y104.420 E16.86410
G1 X112.424 Y104.706 E16.91967
G1 X112.034 Y104.971 E17.00711
G1 X111.507 Y105.561 E17.15401
G1 X111.144 Y106.237 E17.29651
G1 X110.964 Y106.888 E17.42174
G1 X110.917 Y107.551 E17.54518
G1 X110.638 Y107.644 E17.59987
G1 X109.996 Y108.029 E17.73869
G1 X109.486 Y108.518 E17.86978
G1 X109.090 Y109.118 E18.00331
G1 X108.875 Y109.649 E18.10959
G1 X108.836 Y109.827 E18.14346
G1 X109.629 Y110.881 F7800.000
G1 F1800
G1 X109.272 Y110.818 E18.21073
G1 X108.782 Y110.832 E18.30163
G1 X108.253 Y110.966 E18.40309
G1 X107.805 Y111.195 E18.49634
G1 X107.381 Y111.547 E18.59861
G1 X107.085 Y111.934 E18.68904
G1 X106.871 Y112.375 E18.77994
G1 X106.764 Y112.828 E18.86638
G1 X106.073 Y112.640 E18.99935
G1 X105.588 Y112.607 E19.08954
G1 X105.044 Y112.692 E19.19180
G1 X104.592 Y112.871 E19.28198
G1 X104.199 Y113.127 E19.36893
G1 X103.865 Y113.455 E19.45587
G1 X103.436 Y114.084 E19.59722
G1 X103.097 Y113.836 E19.67508
G1 X102.636 Y113.636 E19.76850
G1 X102.094 Y113.535 E19.87077
G1 X101.591 Y113.553 E19.96419
G1 X101.058 Y113.695 E20.06645
G1 X100.644 Y113.913 E20.15340
G1 X100.352 Y114.139 E20.22180
G1 X100.007 Y114.498 E20.31422
G1 X99.617 Y114.089 E20.41899
G1 X99.248 Y113.831 E20.50263
G1 X98.899 Y113.667 E20.57418
G1 X98.447 Y113.545 E20.66104
G1 X97.897 Y113.522 E20.76320
G1 X97.402 Y113.613 E20.85653
G1 X96.880 Y113.837 E20.96194
G1 X96.556 Y114.084 E21.03762
G1 X96.166 Y113.488 E21.16981
G1 X95.837 Y113.155 E21.25675
G1 X95.448 Y112.892 E21.34394
G1 X94.995 Y112.703 E21.43484
G1 X94.439 Y112.607 E21.53955
G1 X93.873 Y112.649 E21.64490
G1 X93.239 Y112.844 E21.76807
G1 X93.145 Y112.412 E21.85026
G1 X92.939 Y111.971 E21.94044
G1 X92.651 Y111.580 E22.03063
G1 X92.233 Y111.220 E22.13289
G1 X91.804 Y110.992 E22.22307
G1 X91.354 Y110.857 E22.31027
G1 X90.866 Y110.813 E22.40117
G1 X90.405 Y110.874 E22.48761
G1 X90.336 Y110.161 E22.62058
G1 X90.200 Y109.713 E22.70753
G1 X89.978 Y109.300 E22.79447
G1 X89.668 Y108.925 E22.88465
G1 X89.231 Y108.588 E22.98717
G1 X88.770 Y108.376 E23.08131
G1 X88.046 Y108.223 E23.21866
G1 X88.161 Y107.803 E23.29939
G1 X88.185 Y107.300 E23.39282
G1 X88.088 Y106.758 E23.49508
G1 X87.898 Y106.309 E23.58551
G1 X87.621 Y105.905 E23.67641
G1 X87.208 Y105.521 E23.78111
G1 X86.710 Y105.248 E23.88646
G1 X86.402 Y105.160 E23.94590
G1 X86.596 Y104.834 E24.01636
G1 X86.751 Y104.392 E24.10331
G1 X86.818 Y103.910 E24.19349
G1 X86.772 Y103.360 E24.29600
G1 X86.618 Y102.877 E24.39014
G1 X86.341 Y102.405 E24.49160
G1 X85.997 Y102.039 E24.58486
G1 X85.608 Y101.776 E24.67194
G1 X86.028 Y101.223 E24.80079
G1 X86.255 Y100.721 E24.90295
G1 X86.357 Y100.229 E24.99628
G1 X86.346 Y99.678 E25.09844
G1 X86.229 Y99.207 E25.18854
G1 X86.030 Y98.784 E25.27539
G1 X85.612 Y98.221 E25.40547
G1 X85.899 Y98.044 E25.46817
G1 X86.293 Y97.658 E25.57043
G1 X86.566 Y97.235 E25.66385
G1 X86.755 Y96.718 E25.76612
G1 X86.818 Y96.218 E25.85954
G1 X86.765 Y95.670 E25.96180
G1 X86.612 Y95.208 E26.05199
G1 X86.428 Y94.886 E26.12091
G1 X87.072 Y94.568 E26.25414
G1 X87.443 Y94.281 E26.34109
G1 X87.762 Y93.915 E26.43127
G1 X88.022 Y93.429 E26.53353
G1 X88.151 Y92.960 E26.62372
G1 X88.185 Y92.493 E26.71066
G1 X88.088 Y91.738 E26.85201
G1 X88.523 Y91.697 E26.93312
G1 X89.059 Y91.507 E27.03863
G1 X89.469 Y91.247 E27.12881
G1 X89.821 Y90.911 E27.21900
G1 X90.116 Y90.465 E27.31828
G1 X90.269 Y90.088 E27.39384
G1 X90.359 Y89.668 E27.47351
G1 X90.380 Y89.139 E27.57181
G1 X90.866 Y89.186 E27.66244
G1 X91.312 Y89.152 E27.74533
G1 X91.762 Y89.026 E27.83212
G1 X92.195 Y88.805 E27.92230
G1 X92.619 Y88.453 E28.02456
G1 X92.925 Y88.053 E28.11799
G1 X93.154 Y87.552 E28.22025
G1 X93.234 Y87.172 E28.29242
G1 X93.927 Y87.360 E28.42565
G1 X94.395 Y87.392 E28.51259
G1 X94.860 Y87.331 E28.59979
G1 X95.324 Y87.172 E28.69068
G1 X95.795 Y86.881 E28.79336
G1 X96.177 Y86.500 E28.89353
G1 X96.548 Y85.903 E29.02402
G1 X96.831 Y86.122 E29.09050
G1 X97.347 Y86.360 E29.19601
G1 X97.906 Y86.465 E29.30152
G1 X98.392 Y86.447 E29.39170
G1 X98.864 Y86.334 E29.48189
G1 X99.358 Y86.090 E29.58415
G1 X99.749 Y85.772 E29.67757
G1 X99.976 Y85.484 E29.74561
G1 X100.371 Y85.898 E29.85187
G1 X100.681 Y86.127 E29.92341
G1 X101.084 Y86.328 E30.00704
G1 X101.553 Y86.455 E30.09714
G1 X102.103 Y86.478 E30.19930
G1 X102.598 Y86.387 E30.29263
G1 X103.120 Y86.163 E30.39804
G1 X103.444 Y85.916 E30.47372
G1 X103.834 Y86.512 E30.60591
G1 X104.163 Y86.845 E30.69285
G1 X104.552 Y87.108 E30.78004
G1 X105.005 Y87.297 E30.87094
G1 X105.561 Y87.393 E30.97565
G1 X106.127 Y87.351 E31.08100
G1 X106.762 Y87.155 E31.20431
G1 X106.831 Y87.515 E31.27222
G1 X107.051 Y88.015 E31.37368
G1 X107.349 Y88.420 E31.46694
G1 X107.767 Y88.780 E31.56920
G1 X108.196 Y89.008 E31.65939
G1 X108.661 Y89.148 E31.74957
G1 X109.211 Y89.185 E31.85183
G1 X109.595 Y89.125 E31.92400
G1 X109.664 Y89.839 E32.05723
G1 X109.800 Y90.287 E32.14417
G1 X110.023 Y90.701 E32.23137
G1 X110.336 Y91.078 E32.32227
G1 X110.769 Y91.411 E32.42372
G1 X111.225 Y91.622 E32.51698
G1 X111.955 Y91.778 E32.65540
G1 X111.852 Y92.120 E32.72177
G1 X111.812 Y92.683 E32.82648
G1 X111.912 Y93.242 E32.93182
G1 X112.101 Y93.690 E33.02201
G1 X112.375 Y94.091 E33.11219
G1 X112.791 Y94.479 E33.21770
G1 X113.290 Y94.752 E33.32321
G1 X113.598 Y94.840 E33.38265
G1 X113.404 Y95.166 E33.45311
G1 X113.249 Y95.610 E33.54031
G1 X113.182 Y96.095 E33.63121
G1 X113.228 Y96.640 E33.73266
G1 X113.380 Y97.119 E33.82592
G1 X113.659 Y97.594 E33.92819
G1 X114.003 Y97.961 E34.02161
G1 X114.392 Y98.224 E34.10868
G1 X113.972 Y98.777 E34.23754
G1 X113.744 Y99.280 E34.33995
G1 X113.643 Y99.776 E34.43399
G1 X113.654 Y100.322 E34.53535
G1 X113.771 Y100.793 E34.62528
G1 X113.970 Y101.216 E34.71214
G1 X114.388 Y101.779 E34.84222
G1 X114.101 Y101.956 E34.90492
G1 X113.706 Y102.343 E35.00743
G1 X113.432 Y102.769 E35.10157
G1 X113.245 Y103.283 E35.20303
G1 X113.184 Y103.766 E35.29329
G1 X113.220 Y104.254 E35.38419
G1 X113.379 Y104.777 E35.48566
G1 X113.576 Y105.122 E35.55937
G1 X113.022 Y105.379 E35.67278
G1 X112.627 Y105.648 E35.76137
G1 X112.243 Y106.076 E35.86814
G1 X111.978 Y106.571 E35.97231
G1 X111.849 Y107.040 E36.06249
G1 X111.815 Y107.507 E36.14944
G1 X111.912 Y108.262 E36.29079
G1 X111.493 Y108.302 E36.36890
G1 X111.012 Y108.460 E36.46304
G1 X110.542 Y108.742 E36.56474
G1 X110.176 Y109.093 E36.65872
G1 X109.884 Y109.536 E36.75720
G1 X109.731 Y109.912 E36.83260
G1 X109.637 Y110.349 E36.91550
G1 X109.630 Y110.806 E37.00027
G1 X110.922 Y112.320 F7800.000
G1 F1800
G1 X110.771 Y112.410 E37.03292
G1 X110.647 Y112.437 E37.05646
G1 X110.478 Y112.419 E37.08804
G1 X110.291 Y112.311 E37.12817
G1 X110.116 Y112.120 E37.17623
G1 X109.946 Y111.979 E37.21723
G1 X109.704 Y111.841 E37.26889
G1 X109.487 Y111.762 E37.31169
G1 X109.206 Y111.713 E37.36461
G1 X108.906 Y111.721 E37.42036
G1 X108.569 Y111.807 E37.48486
G1 X108.299 Y111.945 E37.54111
G1 X108.029 Y112.169 E37.60626
G1 X107.849 Y112.406 E37.66149
G1 X107.717 Y112.676 E37.71724
G1 X107.638 Y113.014 E37.78175
G1 X107.635 Y113.311 E37.83683
G1 X107.692 Y113.606 E37.89266
G1 X107.869 Y113.997 E37.97225
G1 X107.898 Y114.207 E38.01165
G1 X107.874 Y114.319 E38.03285
G1 X107.823 Y114.421 E38.05406
G1 X107.749 Y114.508 E38.07526
G1 X107.656 Y114.574 E38.09647
G1 X107.543 Y114.618 E38.11884
G1 X107.367 Y114.626 E38.15158
G1 X107.278 Y114.603 E38.16861
G1 X107.144 Y114.528 E38.19720
G1 X107.079 Y114.461 E38.21443
G1 X106.800 Y114.015 E38.31213
G1 X106.524 Y113.769 E38.38074
G1 X106.210 Y113.602 E38.44657
G1 X105.924 Y113.524 E38.50171
G1 X105.627 Y113.504 E38.55686
G1 X105.280 Y113.558 E38.62200
G1 X105.004 Y113.668 E38.67715
G1 X104.760 Y113.827 E38.73113
G1 X104.553 Y114.030 E38.78511
G1 X104.389 Y114.271 E38.83909
G1 X104.278 Y114.533 E38.89201
G1 X104.226 Y114.762 E38.93541
G1 X104.211 Y115.054 E38.98971
G1 X104.286 Y115.440 E39.06268
G1 X104.282 Y115.635 E39.09884
G1 X104.195 Y115.820 E39.13692
G1 X104.106 Y115.907 E39.15999
G1 X103.951 Y115.982 E39.19197
G1 X103.831 Y115.998 E39.21440
G1 X103.714 Y115.984 E39.23631
G1 X103.530 Y115.889 E39.27472
G1 X103.470 Y115.828 E39.29059
G1 X103.390 Y115.687 E39.32074
G1 X103.301 Y115.367 E39.38230
G1 X103.167 Y115.102 E39.43736
G1 X102.939 Y114.827 E39.50367
G1 X102.651 Y114.616 E39.56998
G1 X102.372 Y114.495 E39.62629
G1 X102.027 Y114.430 E39.69143
G1 X101.724 Y114.442 E39.74774
G1 X101.385 Y114.532 E39.81288
G1 X101.127 Y114.668 E39.86687
G1 X100.950 Y114.805 E39.90851
G1 X100.794 Y114.967 E39.95015
G1 X100.628 Y115.215 E40.00564
G1 X100.482 Y115.632 E40.08765
